/* XPM */
static char *_59a54686af64ec7ed0dc47db5638b1abf6PTBRYKV4ox20I[] = {
/* columns rows colors chars-per-pixel */
"64 64 256 2 ",
"   c #151817",
".  c #12150D",
"X  c #1B2317",
"o  c #16280D",
"O  c #252919",
"+  c #373719",
"@  c #2E3111",
"#  c #112F2C",
"$  c #2A3528",
"%  c #363827",
"&  c #2A3636",
"*  c #2E3130",
"=  c #2D1B14",
"-  c #540E10",
";  c #6E060B",
":  c #4C3511",
">  c #6E342A",
",  c #623724",
"<  c #144E18",
"1  c #345012",
"2  c #354A32",
"3  c #1E5F2E",
"4  c #4B5414",
"5  c #704C16",
"6  c #576908",
"7  c #587307",
"8  c #566919",
"9  c #4F6A13",
"0  c #677807",
"q  c #687818",
"w  c #747B18",
"e  c #6F7410",
"r  c #474A39",
"t  c #475838",
"y  c #504F2D",
"u  c #685536",
"i  c #6E522B",
"p  c #596825",
"a  c #536E31",
"s  c #677A24",
"d  c #737C25",
"f  c #687A39",
"g  c #6E6B36",
"h  c #323843",
"j  c #0F5350",
"k  c #364E4A",
"l  c #0F744F",
"z  c #2F7251",
"x  c #0F7362",
"c  c #267D6C",
"v  c #495747",
"b  c #585849",
"n  c #4F5051",
"m  c #675A58",
"M  c #70564B",
"N  c #576947",
"B  c #587647",
"V  c #576A57",
"C  c #577856",
"Z  c #48704E",
"A  c #667848",
"S  c #687757",
"D  c #736E50",
"F  c #577267",
"G  c #72776E",
"H  c #595D68",
"J  c #96050A",
"K  c #900A12",
"L  c #A50716",
"P  c #B70918",
"I  c #AD0D13",
"U  c #B42A19",
"Y  c #B40F27",
"T  c #90322D",
"R  c #B62F2F",
"E  c #942420",
"W  c #C7151A",
"Q  c #C90A17",
"!  c #C81725",
"~  c #D71928",
"^  c #D1112F",
"/  c #E61928",
"(  c #EB1931",
")  c #C92736",
"_  c #D82737",
"`  c #D12C2D",
"'  c #E62938",
"]  c #F02B2F",
"[  c #E42A1B",
"{  c #8C5135",
"}  c #AC4531",
"|  c #907031",
" . c #A6712D",
".. c #A06114",
"X. c #C74C3A",
"o. c #AF344C",
"O. c #CC3349",
"+. c #F12E4B",
"@. c #E61842",
"#. c #93504D",
"$. c #B14E4B",
"%. c #906E50",
"&. c #A97553",
"*. c #8D726E",
"=. c #B27072",
"-. c #BB4865",
";. c #CA4451",
":. c #CF536A",
">. c #DA5D6C",
",. c #778607",
"<. c #6C8316",
"1. c #788619",
"2. c #6E900E",
"3. c #798827",
"4. c #798A35",
"5. c #708D2E",
"6. c #649026",
"7. c #0F8757",
"8. c #2B854E",
"9. c #0F8E6B",
"0. c #2C8E69",
"q. c #1DA56A",
"w. c #578956",
"e. c #698549",
"r. c #76884A",
"t. c #698557",
"y. c #768C57",
"u. c #7A9759",
"i. c #6D9453",
"p. c #598E66",
"a. c #688B68",
"s. c #778A66",
"d. c #6B9269",
"f. c #799566",
"g. c #799777",
"h. c #6E8F73",
"j. c #7AA479",
"k. c #76A773",
"l. c #7CA957",
"z. c #879307",
"x. c #848A19",
"c. c #899519",
"v. c #98981A",
"b. c #8D8E0A",
"n. c #AA9813",
"m. c #96A414",
"M. c #A6A417",
"N. c #AFA90E",
"B. c #858B27",
"V. c #8A9528",
"C. c #969929",
"Z. c #858B35",
"A. c #8A9536",
"S. c #979A35",
"D. c #958B2B",
"F. c #A49D29",
"G. c #A49C36",
"H. c #B08E31",
"J. c #9BA22C",
"K. c #9BA437",
"L. c #90A535",
"P. c #A7A62B",
"I. c #B4AB2B",
"U. c #A7A735",
"Y. c #B4AC34",
"T. c #B7AB34",
"R. c #BCB234",
"E. c #BAB539",
"W. c #B5B330",
"Q. c #C8B72C",
"!. c #C6B737",
"~. c #CEB634",
"^. c #D59F30",
"/. c #D3C231",
"(. c #ECCC2F",
"). c #989B48",
"_. c #84985B",
"`. c #908F50",
"'. c #AC9351",
"]. c #9BA347",
"[. c #90A856",
"{. c #A6A946",
"}. c #B5AC44",
"|. c #B8B545",
" X c #AEAF54",
".X c #869A68",
"XX c #8F9570",
"oX c #B18D6D",
"OX c #88A468",
"+X c #89A779",
"@X c #94A977",
"#X c #95B277",
"$X c #AEB46E",
"%X c #D1994A",
"&X c #C2BB46",
"*X c #D2AF4E",
"=X c #D0AD71",
"-X c #EBB870",
";X c #D1A170",
":X c #AAC26C",
">X c #F8CA75",
",X c #DDC453",
"<X c #BB6589",
"1X c #CC728B",
"2X c #E1729B",
"3X c #2CA28B",
"4X c #76AA8B",
"5X c #6C9D96",
"6X c #6DC2B3",
"7X c #8D978A",
"8X c #AC918C",
"9X c #88AA86",
"0X c #97B589",
"qX c #99B994",
"wX c #91AE88",
"eX c #ACB38E",
"rX c #B2B6AF",
"tX c #AC94B0",
"yX c #CC8992",
"uX c #D3B58D",
"iX c #DAA19E",
"pX c #A9C498",
"aX c #AEC9A9",
"sX c #94C7AA",
"dX c #F2CB91",
"fX c #FBE78E",
"gX c #F8D8A9",
"hX c #F9D8B6",
"jX c #EECEA8",
"kX c #FDEAB1",
"lX c #D5D7AB",
"zX c #D3B5D0",
"xX c #DCBBE8",
"cX c #ACD5D9",
"vX c #CBD3D7",
"bX c #F9DDC6",
"nX c #FDE4CD",
"mX c #FDECCC",
"MX c #FCE5C6",
"NX c #FEF3CB",
"BX c #FDEBD3",
"VX c #FBE8D6",
"CX c #FEF3D3",
"ZX c #FEF4DB",
"AX c #FAF9DA",
"SX c #EEE2CF",
"DX c #CBD3EF",
"FX c #FDFBEC",
"GX c #FCF8E5",
"HX c #FEFDF4",
"JX c #FDFEFD",
"KX c #F8F8F8",
"LX c #F5F7F0",
"PX c #DDDCE0",
"IX c #B2BACF",
"UX c #606688",
/* pixels */
"MXMXmXmXmXmXmXmXmXmXNXNXCXZXZXZXNXGXFXCXGXHXHXAXZXBXMXhXhXbXnXGXmXnXVXVXVXBXBXmXBXBXnXnXnXnXVXZXBXZXVXVXBXVXVXSXnXnXnXbXbXbXbXbX",
"MXMXmXmXmXmXmXNXCXCXCXCXZXZXGXGXGXFXHXGXFXHXFXAXmXhXjXuXuXdXgXhXVXnXMXMXmXBXBXVXnXmXmXmXBXBXVXnXZXBXnXBXBXnXnXZXVXnXnXnXbXbXbXbX",
"MXMXmXmXmXNXNXNXZXZXZXZXGXFXFXFXHXKXHXFXHXLXZXkXgXdXuX;XoX;X;X&.8X8XeXuXhXmXZXZXBXCXCXmXmXBXZXBXBXBXmXMXbXhXhXMXVXVXnXnXnXbXbXbX",
"mXmXmXmXCXCXCXCXZXGXGXFXFXHXJXJXJXKXHXFXHXGXMXdX=XoXoXD m m H n n m *.oXuXjXMXCXCXCXZXCXmXBXZXZXBXmXMXhXjXuXjXhXnXVXVXnXVXnXbXbX",
"MXmXCXCXZXGXGXGXGXFXFXHXJXJXJXJXJXJXHXLXFXCXjX;XoX%.m n n k h h v n n m *.8XjXNXCXBXCXZXZXZXZXZXZXMXgXdXuX'.oXdXhXMXnXVXVXVXnXnX",
"hXMXCXZXGXFXFXFXFXHXHXJXJXJXJXJXJXJXJXLXZXkX=X&.*.m h & & * O % & & * h n D 8XhXGXGXZXZXGXGXZXZXZXhXdXoX%.i g '.uXhXMXnXBXBXnXnX",
"gXkXmXCXZXFXHXHXHXJXJXJXJXJXJXJXHXKXJXKXNXdXoXD r * * & * * O O O * # * h n G eXSXFXFXGXFXFXGXGXNXhX=Xi 4 + y i '.uXhXbXnXnXMXMX",
"dXgXkXNXAXFXHXJXJXJXJXJXJXJXJXJXHXKXKXJXMX=X%.n r % & & * & & # O O O & 2 & n *.eXVXHXFXHXHXGXFXNXgX;X5 4 2 y y | =XhXhXMXnXMXbX",
"%X-XdXgXkXAXHXJXJXHXHXHXJXJXJXHXJXLXJXHXgX`.M b r b b * 2 n * $ $ 2 v 2 v n v m *.SXHXHXJXHXFXAXNXgX'.i y % y i u `.uXdXgXgXgXjX",
"H.-X>X-XfXkXNXAXJXKXKXJXJXJXJXJXKXJXKXHXuXM m b S s.r r V 2 O 2 N V V v F V v n m rXHXHXHXGXCXNXkXdX| 4 % $ % y 4 i | '.uXgXdX;X",
"| %X%XH.%XdXkXkXAXFXJXJXHXFXHXJXJXJXJXZX%.M G S wXS 2 v v 2 N a.h.a.C F h.F V b n 7XGXAXNXNXkXgXgX=X5 @ @ O O @ 1 4 4 g `.oX%.g ",
"5 | | 5 { '.=X>XkXkXkXkXkXkXkXgXAXZXHXlXu m XX+XXXt N S N t.9X9Xj.d.w.a.g.h.h.F n D gXkXfXdX-X-X>X'.+ o O O X X O % + @ + O o o ",
": 4 : @ @ : 5 ..%X>XfX>X-X*X,X,XfXgXNX$Xy G 7X9Xt.S .X+X9XqX+X9Xj.k.d.d.j.h.h.a.v y =XdX;X| | `.| i o . X X       % $ X X   .   ",
"+ + @ @ + @ @ : 5  .^.H. . .H.^.,XfXfX`.u s.eX9X+X0X0X@X0X0X+XwX+Xj.k.k.j.d.h.h.Z r `.%.u + @ 2 : @ o     . .   . O O . .       ",
"& + + + + O + + , i 5 i &.'.%X^.^.-X>X%.b s.:X0X0XqX#X#X#X+X+X+X+Xj.+Xg.g.d.a.h.C 2 D % % & * $ $ O X X X X   X X O $ X         ",
"n n m m n h v y y y y u &.oX&. .^. .%X{ m .X[.wX#X@X#X@X@X@X@X+X+X+X+Xa.d.a.p.h.V % b % 2 v v b n & O O * & & $ $ * & & # # # # ",
"V F G G H H H H m v r b *.8X*.M | %.'.i b y.[.@XOX@XOXOXOX@XOXOXOXf.j.d.t.d.w.p.Z @ b n v H UXF F n & * h v k k % & & h j j j j ",
"G G 5X7XG G G G *.D g D XXoX'.| | %.H.g b y.[.@X@X@XOX.XOX@XOXOX.X.Xi.f.f.d.a.C t O b D S G h.h.G V v v v N N v 2 k k k z x x x ",
"XXXXXXXXXXXX[.'.'.'.G.G.'.}.T.T.~.%X~.| u y.OX+X@XOX.Xy._..XOX.Xf.f.t.t.t.t.g.d.a $ N [.XXXXOX.XXX_.r.A A r.r.e.B B B C C C C Z ",
"{.{.{.}.}.}.R.R.!.!.!.!.~.~.~././.(.(.D.y .X#XOX.Xy.e.e.r._.OX.Xy.e.B B N N C a.C % D :X$X X X X[.[.).).).).).).A.`.`.`.`.`.r.r.",
"I.I.R.!.Q.Q.Q.~.Q.~.~.Q.~./.(.(.(.(.(.!.u @X@XOXOXf.t.t.y.u._._.y.B e.t.t.S N C a.r A $X,X&X:X X X X X{.{.{.{.].{.{.].].).).).).",
"I.I.T.Q.Q.Q.~.~.Q.Q.Q.Q.~././.(.(.(.(.*XD @X@X.Xu.s.N B i.i.u.u.e.e.B C N N B w.h.y N [.,X*X,X&X&X|.|.|.|.}.{.{.{.{.].].].].).).",
"F.F.P.Y.T.R.R.R.R.R.R.R.!.Q.Q.~.Q.~.~.'.A OX#X_.t 2 X 2 A y..XOXe.B v $ X O 2 N p.N B 4.,X*X|.&X&X&X|.|.|.|.|.}.{.{.{.{.{.].).S.",
"S.S.F.P.I.I.I.I.I.W.I.I.R.R.!.!.Q./.&X`.e.OX@Xf r 2 . $ S f.OX+Xy.B V $   r 2 N w.G y.[.,X*XW.&XE.E.E.!.&X&X|.|.!.!.E.}.}.}.U.U.",
"G.P.I.I.I.Y.U.P.U.U.P.Y.R.!.Q.Q.!.Q./. X.Xu.qX@XXXS v S s.+X+X0Xh.d.s.N r S 4X4Xd.F u. X|.E.W. XU.Y.E.E.!.!.!.&X!.!.!.!.!.R.R.Y.",
"I.T.Q.Q.R.Y.U.J.S.J.P.Y.R.!.!.!.!.Q.Q. X@Xf.pXeX0X+Xt.a.g.qXqX9Xj.a.h.s.s.g.4X4Xp.V _.|.E.|.{.{.U.U.U.Y.Y.T.Y.Y.R.R.R.R.!.!.R.T.",
"P.I.Q.Q.R.Y.U.P.S.J.U.U.T.R.!.!.E.Q.I. X$Xf.pXaX0XwX9XwXwXqXqX9X4Xj.9X9Xg.9X9X4Xt.N )./.R. X].K.{.{.{.U.U.U.U.U.P.Y.I.R.R.E.R.I.",
"P.P.I.I.T.Y.Y.I.U.U.Y.Y.R.R.R.R.E.W.P.U.$X+X#XaXpXqXqXqXwXwXqXqXh.h.9XwXqXqX9Xh.a.e.{.!.T. X].K.{.{.{.{.K.K.K.K.U.U.P.Y.T.R.T.I.",
"C.C.F.P.P.P.I.I.T.Y.Y.T.R.R.T.I.P.P.U.U. X@X#XaXaXpXqX0X0X0X0X@X7Xg.+XqXqX0X9X9Xh.u.E.Y.T.|.P.U.U.U.U.K.S.A.A.A.S.U.U.U.U.Y.Y.Y.",
"V.V.V.V.V.C.F.P.Y.P.I.Y.Y.Y.Y.Y.J.C.U.P.{.$X#XpXpXpXqX+X+Xt.a t t N f.9X0XwXg.f.h.].W.U.}.E.I.E.P.U.U.K.A.Z.Z.A.V.S.S.G.G.G.P.I.",
"3.B.B.3.3.B.V.C.C.F.P.P.P.S.J.J.J.S.J.J.K.$X0X#XeX0X@X.X+Xf.s..Xs.f.f.f..X+Xt.B [.Y.P.{.|.Y.T.E.T.Y.U.U.K.S.S.S.C.C.S.S.G.G.U.P.",
"<.1.3.3.q d B.A.C.S.S.S.V.V.V.A.K.).J.U.V.).@XOXOX#Xf.e.+XwX+Xf.f.i.i.t.y.t.B B {.I.F.{.U.P.}.I.T.U.U.U.U.K.K.J.J.J.P.G.U.U.U.P.",
"s s 3.3.s 5.Z.C.A.S.V.V.3.3.B.C.G.V.U.U.S.Z.`.#XOX_.e.f +X+X.X.Xr.u.g g t.C Z f S.S.J.J.K.).S.P.M.P.C.V.A.S.S.G.F.F.S.P.P.I.I.I.",
"5.3.B.3.3.4.A.C.V.C.V.V.4.4.4.Z.c.V.L.K.S.A.4.OXOXu.i.f S A N t v v t p r.C N t.A.A.A.A.].K.V.3.G.S.S.Z.Z.A.A.A.C.C.C.C.C.C.C.C.",
"V.V.V.B.3.A.S.V.V.V.B.3.4.4.Z.A.A.A.5.V.P.U.)._.OXu._.u.s.G G D m V t.e.f a B r.5.r.`.Z.S.C.V.].K.K.S.S.A.A.A.Z.B.3.3.3.B.1.w w ",
"C.C.C.V.B.V.V.V.A.Z.3.d 3.V.C.J.A.A.5.B.S.].T.m.u.r.e.u.XXs.S S A B a.w.A p 5.F.5.L.].S.U.U.S.].P.P.U.U.U.J.L.V.3.q q s d q q 8 ",
"c.c.V.V.V.x.x.V.S.V.B.B.V.C.v.v.S.5.4.].V.c.G.l.A r.f e.u.i.a a a A w.t t Z [.F.F.P.J.c.C.U.G.}.P.P.P.P.P.C.V.B.5.q 8 s 5.5.s p ",
"x.x.3.3.V.x.1.V.M.C.V.C.U.S.C.B.3.6.5.3.3.:XqX3Xt f.r.5.i.OXu.u.i.y.N t 2 3 j.=X X}.P.V.V.K.S.C.K.V.V.C.B.V.Z.3.p 8 8 s Z.Z.5.s ",
"1.s q s B.B.3.3.v.c.B.V.K.S.B.5.s 6. XlXSXvX3Xl t f.u.r.e.u..Xu.f.t 4 t 2 # 9.sXvXpX@Xr.3.A.L.3.4.d 4.4.3.B.V.B.p p s d B.V.B.q ",
"q s 9 8 3.V.B.3.B.3.s 3.V.B.3.5.3.eXPXIX8X8Xq.9.2 y._._.A A A a 9 u a 1 % j 9.x 3X6XcXqX`.B.B.3.s p s 4.5.V.C.c.f f s 3.B.C.x.w ",
"s s s q B.c.V.4.1.B.5.3.5.f 3.c.=X6Xk.eXxXDX3X9.3 t.u._._.u.r.f r.g a 2 j x j *.u M G 6XaXC.5.3.8 a 5.4.B.M.N.c.c.c.x.B.S.D.x.x.",
"q w 3.B.V.v.v.B.D.V.G.A.B.3.1. XsXsXvXKXPX1Xz 9.z w.s..XOX_._.u.5.f a 3 l x 5XDXyXvXDX8X7XrXC.B.5.5.B.B.B.V.m.V.V.C.c.C.S.B.B.3.",
"w 1.V.V.V.v.M.v.C.P.v.v.v.2.Z.sXcXPXvX7X;.( D 9.9.z g.@Xf.OXu.i.e.A v l l j 1XzXDXtXzXDXtX5X$XH.4.S.C.3.5.3.<.B.B.x.c.P.C.w q s ",
"3.1.1.3.w b.M.v.M.I.z.b.w s wXsXyX+.D z ] ] ;.9.9.7.h.wX@XOXu.u._.Z x x l T ) $.;.^ ~ yXDX*.4X$XF.M.5.5.5.3.B.c.1.w 1.C.c.e q q ",
"3.q w q q ,.v.v.P.c.c.V.9 h.cX1X] / $.D [ ` +.z 7.7.8.g.@XOXOX@Xp.l x l r ( U U ~ ] ` ) IXvX#.4X&XM.1.4.3.C.{.c.c.3.w x.x.B.C.v.",
"8 0 0 w w 1.c.x.D.6.q s A sXyX] ] _ @.$.] +.+.{ 7.9.l Z XX@X+Xd.7.l l 3 _ / ;.$.' ' W / O.DX2XM @X|.N.n.F.S.C.c.m.V.B.v.C.S.G.M.",
"8 e ,.x.x.c.z.x.w x.9 8 @XrX;.} ) +.+.A #.+._ #.8.9.7.l p.j.p.l l l l i R _ %.D _ _ ^ ^ ^ <XDX:.D '.N.N.P.x.z.v.M.P.C.N.N.F.C.v.",
"d x.b.v.v.b.z.z.2.b.5.f 0X&.+.8.R ] ] w.p.$.{ 8.0.7.9.9.0.p.z 7.9.7.b o.z #.8.A ] ) Y ) Y R tXxX#.{ c.m.2.z.N.v.N.I.M.N.N.v.C.M.",
"s 1.1.x.c.B.x.z.z.n.n.OXi.2XD l ` +.;.8.#.$.7.0.q.M 9.3X9.x 9.9.7.l { ` C C ..M _ [ K Y u ! O.cXtX^ ..m.1.z.N.n.N.N.N.N.N.M.n.m.",
"q <.8 e z.d 1.,.2.v.D.p.8X2XE 8.} +.$.{ ] +.%.q.0.O.o.9.c x 9.7.z T ) R #.+.' Z z } K P > T ^ <XDX:.U J.x.2.N.m.m.m.m.b.M.M.v.m.",
"q <.4 0 1.q q q 7 e w.Z 2X2XQ u g { ' ( ' ' +.D q.$.( u 9.9.7.Z z T R ) #.%.V l z U J K , y E ^ tX#.Q D.b.<...2.0 7 q 0 b.N.b.m.",
"0 <.4 8 <.9 4 4 p p q.{ iX1X! Y N $.] ` ' +.' ' p.$.] _ V 9.#.u l } ) O.w.q.q.9.H E - K , i y ^ o.E Q ..m.0 w 2.1 9 8 7 ,.v.z.z.",
"7 <.4 9 7 1 1 1 4 s C O.zX;.P Y M O.] ' +.>.( ] $.` ] ' _ M @.t 8.) ~ M 9.0.F 9.0.2 @ L r r 3 T P L Y W n.1.d q 9 <.,.<.q q q 7 ",
"0 0 p 9 6 1 4 9 8 ..R tXzX_ I P > $./ +.1XrX+.] ~ ~ _ ' / ~ ) t 8.o.R Z 0.*.=.G 9.l @ ; & l j > J L Y Q ..<.q 9 8 1.,.1.p 1 1 6 ",
"<.0 p 8 9 4 8 q  .] ~ IX2X/ W Q T $.` >.zXzX>.~ U ~ ) _ ~ ` ~ N 8.O.} 0.0.8XsX+X7.l < . # 3 > L J Y Y ! ! d w 9 8 d e q 9 1 1 1 ",
"e 6 8 8 4 1 9 0 ..^ P 1X:.^ ^ I E R O.yXyXtX1XQ U ( ' ! ` ' ) A 0.X.{ 9.V =.6X%.Z 9.% . = ; L J Y Y J W ^  .V.7 8 4.Z.q 4 1 1 1 ",
"0 6 < 8 s < 1 w ` ` W Q ~ _ ! I E #.>.yX1X=.=.O._ _ ' ! _ ' ) S 0.g t 0.0.*.7X*.c c < - - J K J Q P J ^ ^ } b.1.Z.`.x.,.<.8 4 o ",
",.6 @ 4 e 7 7  .] ' ! P ! ! W P J } +.:.;.;.;._ ` ( / ~ T i ` a 7.z u z 9.#.#.F 9.z 1 = ; J L L I L P ^ Q W ..c.S.d x.z.,.<.1 O ",
"7 9 4 4 e ,.w X./ / ~ ! ! ! P P J T +.( ) ) ~ _ ' yX8XyX8X4XoXd.l z R > 0.m { q.z y 1 O ; ; J L Y K L W W Y R v.v.e 0 ,.7 0 9 2 ",
"1 6 <.9 q 0 | ] ~ / ' / ~ P J J ; , _ ~ ~ _ _ _ >.cXcXcXDXDXcXrXl 2 _ Y M b D V T : 3 < - ; J K Y I I P ! ! ` n.z.m.z.0 4 6 8 1 ",
"6 7 2.7 s q } ( ~ ! ~ ~ ! I J K ; : ) ! _ ` _ ~ >.aX=.=.*.tXvX*.2 y ) ~ ~ T a.T P 1 3 # - ; J K L P Q I Y W ..n.,.z.c.6 8 4 4 1 ",
"e 0 2.e 1.q R / ~ P I I I L J K ; : ;.) _ ! _ / >.aX) / > 4XIXR E i _ ( / T V E I < < - - ; L L L I W Q ^ ..z.z.6 ,.0 6 3.6 t t ",
"0 e w b.b.0 ..U _ W P I I L J J ; y R ~ _ _ ' ' $.rXO.U N cX8XY ! u R / U K > I T < # > 5 ; J L I Y E P R 1.2.0 6 <.6 6 3.4 f p ",
"7 7 6 0 b.<.2...! ! ! ! Q Y I K T e.R ( _ _ ~ ` _ R O.: p.vX-.W ~ b N ` Y Y ^ ! E < % ..x.; ; L L Y Y E e w 8 7 9 7 <.6 8 y 4 0 "
};
