/* XPM */
static char *f760bbe23036401c9c4bb12a90450cf0ffsxOKBM2abIAumy[] = {
/* columns rows colors chars-per-pixel */
"64 64 256 2 ",
"   c #131911",
".  c #141A13",
"X  c #1B2217",
"o  c #1A3216",
"O  c #272B17",
"+  c #20221F",
"@  c #2E3016",
"#  c #383519",
"$  c #272A29",
"%  c #2A342A",
"&  c #32362A",
"*  c #353937",
"=  c #70060B",
"-  c #61110D",
";  c #473417",
":  c #4F3B2C",
">  c #72352A",
",  c #354F0E",
"<  c #3B5615",
"1  c #14512C",
"2  c #304D2D",
"3  c #3A4439",
"4  c #18603B",
"5  c #4A4D15",
"6  c #445C15",
"7  c #6D4D18",
"8  c #566A0B",
"9  c #586E0F",
"0  c #4A6315",
"q  c #556815",
"w  c #687809",
"e  c #697918",
"r  c #727A10",
"t  c #4D4F30",
"y  c #6F5233",
"u  c #5B7428",
"i  c #536834",
"p  c #697B25",
"a  c #6D7235",
"s  c #3E3E42",
"d  c #0A4D4F",
"f  c #384D47",
"g  c #117154",
"h  c #2F714D",
"j  c #137D62",
"k  c #2B7C61",
"l  c #474B49",
"z  c #52554D",
"x  c #695948",
"c  c #6E5754",
"v  c #576A48",
"b  c #5A7649",
"n  c #4E6B50",
"m  c #597755",
"M  c #736F4F",
"N  c #667948",
"B  c #696857",
"V  c #746759",
"C  c #677857",
"Z  c #565D62",
"A  c #784F6C",
"S  c #576E66",
"D  c #71726A",
"F  c #87020C",
"G  c #920A13",
"H  c #990813",
"J  c #A80916",
"K  c #B70D1B",
"L  c #AC131E",
"P  c #9B2B1D",
"I  c #AD1524",
"U  c #BB1825",
"Y  c #91322E",
"T  c #B12E2E",
"R  c #B83838",
"E  c #C2101D",
"W  c #C2241D",
"Q  c #C40F20",
"!  c #C81726",
"~  c #D71C2B",
"^  c #C6232C",
"/  c #D7232D",
"(  c #CA2B35",
")  c #D82533",
"_  c #C83636",
"`  c #D9343B",
"'  c #E52A38",
"]  c #E3333D",
"[  c #A25517",
"{  c #916A15",
"}  c #874B33",
"|  c #B04435",
" . c #8F6E37",
".. c #AB752F",
"X. c #C45229",
"o. c #AE3844",
"O. c #D53744",
"+. c #E43645",
"@. c #8E5747",
"#. c #B24B4A",
"$. c #8F724D",
"%. c #B07255",
"&. c #8F5B75",
"*. c #8D746D",
"=. c #B17273",
"-. c #CC4954",
";. c #E14B5C",
":. c #CF5364",
">. c #CB6778",
",. c #79850A",
"<. c #6E811C",
"1. c #788518",
"2. c #6C822C",
"3. c #7C8924",
"4. c #788729",
"5. c #7B8C36",
"6. c #16845C",
"7. c #2E8758",
"8. c #108A69",
"9. c #2B8A6B",
"0. c #528558",
"q. c #6A854B",
"w. c #74874B",
"e. c #7B924F",
"r. c #698757",
"t. c #758858",
"y. c #79945A",
"u. c #4C8D66",
"i. c #678B63",
"p. c #728E6F",
"a. c #7A9766",
"s. c #7AA46D",
"d. c #838C09",
"f. c #989A06",
"g. c #90910D",
"h. c #848B19",
"j. c #8B9219",
"k. c #979918",
"l. c #A29A19",
"z. c #9FA01C",
"x. c #AAA60A",
"c. c #A6A315",
"v. c #838C23",
"b. c #858C29",
"n. c #8C9324",
"m. c #869229",
"M. c #8C942B",
"N. c #959727",
"B. c #9B9D2C",
"V. c #898836",
"C. c #899534",
"Z. c #949B34",
"A. c #9B9E32",
"S. c #949A38",
"D. c #A19E2A",
"F. c #B18D39",
"G. c #9EA12F",
"H. c #9DA133",
"J. c #9DA43B",
"K. c #A8A42C",
"L. c #B5AB2D",
"P. c #BDB12E",
"I. c #A4A333",
"U. c #ABA532",
"Y. c #AAA938",
"T. c #B4AC33",
"R. c #B5AC35",
"E. c #BCB339",
"W. c #CA9137",
"Q. c #C6B632",
"!. c #CCB532",
"~. c #E5AC37",
"^. c #DAC12E",
"/. c #E8C82E",
"(. c #8F904E",
"). c #959A47",
"_. c #82985A",
"`. c #AA924D",
"'. c #9BA246",
"]. c #9CA35A",
"[. c #A7AA46",
"{. c #B6A946",
"}. c #B8B443",
"|. c #AEB055",
" X c #879969",
".X c #8F9071",
"XX c #AF8D6F",
"oX c #89A36B",
"OX c #89A675",
"+X c #92AA75",
"@X c #A8AF6A",
"#X c #C4BB45",
"$X c #CDAD56",
"%X c #D7A452",
"&X c #D0A773",
"*X c #E9B974",
"=X c #DFC055",
"-X c #F1CA75",
";X c #975A89",
":X c #94768A",
">X c #AD7495",
",X c #B675AB",
"<X c #CA758B",
"1X c #C77AB7",
"2X c #DF75D0",
"3X c #2DA688",
"4X c #6CA199",
"5X c #908F8A",
"6X c #A58889",
"7X c #AD9192",
"8X c #87A984",
"9X c #93A987",
"0X c #94B08F",
"qX c #AEA894",
"wX c #B986A5",
"eX c #B58DAB",
"rX c #91B5AA",
"tX c #ABA3AB",
"yX c #CC8892",
"uX c #D5B18D",
"iX c #E6BD92",
"pX c #CB8EB1",
"aX c #C889B8",
"sX c #C993B7",
"dX c #CDAEAC",
"fX c #A0C6A7",
"gX c #B1C8B6",
"hX c #F2CC95",
"jX c #ECDA9D",
"kX c #F1D1A8",
"lX c #F7D8B8",
"zX c #FCE7AC",
"xX c #FBE7B5",
"cX c #BAB4CF",
"vX c #D18FC5",
"bX c #E88FD9",
"nX c #C8ACCD",
"mX c #E2A2DB",
"MX c #BACACD",
"NX c #CEC9DA",
"BX c #E9DCC9",
"VX c #F7DDC8",
"CX c #FBE6C4",
"ZX c #FCE4CB",
"AX c #FDECCC",
"SX c #FBF1CA",
"DX c #FDE5D2",
"FX c #FDEBD2",
"GX c #F6EFDC",
"HX c #FDF2D4",
"JX c #FDF4DB",
"KX c #FDF6E3",
"LX c #FCF8E6",
"PX c #FCF9EB",
"IX c #FCFBF3",
"UX c #FDFDFC",
/* pixels */
"CXZXZXCXCXCXAXAXAXAXAXHXHXHXHXJXJXKXKXKXKXLXLXKXJXZXlXkXlXlXCXAXFXFXAXZXZXZXZXFXDXDXDXDXDXDXDXDXDXDXDXDXDXDXDXDXDXDXVXVXVXVXVXVX",
"ZXZXCXCXAXAXAXAXHXHXHXHXJXJXKXKXKXLXLXPXPXPXPXJXCXlXkXiXiXiXkXlXVXVXlXVXZXAXFXFXFXFXFXFXFXFXFXFXFXFXFXFXZXZXZXDXDXDXZXVXVXVXVXVX",
"ZXCXCXAXAXAXHXHXHXJXJXJXKXLXPXIXIXIXIXIXPXPXJXCXkXiXuX&XXXXXXXXX6X7XuXiXlXZXFXFXFXFXFXFXFXFXFXFXFXFXAXZXlXlXlXZXDXDXZXZXZXVXVXVX",
"CXAXAXAXHXHXHXJXJXKXKXPXPXIXIXUXUXUXUXIXPXJXCXhX&XXX*.V B B c Z Z B *.XXuXkXCXHXHXHXHXHXHXHXHXHXFXAXCXlXkXiXkXlXVXZXZXZXZXZXVXVX",
"CXCXAXHXHXJXJXKXLXPXPXIXIXUXUXUXUXUXUXIXLXSXhX&XXX*.c z l s * * l l z Z *.7XkXZXJXJXHXHXHXJXJXJXHXCXkXhX&XXXXXiXlXVXZXZXZXZXZXZX",
"xXCXAXHXKXLXPXPXPXIXIXUXUXUXUXUXUXUXUXIXJXzX&XXXV z : * * $ $ * * * $ * l V 7XkXJXKXJXJXJXJXKXKXHXxXhXXX$.y a XXuXlXCXZXZXZXZXZX",
"kXxXSXHXKXPXIXIXIXUXUXUXUXUXUXUXUXUXUXUXSXiXXXV l * & * * $ $ $ $ $ $ $ s l D uXBXPXPXLXKXKXLXKXHXlX&X .5 5 t y `.iXlXZXZXAXZXZX",
"*XhXxXSXHXLXIXUXUXUXUXUXUXUXUXUXUXUXUXIXxX&X$.z : : * * * * $ $ $ $ $ * f s z *.qXGXIXIXPXPXPXKXAXkX&Xy 5 ; t t $.&XhXlXCXZXCXlX",
"%X-XhXzXxXHXPXIXUXUXUXUXUXUXUXUXUXUXUXPXkXXXV x A A z * 3 l % $ & 3 f f l A A Z .XBXUXIXIXPXLXJXCXhX`.y 5 # t t y (.&XhXkXlXkXkX",
"`.*X*X*XhXxXSXLXIXUXUXUXUXUXUXUXUXUXUXLXuXV V A 1XvXA t n 3 % 3 n n n z A vX,XA B dXIXIXPXJXHXAXzX*X .5 ; @ # t t y $.XXuXhXiX&X",
" .W.%XW.%X-XzXxXHXPXIXPXPXPXPXPXIXUXUXBX*.x V >XaX>X,Xc l t v r.i.i.m D eX,X,X>Xc 6XGXJXSXxXxXzXhX&X7 @ @ O O @ # 5 t y $.`.$.y ",
"7 .. .7 y F.%X-XjXxXSXSXxXzXzXxXSXKXPXiXx B *.vX:Xc ,X>XB i.s.s.s.s.C :XvXD :XaXA D kXxXjX-X*X*X*X`.; X X O X X O # # @ # @ O O ",
"; 5 5 ; ; ; 7 { %X-X-X-X=X%X=X=XhXxXSX&Xx V wXaXD t.6XvX6XOX8X8X8Xs.D vX6Xp.p.wX>Xc &X*X$X . .$. .7 O X . .     X @ @ X . . . . ",
"# # # # @ @ # ; 7 ..W.W.....W.~.=XhXjX`.x *.vX7XOX+X9XsXsX9X8X8X8Xs.eXaX.Xp.p.:X,XA $. .y t # 5 5 @ X           X O O X         ",
"& & : : # @ # ; 5 7 } }  .%.F.W.~.=X=X$.x >XvX9X9X9X9X7XvX7XOXOXOX5XvX6Xp.i.i.p.,X;Xx t & & & & & O X X X X X . X O % X . . . . ",
"l z z z l l t l t t t y *.XX`...F.W.W. .c aXeX+X+X+X+X+XsXeXOXOXOXeXaXp.i.i.i.i.:X,Xc * 3 l l l l * $ $ % % % % % & & % $ $ $ $ ",
"Z S D D S Z Z Z B z t x *.XX*. . . .F.y c aX.X+X+X+XoXoX6XsX6XoX.XsX6Xi.i.r.r.0.B ,XA l z Z S S Z l * % 3 f f 3 * * * f d d d d ",
"S D p..XD D D D M M a M .XXX(. . .F.`. .&.pX.XoX+X+XoX X.XpXwX X7XaX.Xt.i.i.i.0.v >X;XB D D p.p.D B z t z n n z t t l f h g g g ",
" X.X.X.X].].].].`.`.A.F.{.{.{.R.W.!.~. .&.wX X+X+X Xa.y.y.6XsX:XaX>XC C C r.i.i.n &.>X.X X X X.X.X_.w.N N q.q.N N N N C m m m n ",
"'.[.{.{.{.{.{.}.Q.Q.Q.Q.!.!.!.!.~.^./...&.wXoX+X Xt.q.w.w..XpXvXaXD b b b b m i.m &.yX|.|.|.@X@X].].).).).).).(.(.(.(.(._.e.e.w.",
"T.R.R.Q.Q.Q.Q.!.!.!.!.!.!.!.^././././.W.&.pX+X X Xy.q.q.q.y.XXpX*.N b 0.0.b b m C >XwX@X$X#X|.|.|.|.|.[.[.[.[.'.'.'.'.'.).).).).",
"L.L.L.P.P.P.Q.Q.!.!.Q.!.!.!.^././././.$X$.sX7XoXy.N v b q.e._..Xr.b b v n v b m D aXD _.#X#X#X#X}.}.}.}.[.[.[.[.[.[.'.'.'.).).).",
"D.I.K.U.L.L.P.P.P.P.P.P.P.Q.!.!.!.^.#XoXC pXwXy.i 2 % 3 b t.y.a.r.b i * $ % 2 v :X,XM ).#X#X#X#X#X}.}.}.}.}.}.[.[.[.[.[.[.'.).S.",
"D.D.I.K.L.L.L.L.L.L.L.L.T.P.Q.Q.Q.!.Q.].q.6XsXV t l + * C y.oXoXi.b n * + 3 t B eX:Xr.[.#X#X}.}.}.E.}.#X#X}.E.E.E.E.E.R.Y.Y.Y.I.",
"I.U.T.T.L.L.L.K.K.K.U.L.P.Q.Q.Q.Q.!.!.|.y..XsXwXp.C z m p.OX9X9Xp.i.i.v l S p.7XaXD y.[.}.}.}.Y.Y.R.E.E.E.E.E.E.E.Q.E.E.E.E.R.T.",
"K.L.P.L.L.U.I.B.A.I.I.U.P.Q.Q.!.!.!.Q.|.+X.XaXvX5Xa.i.i.OX0XqXeX5Xp.p.t.i.p.5XvX,XV _.}.}.[.[.Y.Y.Y.Y.Y.Y.R.R.R.R.E.E.E.Q.Q.P.P.",
"K.L.Q.Q.L.T.I.I.I.I.U.U.R.E.Q.Q.Q.Q.L.{.+XpXbXbXeX9XOX9X0X0XeXmXeX5X8X8XOX8XeXbX2XwX].E.}.[.[.J.J.Y.Y.Y.Y.Y.Y.Y.U.U.T.R.E.P.P.T.",
"D.K.L.L.L.L.K.U.U.U.U.T.R.E.P.T.T.T.L.Y.@XvX2XbXmXqX0X0X0X7XvX1XvX5X8X0X0X0XvXbX2XaX{.E.R.[.J.J.J.Y.Y.Y.J.J.J.H.H.I.U.T.R.P.T.T.",
"N.N.D.K.K.K.K.U.T.T.T.T.T.P.T.U.U.U.I.U.|.sX2X2XvXqX0X0X9XsXwX*.>XeX5X0X0X9X1X2X2XpX{.R.Y.Y.Y.Y.Y.Y.Y.H.S.C.C.Z.Z.H.I.U.U.T.T.U.",
"n.n.n.n.n.N.B.K.K.U.U.U.T.L.U.K.G.H.H.U.Y.yXbXbXbXtX0X8XeXaX*.N V aXwXOX9X6XvXbXbXyXU.Y.Y.R.R.R.Y.U.Y.H.C.C.C.C.M.A.A.A.A.I.U.U.",
"3.3.v.3.4.3.n.B.B.D.I.I.B.B.B.G.H.Z.H.H.I.XXmXbXaXvX7X6XvXeX Xa.p.:XvX6X6XsX1X1XbX%XU.U.U.R.R.E.R.R.U.I.Z.Z.C.C.Z.A.A.A.A.A.I.U.",
"p 4.v.3.p 2.m.M.N.N.B.B.M.m.m.B.H.A.H.H.Z.(.pXmX6XpXvXvXeX.XC v v D >XaXaXwX&.aXvX`.I.Y.I.I.U.U.U.U.I.H.A.A.A.A.B.D.D.I.U.U.U.U.",
"p 2.3.3.p 4.m.M.M.M.N.M.5.5.4.M.Z.H.H.H.C.5.=.mX.X.X>XwX*.C B B B v V ,X,XV B vXyXS.S.S.H.A.Z.A.I.K.B.M.C.M.B.B.D.D.D.I.K.K.K.K.",
"4.4.b.3.4.b.M.M.M.M.M.m.4.4.5.b.M.M.Z.Z.Z.C.(.pX6X_.M M C t.N i v v i B M b V aX(.C.C.C.Z.S.C.Z.A.B.Z.C.5.C.m.M.N.N.N.N.B.B.N.n.",
"m.n.n.b.4.M.N.M.M.m.b.3.4.3.M.M.M.M.C.C.A.H.S.XX7X_.y.q.t.N i i i b b N q.i *.>X5.C.C.C.Z.A.C.S.H.H.H.S.C.C.C.m.b.v.3.3.v.1.<.e ",
"n.N.n.n.v.n.n.n.M.b.4.4.4.m.N.B.M.C.5.C.M.H.H.).XX Xy.y.a.q.r.t.q.b r.q.b i *.`.C.S.Z.S.A.H.S.H.I.I.K.I.H.A.C.m.4.e e p 4.e e q ",
"v.v.n.n.v.v.v.v.N.N.b.m.M.M.N.N.m.5.5.C.M.Z.H.y.C t.q.t.y.y.a.a.t.r.q.b i v `.I.H.I.I.Z.Z.H.H.I.U.I.K.K.D.B.M.v.p u u p 4.4.p q ",
"3.3.3.v.v.3.3.v.N.N.N.N.B.B.n.v.4.2.5.S.'.|.OX9.i t.N N w.y. Xy.t.N i t 2 h s.@X|.Y.I.C.C.Z.B.B.B.Z.M.N.M.b.m.3.p u u p b.b.p e ",
"<.e p p 1.3.3.v.n.n.v.n.B.M.3.4.2.5.@XgXgXgX3X6.t t.y.w.N w.y.w.N i t t 2 1 9.rXgXgX@X5.5.M.M.m.4.4.4.4.3.3.n.3.u u u p v.n.1.e ",
"e e u p 1.v.v.3.3.4.p 4.v.3.4.4.C.qXgXdXqXqX3X8.i t.y._.w.a a i i i i t 2 4 j 9.3X4XrX0X(.b.b.4.u u p 4.5.n.k.v.p p p p b.j.1.e ",
"e p p p 3.n.n.3.4.b.4.4.4.2.4.M.@XfX8XqXnXcX3X8.h r.y._.y.e.w.q.a a i 2 4 g k *.B D 5XrX0X).m.4.u u p 5.m.k.c.j.v.v.3.b.M.j.h.1.",
"p p 3.v.v.k.k.v.b.B.N.n.v.3.3.].fXfXMXNXNX<XS 8.k 0.a.a._._._.y.w.a i 4 g g 4XnXsXnXnXtX4X9XZ.b.p 4.b.b.3.j.k.j.j.j.n.B.N.j.1.1.",
"p 1.j.v.h.k.l.k.N.K.D.n.h.3.).fXMXNXcXtX:.` @.8.8.7.a.oXoX X_.y.q.b h g g f >XcXnXpXsXNX5X4X@XM.b.M.M.4.4.3.h.1.h.h.j.D.N.<.e e ",
"1.1.h.1.1.j.k.k.z.c.k.v.e p 9XrXyX:.V C ` ' #.9.8.6.i.oXoXoX Xy.t.n g g g Y ( #.:.O.O.pXNX5X4X@XI.B.M.4.2.4.m.v.1.<.1.k.v.p p 4.",
"1.r r e e ,.g.k.k.k.h.1.u a.rX>.+.' #.$.` ' ` n 8.6.7.a.oXOXoX X0.g g g t ^ T T / ' ~ O.nXnX*.OX{.K.M.4.b.M.N.n.v.4.<.j.h.v.n.n.",
"e e r e e ,.g.h.h.1.<.e N rX7X+.] ' ` #.` ] ] @.6.6.j 0.a.oXoXi.g g g f T ~ _ R ) ) ! / :.cXpX@.+XL.k.N.N.N.k.k.k.n.j.k.k.N.D.z.",
"e e 1.h.h.g.g.1.<.<.e u OXqX;.| _ ' ] $.@.] ` @.7.6.6.j 0.a.i.6.g g g y T ( @.M ` ) U ! ^ >XnX>.$.[.c.x.k.h.j.k.c.z.c.x.c.n.N.k.",
"e h.d.g.k.h.d.d.1.j.v.5.8X=.-.v R ' +.m N #.x h 7.k 8.8.9.u.6.6.6.j z | v @.C M ` ) K U U ( eXnX#. .k.f.d.j.c.k.x.c.x.x.x.z.k.k.",
"e 1.,.1.j.1.,.d.d.l.N. X.X>.@.h R ] -.m @.#.h 7.u.B k 8.8.j 8.8.j h } R m M @.y R / J L Y T #.cXpXR { g.,.g.x.x.x.x.x.x.x.c.k.x.",
"u e e r 1.<.,.,.,.g.b.i.=.<XY h | O.| | ` ] @.u.u.#.@.9.6.6.8.j h y T R @.#.| n v T H H > Y U >XcX:.[ k.,.,.x.f.f.f.f.f.k.c.f.f.",
"e e q e ,.e e 9 w e 0.b <X<XU y x #.` ' ' ] O.M u.#.` x j 8.j h h Y ( _ @.M m k h Y G G : > Y R eX#.W { d.r d.d.w w w w d.c.f.f.",
"w r 6 9 w 0 0 6 0 u u.@.pX>.Q P x #.' ' ' ' ' -.C #.' ( z j x y h Y ( R m 9.9.9.n > - F : > y T o.I E [ k.e r ,.0 q 9 9 ,.g.d.,.",
"w w 0 0 8 < < < 6 a m #.nX-.E K y #.' ' +.;.' ] #._ ) ' R @.T t h R ( x 9.9.u.9.k 2 ; = : t t Y J J E W l.1.e e q e <.r w w 9 w ",
"w w q 0 0 < 6 q e | | yXnX` E K } #.) +.<XpX+.' ~ ! ' ' ~ ^ U t h R R n 9.*.*.S 9.g @ - 2 4 2 > G J K ! [ e 9 0 q ,.,.<.q < < 0 ",
"r w 9 q 6 < 0 w { / ( nX<X~ K K Y R ) >.sXnX:.~ ! ~ ' ) ~ / ^ x n | | k u.5XrX5Xk g %   o 4 : G H K K Q T r e q q e r e 6 , , , ",
"w 9 8 q 6 < 6 w [ ~ ! >.:.~ K K P R -.<XpXyX>.! ! ) ' / / ) ( v 0.#.x 9.m *.4X*.h j 2   O - H H J K K Q ! ..h.e u b.v.e 0 , , , ",
"w 8 , q q < < r _ ~ Q ! / ~ K K G | >.<X<X>.=.O./ ' ) / ( ( ( v 7.M n k 7.*..X*.k k 2 - = F H H K K J Q Q X.h.h.V.V.h.,.w 8 , o ",
"r 8 , 6 w 8 9 { / ~ ~ E ! ! K K G Y ;.:.-.-.#.O.) ` ) ) R } R n 7.h t n 9.V @.S 9.h 2 @ = = F H J J J ! E ^ { n.N.p ,.d.,.w 6 o ",
"8 8 6 < w w r X.~ ~ ~ ! E E K J G Y ] ) ~ ~ / ) O.yXyXyX6X5XXXi.g h T > k x c 9.h t 2 O - = F H J J K Q K Q | j.k.d.,.w w w 6 , ",
"0 8 w 8 w w { ` ~ ~ ~ ~ Q K J F = > ` ~ ~ / / ) :.MXMXMXMXMXMXrXg t ^ U x x V v > : 1 o - = F H J J K U K Q T g.f.g.d.w 0 8 0 < ",
"8 w r w r w [ / ~ ! ! ~ ! J H F = > _ ~ / / / / :.cX=.=.*.rXMX*.3 t ^ / ^ } M Y L 2 1 o - = F J J J U K Q ! [ f.,.d.d.8 8 8 6 , ",
"w w ,.r r w | ~ ~ E K K K J H F = : R / / / / / :.gXO.^ y 0XcXo.Y y ^ / ! Y x Y P 2 1 ; - = G J J K K K Q [ g.,.8 ,.w 8 r 0 6 6 ",
"w w w ,.d.w { W ~ ! K K J J F F = t R / / / ) / -.eX_ T v gX7XU U y T ) U G P I P 1 o > 7 = F H J K K U [ d.w w 8 w 8 q r 6 i u ",
"8 8 8 r r w ,.{ W Q ! Q K K J F P a R / / / ) / ( R ^ > u.MX%.U ! y y ^ L L U U > 1 @ [ { = F H J K U P r ,.9 9 0 w r 9 8 < 6 r "
};
