/* XPM */
static char *dd393c41b7974c80e33d88c356befades7eWs0PdLAcgDpPd[] = {
/* columns rows colors chars-per-pixel */
"64 64 204 2 ",
"   c #030403",
".  c #090606",
"X  c #050906",
"o  c #090A06",
"O  c #040609",
"+  c #0C0509",
"@  c #050A0B",
"#  c #0A0D0A",
"$  c #110E0A",
"%  c #100B07",
"&  c #06110E",
"*  c #0C120C",
"=  c #12120E",
"-  c #1C140B",
";  c #1A1509",
":  c #060E11",
">  c #0A0E11",
",  c #061112",
"<  c #0B1313",
"1  c #0E1916",
"2  c #051519",
"3  c #0D1619",
"4  c #061A1D",
"5  c #0D1A1B",
"6  c #121513",
"7  c #1A1612",
"8  c #141916",
"9  c #1A1A15",
"0  c #121619",
"q  c #121B1B",
"w  c #1C1E1B",
"e  c #22140D",
"r  c #241A0F",
"t  c #231711",
"y  c #231D13",
"u  c #211E1B",
"i  c #281B12",
"p  c #361E12",
"a  c #16201D",
"s  c #1D221C",
"d  c #1C251A",
"f  c #252217",
"g  c #23241D",
"h  c #2C251A",
"j  c #2D291C",
"k  c #292114",
"l  c #342C1D",
"z  c #38281B",
"x  c #39321E",
"c  c #0D1D21",
"v  c #071F21",
"b  c #131E21",
"n  c #1A1D21",
"m  c #0E2124",
"M  c #0D262B",
"N  c #142224",
"B  c #1A2324",
"V  c #1C2A25",
"C  c #142529",
"Z  c #1C262A",
"A  c #152A2D",
"S  c #1C2C2C",
"D  c #1D312C",
"F  c #142F32",
"G  c #1C2E32",
"H  c #163233",
"J  c #1C3234",
"K  c #1D3539",
"L  c #1E3B3D",
"P  c #153739",
"I  c #222423",
"U  c #242925",
"Y  c #2B2B23",
"T  c #232728",
"R  c #212E2F",
"E  c #232C2B",
"W  c #2A2D2B",
"Q  c #322D23",
"!  c #342B23",
"~  c #22312D",
"^  c #2C322D",
"/  c #333124",
"(  c #3B3323",
")  c #32332C",
"_  c #3C342B",
"`  c #3D3A2B",
"'  c #222E32",
"]  c #2D2E30",
"[  c #223031",
"{  c #233334",
"}  c #2B3433",
"|  c #2D3A35",
" . c #23353B",
".. c #2B353A",
"X. c #263A3D",
"o. c #243A3D",
"O. c #2B3B3C",
"+. c #303435",
"@. c #323A34",
"#. c #3C3C33",
"$. c #343C3D",
"%. c #393F3A",
"&. c #43281F",
"*. c #443619",
"=. c #413926",
"-. c #4C3B25",
";. c #45362B",
":. c #443D2B",
">. c #4A3726",
",. c #58392B",
"<. c #4C3D35",
"1. c #423C37",
"2. c #5B3D36",
"3. c #573E3A",
"4. c #563C34",
"5. c #3B433C",
"6. c #43402F",
"7. c #51402C",
"8. c #464032",
"9. c #4B4433",
"0. c #4B463B",
"q. c #444A3F",
"w. c #494539",
"e. c #5E433F",
"r. c #574839",
"t. c #69532E",
"y. c #7A5028",
"u. c #605039",
"i. c #745E35",
"p. c #1F3C44",
"a. c #253E42",
"s. c #2A3E42",
"d. c #273B46",
"f. c #333E42",
"g. c #1E4142",
"h. c #254244",
"j. c #294447",
"k. c #2A4344",
"l. c #25444A",
"z. c #2A4649",
"x. c #2B464A",
"c. c #2C4A4D",
"v. c #254A4A",
"b. c #324343",
"n. c #3B4445",
"m. c #334549",
"M. c #3A4749",
"N. c #334C4E",
"B. c #3C4B4C",
"V. c #2D4C51",
"C. c #324E52",
"Z. c #394E51",
"A. c #335154",
"S. c #3C5254",
"D. c #3B555A",
"F. c #36595B",
"G. c #3C5A5D",
"H. c #335459",
"J. c #3E5F62",
"K. c #3D6368",
"L. c #424B44",
"P. c #464849",
"I. c #5B4341",
"U. c #5C4A44",
"Y. c #515147",
"T. c #4D4E50",
"R. c #4B5355",
"E. c #445A5B",
"W. c #4A5B5D",
"Q. c #455655",
"!. c #5A5B5D",
"~. c #565454",
"^. c #654C44",
"/. c #6F5B43",
"(. c #425E64",
"). c #5E5F61",
"_. c #476165",
"`. c #49676A",
"'. c #4A676B",
"]. c #576467",
"[. c #466C73",
"{. c #4B6C71",
"}. c #506F74",
"|. c #4D7176",
" X c #477278",
".X c #547275",
"XX c #597479",
"oX c #6C6D6F",
"OX c #76787A",
"+X c #8D6237",
"@X c #8A6552",
"#X c #A68557",
"$X c #BE9665",
"%X c #CBA979",
"&X c #5F7E83",
"*X c #5F868B",
"=X c #6C9295",
"-X c #759B9E",
";X c #898D8E",
":X c #AAA28F",
">X c #9D9EA0",
",X c #ACB0B1",
"<X c #E4C994",
"1X c #FFE8B2",
/* pixels */
"< 5 b B V I _ / O.o.z.k.o.S { A B B B B B Z B B w w B B B B B B q q q 1 < < # > = 7 = 7 w - u w = * # * * * * * o o o X X o o = ",
"= 1 0 n S ) U.U.O.X.z.k.o.S ' S B q B B B Z B B w w B B B B B B q q q q 1 < # > = 7 7 9 w 7 g w = * # * * * * * # o # o # # o * ",
"7 1 0 0 V Y 3.2.O.X.z.k.X.R { S B q B B B Z B B w w w B B B B B q q 8 q 1 < > > = 7 7 9 w 7 g w * * # * 1 * * * * o # # * * o # ",
"7 1 q q V Y 2.,.$.O.z.z.O.R { S B q B B B B B B w w w B B B B B q q 8 q 0 < > > = = = 7 9 = g w * * * * 1 * * * o X X o * * X o ",
"7 1 3 3 D W e.2.$.O.z.z.X.R { S B b B B B B B B w w w w B B B B q q q q 1 < > > = * = 7 7 = g 9 * = * * 1 * * * # X X X * # X o ",
"7 1 3 3 S U 3.4.%.O.z.k.X.R { S B B B B B B B B w w w w n B B B q q q q 0 < > > * # = 6 7 6 I 9 * * * * 1 * * * * X X # * * X # ",
"6 , q q ~ Y I.4.5.O.k.h.X.S R S B b B B B B B B w w w w w B B B q q q q 0 1 < > # # * 6 6 6 I 9 * = * * * * * * * X o * * * X # ",
"6 1 q 0 R Y I.r.%.| k.h.X.S R S B b B B B B B B I I g I B B B B q q q q 0 1 < > # # * 6 6 6 T 9 * * * * * * & * * X o * * * X # ",
"8 < q 5 ~ ^ <.2.<.p.d.q.e.R  .S Z B q B B w B B / #.:.l I B d a a q q q 1 1 < < @ @ * 6 7 7 I 7 = * * * o o * * * X * # * # o # ",
"< 0 q 3 S U _ e.9.a.d.q.^.W ' S b q B E s B U W #.P.( x I U 8 B a a q q 1 1 < < # # * 6 6 6 I 7 = # * * o o * * * X * # * o o # ",
"@ 1 0 b ' } w.~.1.o.s.q.^.^ ' ~ Z B ^ @.B U T ^ ) 1.-.*.! T w n B a q q 1 1 1 1 & # * 6 6 = g 6 $ o * * # # * * * X * # * o o o ",
"1 @ < n < q U U ^ L s.5.U.} S S Z 8 Y ) 0 B w w g ! t.i.( w s n B s q q 3 1 0 1 < * * = = = g = = o * * # * 1 & * X * o * o o o ",
"< @ : q < q V ~ { g.s.O.1.' S D S w ` ` s T U Y g =.#X<Xu.g 9 I a a q q 3 3 0 0 0 1 = = = = g = = # * * # * * & * X * X * o o o ",
"@ 1 & < > < 3 { o.h.k.L ..G G J N s 6.` w B W Y g 7.%X1X/.g d w q q q q q q 8 0 0 6 6 = = - g = = # * * # # * & * X * X * o o o ",
"@ 3 & & 1 < 1 [ d.h.k.g.{ J E D B j 9.=.g s ) j s >.#X$X>.= s w q q q q q q 8 0 0 6 6 = = = g * # # * * # # & & o X * o * o X o ",
"> @ & < 1 < q B ..o.k.v.X.J T S Z / 9.=./ U #.j s x y.+X&.u s w q q q q q q 8 0 6 6 6 = = = g * # # * * # # & < X X * o * o X o ",
", , @ & < < 0 w ' k.k.h.k.o.{ S I / r.:.l Q _ h d j ;.;.! u w w q q q q q q q 1 6 6 0 < # 6 9 = o o & & @ # & & o X o # o X X o ",
"& , < < < < < 0 J k.k.h.X.{ [ R I Y 0.:.( ( 8.h s g l l y 9 w w 8 8 q q q q q 1 6 6 0 < # 6 9 * o # & & @ # # & o o o X o o o X ",
"& < < < 1 < 1 q S h.k.h.X.{ ' E I Y 8.:.( ( 0.h w w f y 9 9 w w q q q q q q q 1 6 * 0 < # 7 9 # # # & & # # # @ o # * X X o o X ",
"& < & < < < q B V O.k.h.X.{ [ E U Y ` =.( ( 0.h n u u w 8 0 w 9 q q q q q q q 1 6 1 1 < # 6 9 # # o # # @ # # X o # # X X o # X ",
"& < & < < < 0 B U } O.s.{ S { D T Y ( ( ( Q w.j w w w 8 q q 0 9 q q q q q q q 1 6 < 1 < # 6 7 # o o @ # X . o X X # @ O   o # X ",
"& & # < < # # < 7 U O.b. .V D D U g / ( / Y #.Y 0 w w 8 q q 9 w q q q q q q q 1 1 < 1 1 # 6 6 # o o X # X . o X   X X O   . o X ",
"< < # < < # @ # o 6 V O.O.~ ~ V U g Q l / g U I q s 9 6 q q 0 9 8 8 q q q q 1 1 1 & 1 1 # < 6 o o X X # . . o       O       X   ",
"< # @ @ < # @ # # X & R O.+.} U U s j j Y 9 6 0 8 s 9 6 0 q 0 7 1 1 q q q q 1 1 1 < 1 1 # < 6 o # o X # . # o   X X   X X   X   ",
"# @ @ @ @ @ @ @ @ # * a @.| | W B s 9 g u 9 6 6 1 q q q q q 6 0 6 6 8 3 3 3 3 1 6 1 1 & & 0 6 @ # # # # o o o X X   X . o o X   ",
"@ @ @ @ @ @ @ @ @ # o * ) L.L.@.U s w g g 9 6 6 9 w 7 = 7 9 7 = 6 6 8 8 3 3 3 1 < 1 < & & 6 < @ # # o o o o o X X   X . o o X   ",
"@ @ @ @ @ @ @ @ X = 9 - u Y ^ U 8 s 9 = * 9 w 0 * 7 w 7 6 6 9 < 6 6 0 1 3 3 3 1 1 < < & & 1 < @ o # # # o o X X X       o . X   ",
"@ @ @ @ @ @ @ @ @ X $ 7 t 9 8 a N q 1 * * 1 < , 1 8 B I 0 3 3 , 6 6 6 1 1 1 1 1 1 1 < < < < 1 @ o o o o . o X X       X . . X   ",
"@ @ @ @ @ @ @ O O   * - $ = E E.S.m.S q U $.n...g w u g u g s 6 6 6 < < , 3 1 < 1 < < < > < < @ o o o X . X X X X       X X X   ",
"@ @ @ @ @ @ O O @ X # = = 6 & A L _.]...q W $.| l l l ( l h y - 6 * * < , , , < 1 < < < @ < < @ # @ @ X X X X X X       X X X   ",
"@ @ @ @ @ @ O O O @ @ X o 6 q B.(.S.O.I 7 = 7 9 _ 0.Y.q.#.Q y - 6 6 < 1 3 3 3 < < & < & @ @ # @ @ @ X X X X X X X       X . X   ",
"@ @ @ @ @ @ O O + # @ @ # # @ m.`.a.3 # - e r i $.R.W.S.S.B.$.E 6 6 0 q q 5 1 < < @ @ @ @ @ # @ @ @ X X X X X X X       X . X   ",
"@ @ @ @ O O O   X X X X @ 5 k.{._.b.q 6 7 = ; ; - ) L.E.Q.L.$.W = = < 1 3 3 3 3 3 5 q 3 1 > @ @ # # X X X X X   X   X X         ",
"@ @ @ @ @ O O O X X # < B R J A b 3 O # 7 7 y y y - g ^ ) g w 7 1 1 1 3 3 1 1 3 3 3 3 , : @ @ O @ O X X X X         X           ",
"O @ @ @ @ @ @ @ X < 6 6 < < , @ : < # = = 7 7 - 9 $ - e t t Y Y | { S B q < > > , < < & @ @ @ @ @ @ @ O             X X         ",
"O @ @ @ @ @ O O @ X X @ X X @ < , 0 7 7 7 $ 6 = = ; t - e y ) #.| ^ E B 0 6 > > @ @ @ @ @ # # # , : : @ O X   X     X           ",
"@ @ @ @ @ O O O X     @ > * < 6 2 1 8 s s 0 8 8 > 7 9 y s * 6 u 9 9 = # o X @ @ < < < < < < < < < , , # @ O X X                 ",
"X X O @ X X X X X # # @ @ @ < < q q 8 B B 0 1 1 3 6 - f 9 < @ @ $ $ % o o # & < q q q q q 3 , , < < # # # X                     ",
"      X X X X X o     @ 3 q q q 5 3 & 9 0 < < 1 2 $ z >.; # , @ o # # # = 9 B B b 5 5 3 3 , , : @ @ @ X X X                     ",
"      X X X X X .   > B S N 3 q q 1 < w w 6 < * , o ,.@Xp . @ & @ @ @ @ # < q b N N q 5 3 3 , > @ X                             ",
"O @ 2 4 N q @ @ @   1 B B q q 0 3 < : : , , < > <   h :X:.X > : @ @ @ @ @ @ @ # 3 3 b B q < # # X X   X X X                     ",
"q S h.k.{ 3     X   @ < < 1 q 3 3 , , : < : @ @ O 7 ; r /   < @ @ @ @ @ @ @ @ @ @ : , < < @ X                                   ",
"X.a.j.h.A , O X     X @ @ q q , 3 , : , : : : < < = o ) w # @ @ @ @ @ @ @ O O   @ @ @ @ O                                       ",
"K F H J N @ X     X # @ > q q , , , : , < : < , q 6 = = #   @ # @ @ @ @ @ O     X @ # @ O   X X     X                           ",
"A A K K b O     X   O @ @ , 3 , 1 < : : : @ @ @ @ 0 = # > 3 O   @ @ O     X O     X # # # O X         X                         ",
"G K o.K N : O # @   O @ > > @ : < @ O @ @ @ O O <   # # @ @ @ X @ @         X X       @ < < @                                   ",
"G K K J G B 3 3 5 , : : > @ O   O O O O @ O O O O < # X @ @ O . @ @       X X X     @ : 1 1 < @ X X                             ",
"J K H A J J S S J B 3 @ @ @     O O O O O O   O @     X O O O O         O O O O   @ < , , , 3 3 # #                             ",
"J M H J K a.k.A A B m Z 0                       O   O     X X X X X   @ @ 3 3 , 3 3 1 3 3 , < : , > @                           ",
"k.J a.a.K o.X.Z.o.b.N , @                               O @ O O       @ 3 B N 3 3 , , q q 3 , q < < < < # @                     ",
"L h.F K G m m G C { C q # X X                                   : : , 3 q B B N q 3 3 3 3 3 1 , , : @ @ @ @ X                   ",
"H J K m A X.m c c G m q q @   X                           @ 5 B C C N 5 5 b N N 3 3 , @ , 1 3 , , : @ @ @ @ @ @ X               ",
"A A m C G A { C X.C C B :   @                         O , b { o.J A N c N N b 5 q 3 , < , @ @ , , 3 3 3 < @ @ @ @ O X           ",
"A C  .m C s.O.Z s.a.h.S 3 @                         @ b G G J A C C N N N N 5 3 B q 3 , , @ @ : , , 3 1 < # @ @ @ @ @ O O X     ",
"V 2 2 S { S J J a.o.x.A 3 <                       < b a.c.h.a.J C C C N b c 5 5 , 3 , @ , 3 q 1 @ @ @ @ @ @ @ @ @ @ @ @ O O     ",
"N N N b c S C N m.x.N.{ n.+.                    > B K c.c.L h.O.{ A c 5 N N N N 3 , @ : < < : < @ @ O @ @ > @ @ @ @ @ @ O O X   ",
", 5 2 5 N c , Z O.N J s.X.q       X       X   2 M x.c.h.k.a.F C.h.J C N b q 5 5 N 5 3 3 , @ @ < @ @ @ O # #   @ # # O < <   @ O ",
"3 3 S , N ' 2 q N c s.S.M.N q O O #   @ <   2 XXz.C.h.c.a.o.J  .A.H C b 5 N V 2 @ 2 3 , < , # @ @ < < @   > @       #     @ @ @ ",
"3 b.M.M.M.O.B.Z 5 2 m.N.A 5 2 @ Z } Z N @ s.{.=Xv.V.l.D.a.G A o.o.X.s.C 5 4 B B , 1 1 < > < > O   3 @ < < @   T.!.T.oXP.~.O w   ",
"O O.$.Z n.R.[ n.b.A A c.J C ' C o.E.K v (.D.{.*XF.J.P G._. .J A v A X.J J v 3 : B 3 , , , > > > : , @ 3 < #   OXOXT.).oXR.] OX  ",
": O.{ { O.b.f...W. .k.F c..X{.K G..XF.`.XXh.V.[.c.h.h.z.G.c.L k.G c G A A m S 5 5 2 2 5 q 1 < , , , @ @ @ # < ,X>Xn.P.R.+.).).  ",
", } M.$.B.Q.W.Q.S.k.A C.A.&X}.C.{.-XK.[.G.(.l.l.D.K c.F L a.F J G C J { J A ' E N N 5 5 5 5 3 , : 3 @   < @   ;XoXI W !.OXP.U I ",
"B O q 3 , B ' C  .G x.a.F.{.{.K.a.`.|.c.l.z.C.V.h.V.c.h.o.4 K o.{ A 5 5 V N N N N N b 3 3 , , , 1 < , > O #     @   >   @ @ @ @ ",
"B : 3 B 5 5 c  .2 G K c.A.|.[. Xa.M {.H.J.l.H.c.c.g.c.a.C.G : ..J 5 5 5 3 3 3 @ : : : 3 , @ : 0 @ @ @ > O   > O     O @ @ O O   "
};
