/* XPM */
static char *_3ba62f5ff6b4ebe93ef3d727b501045LpVsLoxQ8uTx4hhF[] = {
/* columns rows colors chars-per-pixel */
"64 64 209 2 ",
"   c #040302",
".  c #0A0503",
"X  c #060A05",
"o  c #0C0A05",
"O  c #040609",
"+  c #0B0509",
"@  c #060A0A",
"#  c #0C0C0A",
"$  c #130401",
"%  c #1A0301",
"&  c #130C05",
"*  c #1B0D04",
"=  c #14070A",
"-  c #120D0A",
";  c #1C0E0A",
":  c #06110D",
">  c #0D120D",
",  c #0E1A0E",
"<  c #141106",
"1  c #1D1106",
"2  c #191804",
"3  c #13120D",
"4  c #1C140B",
"5  c #14190D",
"6  c #1B180D",
"7  c #000512",
"8  c #060F10",
"9  c #0B0E11",
"0  c #090D19",
"q  c #140D14",
"w  c #1B0D11",
"e  c #160E19",
"r  c #071112",
"t  c #0C1313",
"y  c #0D1915",
"u  c #071619",
"i  c #0C151A",
"p  c #0E191B",
"a  c #071C1D",
"s  c #131412",
"d  c #1E1716",
"f  c #1B1512",
"g  c #151914",
"h  c #1C1B14",
"j  c #15131A",
"k  c #131619",
"l  c #1A141A",
"z  c #131B1B",
"x  c #1B1D1B",
"c  c #250700",
"v  c #260D01",
"b  c #230D03",
"n  c #290E00",
"m  c #2C0C01",
"M  c #20070B",
"N  c #200F0A",
"B  c #290505",
"V  c #350D00",
"C  c #3A0A04",
"Z  c #350F0C",
"A  c #231305",
"S  c #2B1304",
"D  c #24160B",
"F  c #23140A",
"G  c #2A150A",
"H  c #24190D",
"J  c #2B1B0C",
"K  c #2C1B01",
"L  c #341606",
"P  c #331203",
"I  c #341B05",
"U  c #3E1B02",
"Y  c #33150A",
"T  c #321C0D",
"R  c #391C0D",
"E  c #310E15",
"W  c #221512",
"Q  c #2A1615",
"!  c #231B13",
"~  c #2B1E12",
"^  c #2D161B",
"/  c #231B1A",
"(  c #2B1C1B",
")  c #331E11",
"_  c #341618",
"`  c #391A1D",
"'  c #381813",
"]  c #1E2115",
"[  c #15211E",
"{  c #1E221B",
"}  c #142014",
"|  c #2D210E",
" . c #2D2204",
".. c #33220E",
"X. c #3A250E",
"o. c #3E2A0F",
"O. c #242115",
"+. c #2D2113",
"@. c #23231C",
"#. c #2C241A",
"$. c #242A1D",
"%. c #2D2A1D",
"&. c #342313",
"*. c #3A2613",
"=. c #312916",
"-. c #3D2A13",
";. c #33241C",
":. c #3A231B",
">. c #32291C",
",. c #3C2B1A",
"<. c #0F1722",
"1. c #0C1C21",
"2. c #151F20",
"3. c #1B1B20",
"4. c #231F20",
"5. c #361D20",
"6. c #0E2220",
"7. c #152223",
"8. c #1A2423",
"9. c #1D2729",
"0. c #172A2C",
"q. c #1D2B2B",
"w. c #1D3132",
"e. c #242323",
"r. c #292623",
"t. c #222824",
"y. c #2C2B22",
"u. c #212C2B",
"i. c #2F2B28",
"p. c #302720",
"a. c #332E24",
"s. c #342D2D",
"d. c #3E2C22",
"f. c #2D3527",
"g. c #2F3028",
"h. c #343125",
"j. c #34342C",
"k. c #3A392C",
"l. c #3A3928",
"z. c #232E31",
"x. c #233334",
"c. c #29383D",
"v. c #343332",
"b. c #383733",
"n. c #3C3B35",
"m. c #3C3C3B",
"M. c #440F0B",
"N. c #4A1400",
"B. c #411F06",
"V. c #47100B",
"C. c #4B1F08",
"Z. c #461C06",
"A. c #571F04",
"S. c #451610",
"D. c #4B220B",
"F. c #472709",
"G. c #522609",
"H. c #53350F",
"J. c #452612",
"K. c #432C14",
"L. c #4A2D14",
"P. c #41261B",
"I. c #422B1B",
"U. c #4B2F19",
"Y. c #4D2619",
"T. c #512B16",
"R. c #572719",
"E. c #453115",
"W. c #4C3216",
"Q. c #44301B",
"!. c #4C331B",
"~. c #513516",
"^. c #593014",
"/. c #52341B",
"(. c #55381A",
"). c #642E12",
"_. c #491F21",
"`. c #432D22",
"'. c #4D2F27",
"]. c #502D24",
"[. c #443423",
"{. c #43332A",
"}. c #433E2B",
"|. c #57372A",
" X c #543521",
".X c #2A403E",
"XX c #3A4638",
"oX c #3D4035",
"OX c #444027",
"+X c #46443D",
"@X c #534230",
"#X c #574835",
"$X c #624525",
"%X c #61482A",
"&X c #63432A",
"*X c #675139",
"=X c #303F44",
"-X c #444444",
";X c #4D4B4B",
":X c #504E4F",
">X c #555454",
",X c #585657",
"<X c #656464",
"1X c #716D6E",
"2X c #747474",
"3X c #7D7B7C",
"4X c #8D898A",
"5X c #9F9F9F",
"6X c #A6A2A3",
/* pixels */
"    . o . .     o o o o o   . o       O @ r r r r r 8 8 8 9 9 9 r r 8 8 r u r r 0 i s 3 3 f f j i a x s 8.k t & D &             ",
"  . o o o o .   o o o   o o   o   X o @ > r r r r r 8 8 8 r r 9 r r 8 8 u u r r t y k j q l f 3 z z e.1.i - 6 D + . . .       . ",
". o o & & .     o o o   o     o o o # t s y r r r r r 8 8 r r r r r 8 8 u u r u u u k j e l d f p 1.x & D F     $     O O . % n ",
"o o & - - o .   o # o . o o o o o o # s k y y y r r : : 8 r r r r r r r u u r u i i t g d ; q 3.p > G A   O o S X     $ b v %   ",
"o o - - - & . . o - o . o o o o . o o # t t t k r r r r r r r r r r r r r r r i <.i @ - 1 Q W = t A $   x I.n     * L L *       ",
"o . & - - o o o o - o . o o o o . o o o # # t k # 9 r r r t t r r u r r r r r p : y s l w % D {.A   r U.D..   4 T.R *     . $ % ",
"o . . - - . o o o - o o o o o - . # - o o > s s # # 9 t t t t 9 r r r r r r r p k @ g - % `.@XA X ^.H.& 7   R J.$ & * A L L G w ",
". . . o o o o   o - o o o - - - o 3 g # # s s t # # s s s t t 9 r u r r u r r p 0 2.o H #X,.$ ) %XT   * &.. % . ~ I./.J.S * * A ",
"  .   o o o .   o - o o & & o < - 6 h s # # 3 3 3 3 s t t t t t t r r r u p y y t # - s.! $ *X&X  X $XG.B O . c G.B.I.S b I ' ' ",
"        . . . o o o o o o - < 3 o 3 f g 3 s g s 3 3 s t t t t t t r r r u y y y r s l $ 4 {.J % F.$XF   n F.% 7 S X.G P.*.Y % % ",
"o   .   .       . o o o - - 3 g # # s 3 o # g 3 3 3 s s s t t t t r r u u y y t t s j / d ! $ `.U   . U N.I I..   +.L.V % = * S ",
"# o # - - o .   . o o o - 3 3 g # # t # o # 3 3 6 6 s s s s s t t t r u y t r t r k q l / / ;.Q + A K.+.B.| S ).&   F * m P S N ",
". . . o - - - - o o o o - 6 3 6 @ o # # o # s s g g 3 s 3 s s s t t y y y r t r k O z g x d / f | &.V  .%.&.T.1 . $ $ J A J I m ",
"        . . o - & & & & 4 6 6 6 # # o o o # s g 6 g g s s s s s t t y y r r r r s > y # g r.x x x 4 :.K Z.S % b C.F O o A P v Q ",
"o .     .   . . & < & & 4 4 6 f h 3 < - o # g f 6 6 s s s s s s s s k y r r r 9 @ k p z z x k z p g G ! M L A.D.X.I ) . . f * c ",
"o . . o o o o o & 1 1 1 F W d d 4 4 d / h h h g g 6 g s s s s s s k k y r 9 r 9 t @ u p k 3.z z g / E * R.C _.& I I S N   O - & ",
"o . . & & & & * 1 1 4 4 d F ! ! 6 o - - 3 3 ! H 3 3 3 3 g g s t y g k t > > > @ u 9 p i p 6.g ^ h q M.l C.C T.9 < 4 H 1 o .   = ",
"& o & & & & & < A A F ! ! H J ~ ! & 3 3 f 4 ! H # # > > 3 3 3 t t k k t r t t t > # p p k y s _ g d M.q D.S.Y.O 3 3 ! d 3 o   . ",
"& & & & * * * 1 J J J J ~ J J J ! 1 4 4 d H +.H o X # > 3 # > t t s t t t y p k y t k z g t g ` 4 ; V.; C.Y. Xs y t x x k > O   ",
"* & & < 1 1 A D J J J ~ +.&.&...+.F ! H ! ! +.J X X # s h g > > > t s t t y k z [ [ 7.z x g x ` ( W C ; |.'.J o p r z x t t > o ",
"* * * 1 A A D J J J ~ ~ ~ &.&.&.&.J +.~ +.+.&.J X X # g x h t : > t t t t t k k 2.8.7.7.x 8.8.^ ( = Z + $ $ & s k t z z # 3 s 3 ",
"* * 1 A A D J J ~ ~ ~ ~ ~ &.&.&.&.T &.&.&.&.,.| # X X g x g t t t t s s > - 3 g g x z z e.u.8.f f 6 G + / ! > l g s x x - 3 3 3 ",
"* 1 A F D J J J J &.&.&.&.*.*.*.*...*.*.*.*.,.J > o # g x g 3 t t t s g 3 3 f ! ! / g g e.t.7.- f < F = 9 1 5 w s g x k q s 3 s ",
"1 F F D D G J J ..&.&.&.*.*.*.o.,.*.I.,.I.,.,...# o > h x s > t t t s g f f / %.:.;.h h ( { [ 3 f 2 * ; k 1 5 W f g z y q j s y ",
"1 A A F G J J &.&.*.*...*.-.-.-.K.K.E.-.K.,.Q...@ X > h h 6 3 g r t 3 / s # ~ #.;.;.f @.@.O.@.- 4 4 1 - 4 f f f g h h s 3 s k s ",
"A A A A J J J &.*.*.*.*.K.K.K.K.L.E.E.K.K.K.Q...X X < h @.h > t s g W ( f 4 5.;.:.;.d @.@.O.! - F 4 1 - f f f h g h h 3 3 s k s ",
"1 A D J T ....&.*.*.*.-.K.U.L.Q.W.W.W.E.Q.L.!.X.X X > h { h s t > , 6 #.g 3 ( ! ) :.! O.#.O.f - H H 1 ; 6 d d d h h g 3 s g k s ",
"A D D G J &.*.*.X.o.*.K.U.W.W.~.~.W.W.W.!.U.!.-.@ X > 3 g g s t : : h %.s < ;.+.:.d.! #.%.#.4 - H H 4 1 4 ! ! / x h g 3 s g s s ",
"A J J G J ..*.,.o.K.K.K.L.W.W.(.(.~.W.W./.!./.-.X X > > > 3 > t g s ! ;.W F ].].`.{.#.#.#.! - - H ! 4 1 4 ! ! ! x h 6 3 3 g s 3 ",
"A G G J J T &.*.*.-.K.-.K.L.W.~.(.~.W.W./.!./.K.X X > 3 > > > t t t ! ;.d 4 P.I.;.p./ / ! ! - - ! ! 4 1 f ! ! / h h 6 3 g g s 3 ",
"A H H J J ) J J J J J J *.K.W.W./.W.W.L./.L.!.-.o X > 3 g 3 3 s > , h %.} > O.O.O.x g x f f - - H ! 4 4 f h d h / d g 3 g g s 3 ",
"A D D H ) &.J A $ * * * T I.Q.W.L.L.L.L.L.J.Q.*.# X > 3 h g g g ! O.H #.x y e.r.@.x z x f f - - F 6 6 1 f h h h h f g 3 g g s 3 ",
"A F D J T ) G ; Q * N D J I.K.W.K.K.K.K.K.K.K.K.~ H H ! W W ! ! &.=.6 g x g x @.@.h g g f f - & 4 4 f 6 3 s s s g 3 s s g s > - ",
"A F H D J T D * ~ ~ F * D [.K.K.K.K.K.K.K.K.K.K.,.J D H ~ ;.#.! &.=.6 g x g x { { h g g s s - & 1 4 6 3 3 s s s g 3 s s g s 3 # ",
"F F F H G ~ D & * ~ ~ 1 D [.,.-.K.K.K.K.K.K.K.K.*.*.=.=.+.~ ~ ~ &.#.h g k s x x { g g s 3 3 o o 1 6 6 3 3 3 s 3 3 3 s g g s 3 - ",
"A F 4 F J J D & & A &.&.J *.*.K.-.-.K.K.K.K.K.,.&.J H H H ~ ~ H +.#.h g k s x g g g g s 3 3 o o 3 4 3 3 3 s 3 3 3 s s s g s 3 - ",
"1 1 1 A J J D * &.J &.&.J *.-.-.-.-.K.K.K.I.*.&.&.+.%.h.h.a.>.#.~ O.h z k s x g g g g 3 < < o o 3 6 g 3 3 3 s 3 3 s s s s 3 < - ",
"1 1 1 1 D G F & #.+.>.&.A *.-.*.-.-.K.K.I.&.~ ~ &.#.h.n.k.a.y.y.! / h x g s x y g g g < - 3 & o 3 6 g s 3 s s 3 - s k s s 3 - & ",
"- - - & 4 H 6 o - h O.4 1 &.&.*.-.-.-.K.*.~ F f `.F & 5 h ! ! h d h g z s s x y g s g # - 3 - - 3 3 3 s 3 > 3 3 - s k s s 3 - o ",
"    O . o 3 # O O 9 o . 1 ;.J :.X.X.-.,.&.H 3 3 P.A & 6 O.! ! O.6 h g z s t x y g s 3 # & 3 - o 3 3 s > > > 3 3 - s g s s 3 - o ",
"      o @ O O @ O @ # d F ) &...&.X.K.-.+.6 < X R A < 3 @.x x @.3 g g g s y z k s s 3 - - & o o > g 3 > 3 3 < < # 3 g s > # o o ",
"      X @ O O X @ @ # f F ~ &...*.*.-.-.+.4 # o R A < 3 / h h @.x x g s s k x t s 3 # o - - - - - 6 3 3 s k t > y x x z 8.t.x o ",
"  O   X       O 9 @   & * G &...*...X.*.+.4 o o Y b * 6 @.h h ] 3 g g g y k x s 3 # o o # - # o - f g k 2.7.7.7.7.8.z y 7.u.x   ",
"  O O   .     O @ O   o < G J &.&...X.&.~ 3 o o ' N & - x h { $.h g g z k t g s > # o o # # # # > z 7.8.z.c.c.=Xc.x.q.q.x.x.t.g ",
"              O     X < ! ~ J J &.T &.&.! - o o J 1 < < h { f.XXj.@.t k k k g 3 < # o . o # s z 7.q.x.x.x.x.x.x.w.x.x.x.u.q.z s ",
"                    X o ! H G J ~ &.&.&.4 o o - * . . 6 n.+XoXf.y.h > k p t k s o o o o o # s h q.w.x.w.q.7.p y [ q.z.9.z g 3 o ",
"                O O   X 4 F D J ~ +.&.J 1 o o - F ! >.y.a.! < o & < > k r 9 s # o o o o o o X X > t y z 8.7.k k s g g 3 o . . . ",
"                    X # ! F D G H J J F & o o o F F 1 & ; ; ; * & < t y r r t . o o o o o o o o & o o t z 8.2.2.3 o . o o . . $ ",
"          O         X s j.%.6 D J G +.4 o o o o A 1 1 * ; * ; & * < t i y s # X   o o o o o o o . . . o # s k z - o o o o & . . ",
"  O                   # g.y.H F G F 4 < X #   . A A A F 1 1 ; ; 1 < r u p k k t > # o . .   o # # X .     . o o o . . . . o . . ",
"O                   o # 6 & 1 ~ ~ H 4 o X O @ # D A F F F F ; 1 * # @ u p 2.7.7.k y t t t > y k k y @ @ .     . . . . . . . . . ",
"    O     . # g o . o o o . 1 H ! 4 4 o       o S A A F F F ; ; * < u u i z 7.0.9.2.z z z z z 7.7.7.z g # o o & o . . . . . . . ",
"      o h @.@.x - . . . & & 4 4 4 * < & o # .   S S A G F F ; ; * g z p i i 2.0.q.z u y k k z 7.7.7.x g - . . & o o o . . . . . ",
"x h g 3 # o o o . . - & & . 3 6 & & & . . & & & G S S G D F 1 1 * f z p r 8 y z k r @ @ k k z z z z k # o . . . . . . . . . . . ",
"3 X . . o - o o . . o . & o 3 < ] %.y.! 6 #.a.l.T G A D F ; ; ; & g k p 9 o @ @ @ O   o # s k y k t # o     . . . . . . . .     ",
"    . o o o o . o o o . & & 6 h $.f.k.y.%.k.}.OXT J A A 1 * & ; * 3 y p t o +             .   X # X       .     . . .   .       ",
"        . - o . o . . - & o 5 @.{ $.$.] $.O.~ T G G D F ; ; ; ; * 3 y y r # o                       o   o o   o   o     . .   . ",
"        o     o o . . $ & < h $.@.] 5 5 @.d 1 * J G F * & - ; 4 ; 3 t r @ + . .                     o     .     o   o     .   o ",
"  v.b.v.b.n.v.f   . . & & 3 6 h h h h ] @.3 & N S A F 1 1 - - - - > : @   .   .                   o     o .   ;X,X:X2Xm.;X  4.  ",
"  r.r.h x e.e.f o o o & - & o o < < d h g . $ ; A A 1 1 3 - # o # # @ O       .                             . 1X2X-X<X<X;Xv.3X  ",
"  x @.x r.r.@.i.f - o o - o o o & . o o # . & * D 1 & & o o # # X X           .                 o           o 6X5Xm.m.>Xm.>X<X  ",
". @.v.v.m.+Xj.i.3 o . o < # o . ; . .   O o 1 N 1 & o o # @ @ @ O O                                     -     4X<Xx s.>X2X-Xr.x ",
"  .     .     . . . . o # o .   & . .       1 A # o @ @ t 9 @ O           .   .                     o     +                 o . ",
"      o #   o   . o o o . o .   & . o o X . * b t @ @ 8 r 9 @ @ O             . . .         .         o     o     .             "
};
