/* XPM */
static char *_93b0ce1a902406b92fd7ea30fb4ece2krj8swBVgk4Y13pA[] = {
/* columns rows colors chars-per-pixel */
"64 64 188 2 ",
"   c #010101",
".  c #0B0402",
"X  c #060802",
"o  c #0C0A05",
"O  c #02030A",
"+  c #09070A",
"@  c #0C0B09",
"#  c #130502",
"$  c #1B0601",
"%  c #130B04",
"&  c #1A0D04",
"*  c #140C09",
"=  c #1A0D0A",
"-  c #151202",
";  c #1C1205",
":  c #171B02",
">  c #181C03",
",  c #16120E",
"<  c #1C130B",
"1  c #1C1A0E",
"2  c #180D13",
"3  c #0F1314",
"4  c #161617",
"5  c #1B1410",
"6  c #1D1912",
"7  c #1B1B1B",
"8  c #200600",
"9  c #230D02",
"0  c #240F0A",
"q  c #231304",
"w  c #2C1706",
"e  c #22160C",
"r  c #29170D",
"t  c #251A0D",
"y  c #2B1C0D",
"u  c #2C1D06",
"i  c #321702",
"p  c #341D06",
"a  c #331709",
"s  c #331D0D",
"d  c #391E0F",
"f  c #221711",
"g  c #241A13",
"h  c #2B1D13",
"j  c #321F12",
"k  c #3A1E11",
"l  c #301D19",
"z  c #34240E",
"x  c #242017",
"c  c #2D2115",
"v  c #2C221A",
"b  c #342314",
"n  c #3D2414",
"m  c #342915",
"M  c #3B2C17",
"N  c #34251B",
"B  c #3A2619",
"V  c #36291C",
"C  c #3C2B1C",
"Z  c #3E311C",
"A  c #252525",
"S  c #2D2D2D",
"D  c #362720",
"F  c #362921",
"G  c #3E2E21",
"H  c #362F29",
"J  c #3D3123",
"K  c #333333",
"L  c #3C3C3C",
"P  c #41220D",
"I  c #432C0D",
"U  c #422515",
"Y  c #452A15",
"T  c #4A2C17",
"R  c #43261A",
"E  c #442C1B",
"W  c #492E1B",
"Q  c #4C3314",
"!  c #43321D",
"~  c #4C321E",
"^  c #4B3C1B",
"/  c #563615",
"(  c #5D3D17",
")  c #56341A",
"_  c #422F21",
"`  c #4A2F21",
"'  c #443322",
"]  c #4E3322",
"[  c #493522",
"{  c #4E3526",
"}  c #4A3424",
"|  c #4A3824",
" . c #4C3B27",
".. c #4B3A23",
"X. c #4B3628",
"o. c #4B372C",
"O. c #4B3629",
"+. c #443828",
"@. c #463A2A",
"#. c #4D3C2B",
"$. c #513523",
"%. c #533624",
"&. c #513625",
"*. c #553624",
"=. c #513822",
"-. c #503A23",
";. c #523924",
":. c #533C26",
">. c #553F28",
",. c #523D2B",
"<. c #4B3B32",
"1. c #513F35",
"2. c #533D32",
"3. c #4F401F",
"4. c #6E421C",
"5. c #63431C",
"6. c #4E412E",
"7. c #5F4021",
"8. c #53422A",
"9. c #56422A",
"0. c #57412A",
"q. c #55432C",
"w. c #59462D",
"e. c #5A452D",
"r. c #5E492E",
"t. c #4D4030",
"y. c #4D4339",
"u. c #564331",
"i. c #5B4632",
"p. c #5D4933",
"a. c #5F4D39",
"s. c #644427",
"d. c #694024",
"f. c #6F4821",
"g. c #634A2A",
"h. c #694C2E",
"j. c #774B28",
"k. c #7A4C2A",
"l. c #69512F",
"z. c #634D35",
"x. c #654F3A",
"c. c #655036",
"v. c #6C5435",
"b. c #655239",
"n. c #6A553D",
"m. c #6E593E",
"M. c #795636",
"N. c #7D5C35",
"B. c #735A3C",
"V. c #444444",
"C. c #4D4D4D",
"Z. c #535353",
"A. c gray35",
"S. c #6D5742",
"D. c #6D5941",
"F. c #6E5E4E",
"G. c #725C44",
"H. c #715C49",
"J. c #776243",
"K. c #7D6344",
"L. c #776348",
"P. c #7B6449",
"I. c #796952",
"U. c #656565",
"Y. c gray43",
"T. c #7C7266",
"R. c #717171",
"E. c #7A7A7A",
"W. c #8F5B34",
"Q. c #945D31",
"!. c #9E6436",
"~. c #A4713C",
"^. c #8C704B",
"/. c #8F7657",
"(. c #82715F",
"). c #967D54",
"_. c #947C5A",
"`. c #A67041",
"'. c #A57841",
"]. c #A27C4D",
"[. c #8A7A6B",
"{. c #947F6A",
"}. c #A58C63",
"|. c #AA906F",
" X c #AD9371",
".X c #9A8E80",
"XX c #909090",
"oX c gray64",
/* pixels */
"                                  +     . . O O                                                                                 ",
"                                X X           +                                                                                 ",
"                                X           X .                                                                                 ",
"                                X                                                                                               ",
"                                O                                                                                               ",
"                                O     %     O X                                                                                 ",
"                                O   ; +.#   O                                                                                   ",
"                                O   Z I.h .                                                                                     ",
"                                O .  .P.>.#   O . X                                                                             ",
"                                  % 8.P.i.q   O . X         X                                                                   ",
"                                  e e.K.z.b .             X X                                                                   ",
"                                . c e.B.z.C %             X X                                                                   ",
"                                % N e.v.z.' e .                                                                                 ",
"                                * V 9.z.z.O.h % . X                                                                             ",
"                                < V 8.r.r.o.N < . X X         .                                                                 ",
"                                f V  .e.0.O.V e . X X         .                                                                 ",
"                        X .   o r C | 9.9.[ C r % . X   X       X                                                               ",
"                        X .   * y C | >.>.[ C h ; o X   X         X                                                             ",
"                          . . = r C [ -.=.[ E b t % .   X                                                                       ",
"                          . % < r C ! =.=.] ' B j ; o                                                                           ",
"                          . & e y C [ -.-.{ } E b r % X                                                                         ",
"                          # t r b C ~ $.%.] [ B B c ; .   .                                                                     ",
"                          % h s j E W $.%.] E b E C < % . * .                                                                   ",
"                      X . = b j j E ~ *.*.%.E b ! Z t % . 5 *                                                                   ",
"                        . e C b d _ <.<.1.O.W P E ! b , # P ;                                                                   ",
"                        % t G B d E o.o.1.{ W U ` ! j , ; ) u           .                                                       ",
"                      . % h _ B k R } O.2.} E U E ..C f r d.z .         . .   X                                                 ",
"                      . < h ' C k U ` } ,.` Y U R ..C g s k.I .         . .                                                     ",
"                      . e c ' E k n E E { E R n R M h f U W.Q .                                                                 ",
"                      . t b ' E d n Y U W Y R U R m v 6 T Q./ #                                                                 ",
"                  X X . g b _ E s n W U T T Y U R m v , T Q.( =         .                                                       ",
"                X X X . g b E E s E T P Y Y Y n k t g . Q !.5.=     X                                                           ",
"                X -   # t N ' ! a E U d U U R ` F u t o n Q.j.- X       . . +                                                   ",
"                @ : . # t N C M a Y ~ s.K.^.).}.y.y t X T `.4.& .                                                               ",
"                @ > . # y D G M g./.|. X X_.K.v.J y = o Q ~.4.= .                                                               ",
"                @ : . . t N C M c.G.z.~ E C B j t g 2 * Q '.f.0 . .                                                             ",
"                o : o . q h b z l N N _ O.' Z ' m ; 2 # Q ]./ $ # .                                                             ",
"                o : @ . ; t b z C ' [  .#... .6.C e * # p 7.i # . .                                                             ",
"                o : @ * t h C ! ^ 3.^ ..e.p.i.} C N t y 9 8 $ # . .     O                                                       ",
"                @ : @ , c N C | ,.u.u.i.z.z.z.r.p.+.+.C y 0 # % . .                                                             ",
"                X 1 % q h B } 8.i.e.9.e.b.n.n.x.i.w.} p 9 q %                                                                   ",
"                  1 - y C } #.8.-.i.z.c.n.n.n.n.n.r.M w q # .                                                                   ",
"                  6 ; y J #.#...q.p.z.c.m.G.n.b.l.z.b & & . .                                                                   ",
"                X 6 < y C O.| ..:.p.b.n.n.c.n.n.K.n.c # *                                                                       ",
"                X 6 t c C ' [ 8.e.z.D.L.P.G.D.G.J.D.F . . . X O                                                                 ",
"                  , t b C ' [ u.9.e.z.G.P.G.z.z.b.b.t.r & . .                                                                   ",
"                  , e y N ' } i.q.z.n.n.D.n.n.n.D.i.p.z.=.$ # .                                                                 ",
"                  , < e j ' | w.q.i.9.:.p.D.G.S.p.r.g.N.N.) } .                                                                 ",
"                . 1 e r V C C #...i.i.z.p.n.D.b.b.p.c.h.M.s.~ q                                                                 ",
"              X % < ; t V N C #.q.z.n.z.i.z.b.p.n.b.n.e.Q $ # .                                                                 ",
"            X X o o . < V G C } q.w.n.e.i.p.p.i.n.r.e...! #   O                                                                 ",
"                      . h G ' o.[ ..z.e.q.p.p.a.>.9.w.[ ' ;   O                                                                 ",
"                        % h ' } ! [ i.e.~ -.[ #.,.u.p.[ C e   O                                                                 ",
"                  O     o v G b C C ..w.9.b.w.u.i.#.#.[ ! h .                                                                   ",
"                        @ v C y ' C C  .e.p.:.! ,.' } C b r                                                                     ",
"                    O     5 N b N C } w.b.p.b.p.] n b y y v @ O                                                                 ",
"  X                     O X < c c ' ! >.n.G.J H #.[ E C r e 6                                           X     X   X   X X     X ",
"      X                 O   % h B C B ,.{.u.    % < f h g ; *                                       X               +     +     ",
"  K K K S L L +         O     h b ' b b F.T.. O O O o < < ; % .                                   X     X X   C.A.C.R.V.C.  7   ",
"  A A 7 7 A A + X       O     f y V # b ' .Xx   O   , c & ; 5 .                                               Y.E.L A.U.C.K E.  ",
"  4 7 7 A A 7 A 4 X           % g % c r y u.[.e   % N V ; % 5 +                                       X       oXXXL V.Z.K Z.U.  ",
"  7 K K L L A S 3             . ; f < t y w H.(.b ' ' y ; % . @                                         +     XXY.4 A Z.E.V.A 7 ",
"              X               * % < 5 < r y y ' 6.+.N & % %   @                                     X     X             X   X   ",
"      X     +           O     , e % * 5 % % f g t ; < * % * .                                               X     X             "
};
