/* XPM */
static char *_926f35db39341ee957d809c7b802c07IzzZLVB1HUgkEGE0[] = {
/* columns rows colors chars-per-pixel */
"64 64 221 2 ",
"   c #030403",
".  c #0A0503",
"X  c #050905",
"o  c #0B0A05",
"O  c #040609",
"+  c #0B0609",
"@  c #050B0B",
"#  c #0B0C0B",
"$  c #130302",
"%  c #1A0202",
"&  c #120A05",
"*  c #190E05",
"=  c #13070B",
"-  c #1B0408",
";  c #120D0B",
":  c #1B0B0C",
">  c #06100E",
",  c #0D110E",
"<  c #0A1105",
"1  c #131106",
"2  c #1A1306",
"3  c #13120D",
"4  c #1A130D",
"5  c #1D1A09",
"6  c #141A0E",
"7  c #050D11",
"8  c #0B0E11",
"9  c #000410",
"0  c #110C12",
"q  c #1C0F16",
"w  c #061313",
"e  c #0C1313",
"r  c #0D1916",
"t  c #051519",
"y  c #0D161A",
"u  c #0C1B1C",
"i  c #061A18",
"p  c #131412",
"a  c #191513",
"s  c #141915",
"d  c #1A1A15",
"f  c #12161A",
"g  c #1A151B",
"h  c #131B1B",
"j  c #1A1D1B",
"k  c #220A0C",
"l  c #270408",
"z  c #36000B",
"x  c #231C0C",
"c  c #281708",
"v  c #331F07",
"b  c #2B0E12",
"n  c #250F11",
"m  c #241213",
"M  c #201B14",
"N  c #231D1A",
"B  c #2C1A1C",
"V  c #2B1517",
"C  c #321B1E",
"Z  c #340B13",
"A  c #16211E",
"S  c #1B211E",
"D  c #1D2015",
"F  c #29210B",
"G  c #262116",
"H  c #2B2415",
"J  c #23221D",
"K  c #2C241B",
"L  c #2A2919",
"P  c #312313",
"I  c #352A15",
"U  c #332D1C",
"Y  c #3D321E",
"T  c #3F391F",
"R  c #0C1D21",
"E  c #071F21",
"W  c #131E21",
"Q  c #1C1D22",
"!  c #221E22",
"~  c #0E2223",
"^  c #142324",
"/  c #1B2323",
"(  c #162A24",
")  c #1C2826",
"_  c #142628",
"`  c #1E2529",
"'  c #162A2D",
"]  c #1D2B2B",
"[  c #1C312E",
"{  c #1A2D33",
"}  c #153235",
"|  c #1C3233",
" . c #1C353B",
".. c #1C3A3B",
"X. c #193737",
"o. c #222523",
"O. c #292521",
"+. c #232926",
"@. c #2B2C25",
"#. c #242629",
"$. c #29262A",
"%. c #232C2B",
"&. c #2B2D2B",
"*. c #322E24",
"=. c #352C28",
"-. c #26312E",
";. c #2B332E",
":. c #333226",
">. c #3B3323",
",. c #32342D",
"<. c #32382E",
"1. c #3A312C",
"2. c #252E32",
"3. c #2B2E32",
"4. c #253333",
"5. c #2B3533",
"6. c #243937",
"7. c #233539",
"8. c #243A3B",
"9. c #2B3B3B",
"0. c #2C3339",
"q. c #333432",
"w. c #353933",
"e. c #3B3D34",
"r. c #3E3B3B",
"t. c #383739",
"y. c #441E0D",
"u. c #531F0A",
"i. c #4A0713",
"p. c #412C11",
"a. c #433A1E",
"s. c #4A361F",
"d. c #4A3622",
"f. c #4A3C23",
"g. c #463927",
"h. c #513921",
"j. c #463B39",
"k. c #523D35",
"l. c #2B423F",
"z. c #3D4139",
"x. c #584A19",
"c. c #49442F",
"v. c #544524",
"b. c #594B2C",
"n. c #55492C",
"m. c #5F5426",
"M. c #4D443B",
"N. c #544333",
"B. c #5A4F3B",
"V. c #574836",
"C. c #5C543D",
"Z. c #664C27",
"A. c #655636",
"S. c #6D5B33",
"D. c #685B3B",
"F. c #745B39",
"G. c #794627",
"H. c #6D603D",
"J. c #7B6435",
"K. c #75613E",
"L. c #78623A",
"P. c #776235",
"I. c #253D42",
"U. c #293D41",
"Y. c #343E42",
"T. c #1F4142",
"R. c #244243",
"E. c #2C4244",
"W. c #2C454A",
"Q. c #2D4B4D",
"!. c #294748",
"~. c #334546",
"^. c #3B4544",
"/. c #334748",
"(. c #33494D",
"). c #3D4B4B",
"_. c #374946",
"`. c #2D4C53",
"'. c #324E52",
"]. c #304C58",
"[. c #2F525B",
"{. c #335154",
"}. c #3E575A",
"|. c #3D5A5D",
" X c #365357",
".X c #3D5B61",
"XX c #365B63",
"oX c #3D6365",
"OX c #376767",
"+X c #424341",
"@X c #4B4B4B",
"#X c #464746",
"$X c #504040",
"%X c #425659",
"&X c #445E5D",
"*X c #525252",
"=X c #5A5A5A",
"-X c #51524C",
";X c #7B6D43",
":X c #76674B",
">X c #416161",
",X c #4B696C",
"<X c #4C6E70",
"1X c #467273",
"2X c #656565",
"3X c #747474",
"4X c #797979",
"5X c #992005",
"6X c #8E3517",
"7X c #803323",
"8X c #AC2A10",
"9X c #8E422B",
"0X c #955339",
"qX c #936F3F",
"wX c #85713F",
"eX c #907C4A",
"rX c #867853",
"tX c #897542",
"yX c #A68457",
"uX c #8E8E8E",
"iX c gray64",
/* pixels */
"+   V C = o._.O > e w r e f r f h h r A j w.z.:.<.w.w.;.;.6.8.R.T.W.oXOXoX9.e X e f e e @ j h p p ; X : m . G.8X5X6X0Xy..   $ - ",
"+   V C = o.~.O @ e w @ A e f f f A h A S ;.e.w.<.<.q.;.5.6.9.E.R.E..X1X<X5.# p p h f e 8 h f , @ ; , : -   s.9X7Xu.y.$   . % % ",
"+   B C = Q l.O @ > e > e h w h f / / h S +.e.e.;.;.,.5.5.9.U.E.8.(.'.!.I.f + p > f e e e j s , e . X : V #   $ l . .   O   % % ",
"+   B C = Q 9.O > @ w h @ r f h h / / f / o.,.w.;.;.;.5.5.9.9.U.R.'...X.U.` a o > f e , p j s 3 8 ; < : l .   o .   + O     - $ ",
"+   B C = Q 6.O @ e @ f / @ / r h / h f / +.,.,.;.;.;.5.5.9.9.U.R.U...>X,X3.p e h / h p d j p , 8 # X 3 b b Z & : ; - $     - . ",
"#   B B = j |   @ > > > +.) w h h j h f o.;.w.;.;.-.;.5.5.9.9.9.R.W.Q.>X{.` j %./ / j 3 j j p , e 0 @ # * l i.% % % % % . . $ . ",
"#   B B = j ] O w O w > e 5.h A j j h h S ;.e.;.5.-.-.;.5.9.9.8.8.9.{ } _ Q Q h h / j 3 J j s 3 w = + # 3 Z i.$ k $ $ %   . $ . ",
"#   B B = Q ] O w @ > e @ h ^.h h S h A h ;.w.@.5.;.-.;.5.9.9.6.U.2.7.{./.3.o.) h / j 3 J j p 3 > 0 0 0 # l z # +   & .     $ . ",
"+ X ! j 8 Q ^ @ @ @ @ e e e h -.h h h h j %.5.%.-.-.-.5.5.9.9.8.9.{ W.<X>X8.) ] j j S p J J a , + @ @ # : b k % . . . . . . . . ",
"#   N o.8 g r @ @ @ @ w e e e h +.A h h h S %.;.-.-.%.-.5.5.9.8.5.' {.oX|./._ ] j j j s O.O.d p ; @ @ # : b k $ . . . .   . . . ",
"# X ! #.8 j i w w e @ @ e e w w / h h S j j ) %.-.-.%.%.5.5.6.6.2.|  X`.Q./.^ ] j h j s O.O.d p # @ @ # : n k $ . . . . . . . . ",
"+ > ! #.@ #.^ e f e w > e e e e e f j S S S / / 4.%.%.%.5.5.6.6.+.~..X[.'.E.] / j h j s O.O.d , # # # # 4 m : $ . . . . . . . . ",
"p w g / O $.^ e h f w w w w w f e h j j j S / ) 4.%.%.%.4.4.4.6.w.).|.`.Q.E.] ) j h h s O.J p , # # @ # a a : $ . . .     . . . ",
"/ i g ` @ o.h e h f e r r w @ e r f h S / S / %.4.%.%.%.4.4.4.4.+X).}.W.W.~./ / j f h p K N 3 , # # + # p a ; $ . . .           ",
"` i j ` 8 o.h e f f r f / h f e e r f j o.o./ +.4.%.+.%.-.-.%.4.z.#X%X'.(.9./ j d f f p J d ; # # + + # p p ; $ . .             ",
"W i Q / @ $./ e e f e f ) %.S e e h f e j +.) / 4.] ] %.%.%.%.%.e.@X~.I.{ u / A s p f p N a # # @ + + # p p ; $ . .             ",
"A e u _ + o.h s p 6 6 p s / / r e e f j h h +.%.%.%.] ] %.%.4.4.w._.E.7.] u / / e f f s d p # + # # o + 3 a p . . .     O .     ",
"h 8 y ^ # o.s p , 3 s a f h h f h h e e f h / / %.%.] ] ] %.%.4.-.E.E.U.8.) ` Q e f s a p 6 # + # o o + 3 a 3 . .         O     ",
"h 8 y ^ + S r e @ > p a s a s f o.+.h e h h S / %.%.] ] ] %.%.2.4.~.W.U.6./ A e f f p p 3 3 # # o o o + p d p . .               ",
"h 8 y _ # S r e @ @ # 6 a d d p / +.S s h f f j %.+.] ) ) +.%.%.X.E.I.{ ` j / f e p p 3 3 ; # # o o o # p j p + .               ",
"h 0 u _ # j r # e @ # 6 a d s p / o.j / +.h f S +.+.] ) ) ) +.%.| E.I.{ ` f / f p e 3 3 ; # # # # # o # p d p . o       X   X X ",
"h 8 u _ # j e + w , 3 3 3 p s p +./ h +.5./ j S +.+.+.) ) o.+.&.-.E.R.6.2.h h e e p 3 3 ; # # # o o o + 3 d 3   o X X X X O X . ",
"h 8 u _ # j e ; , 3 3 4 4 d s w +.j e j o.S j j %.+.+.) ) o.+.&.;.9.8.6.4.A / f , p p 3 ; # # # o o o o 3 s p   o o O O O O X X ",
"f 8 u _ # j p = 3 ; ; 4 4 j h @ +.S f h h h / / %.%.+.o./ o.+.&.+X^.9.| ] h A f , p 3 3 ; # # + o o . o 3 d p + o o O O O O X X ",
"j @ u h 8 J ; 3 3 ; 3 p a a p p f S s f j f f / +.+.o.o.j +.#.3.M.$X| ..J a A u e # p o 2 ;   X o o . # ; j p   o . X X X .   . ",
"f @ u i e ,.M ; ; ; 3 3 a 3 3 3 f j p f j h f ^ +.+.o.o.S o.+.$.N.$X4.| q.N h w , p p o o o o   o o . # 3 j p   o . X X X . . X ",
"# @ _ u 8 @.N o # # # 3 3 4 3 3 p d p s j h f A +.@.o.o./ / ,.=.k.$X%.] j.O.h p 6 j 3 3 # + #   o ; o 3 3 j p   o . X X X . . X ",
"# @ ] u O a a o + + # 3 4 4 3 3 p s p s j f h h &.:.L J S j t.1.k.j.%.) t.N s p d d o p p #     o ; # 3 3 j p   o . X X X X X o ",
"# O W w O j d   + + # 3 4 : 3 3 p p 3 s j f h h &.:.U L j j r.j.M.j.%.] ! a p p G M ; 3 ; ; . . o ; # 3 3 N p   o . X X X X X X ",
"+ 8 W w O O.O.o ; # ; 3 4 4 3 3 p p 3 d j f f h @.>.d.U d h q.1.w.q.] [ s p s p H G x 2 2 ; . o o # o ; 3 J p   o . X X o X . X ",
"o e ^ u O J j # ; ; ; 3 4 4 ; 3 p p 3 j j e f f @.Y s.Y d W %.@.%.+.] ] j p s d U H x P P & .   o o . # 3 J a   o . X X o X . X ",
"  w i h @ a ; . ; ; ; 3 a 4 3 p p 3 3 j h e f u :.Y h.d.d _ %.;.%.+.[ _ Q p s M c.I c f.V.2 o   o o . # 3 O.d   o . X , o .   X ",
". @ { ^ # M .   O # ; 3 ; ; ; 8 p 3 3 s j e f f @.>.V.g.3 W -.5.3.+.] ] e p a M Y >.c qXyXx @ o +     o # j p   o . X X @ X     ",
"o 7 { ^ @ N # # O @ 3 3 3 ; ; 8 p 3 p p j e f f *.I d.a.4 S %.;.&.] ) / f s d d I *.c Z.Z.& O         o # j p   o o . X @ X     ",
"+ w | ~ @ N ; , X # 3 3 3 3 3 , p 3 3 p d e f f G P d.k.K o.+.@.%.%.) A d p d d I O.B p.v & #   O     o o j s   o o X X @ X     ",
"> i | ~ # N o >   # 3 3 3 3 p e 3 , p p s , f f K K >.>.J o.@.&./ ) ) j N a d d H K 4 c * ; + o O     o o j s   o o . X X X     ",
"e R  .R O M o , X # , 3 3 3 3 , , , p p s @ f f G G d d e j / S ] ) ) / O.a 4 d F K 2 1 o # .         o o j s   o o     X X     ",
"r ~  .R + N o # # # # # # # , # , , p p p @ f y d j , w > h S J ) ^ A h a ; 4 4 5 K 4 < o & o .   .   o o j p   o .       X X   ",
"r ~ | u + N o # # # # # # # , , , , e , p @ f y M J w @ @ p J =.^ _ ' ^ @ # 4 4 1 * ; o . . &     .   o o j p   . .       o X   ",
"u ~ { t + N . o # # # + + # , 3 > , e , p @ f y 5 d O e s d d J ~.%X&X~.r , p a p . & # # = = O O     . . d p   . .       o X   ",
"h R X.w # s o # o # , # + # , e , @ e e e e e f 6 a # e j o.d G 9.8.8.) e > @ a ; o . o o o     o       # s p   o   X X   X X   ",
"h R ..w + s o # o # # # # # , e p # e e e e 8 f p d , @ X +.,.*.] l.E./ # @ # . # o . o o o             o p p       X X   X X   ",
"W R ..w + s o # # # # # o + # p p # , @ 8 e 8 e , , X @ , +.@.D 5.] i + + , , . . . . o o o .       o   o p ;             X X   ",
"W u ..8 + s   @ # o o + + O # p # # , @ @ e 8 e f j h 5.#Xz.D j 2.) u g q .     . . . # # o .       o   o p #               X   ",
"h t ..7 + s   O # o X + + O # , # # p , 8 e e e f f > S ;.-.j +.#X_.4.g + # , # 3 o . ; 3 o .           o p ,               X   ",
"h w ..@ + f   O o o + O O + # # # # p , 8 e e e j e     X +.q.@.e 6._.#.0 f e + d 4 o o # .   o         o # #                   ",
"f 7 ..O = f   X O + O X O # @ @ # # # O @ e 8 w e X X # # @.;.p @ _ E.4.0.).-.p 4 4 o . . . .             + +                   ",
"f @ ..O = h   O X + + X X @ @ # # O X   @ e 8 @ e X   # # 3 ; ; j ] 8.t u ~.] @ o 1 ; .   o o                                   ",
"f @  .9 j +.X + O   o <   @ e   X X X @ @ @ 8 w @ X X   e # O #.^.j 3 o       o & * * c c c * $                                 ",
", O ' O # s ,   o s # O +   6 6 @ X   @ @ @ @ w > X X X   O f %.f       e / j 0 . & & 2 2 4 o                                   ",
"  @ ]     s   . X # 0 . G H 2 o     O O O O @ X O   X > > h 4.] # . O ) (.%XY.h & : & & o                 O                     ",
"  w _ X   j &.+ # 3 x b.;XH.B.K M G d # O @ @   O   X > > f h > .   O { `.[.W._ $ $ . . & # O                                   ",
"+ @ u   8 e   . o a.;XtXP.L.A.A.N.>.M o   + # O +   # O O @     .   h W.[.XX|.6.# # +     O   O                                 ",
"  y u   O j @.* b.eXwXJ.F.F.S.x.g.x     @ @ O O +   #   # p   #     h R.'..X'.u r ( ] ] h @             O                       ",
"+ @ i O 0 ; 5 n.eXwXP.F.K.A.v.v.4 o   i ^ h w w +   O O @ e     o   X i _ 7.W   @ A 6.9.9.) >                                   ",
"  w u   O a T ;XP.L.K.S.m.b.N.m   @ u _ ' _ h e X @ @ @ X O , # O o 3 , e w   . . + # @ 8 # .               O                   ",
"  O ^     @.a.I F.S.S.Z.v.g.M   @ u ^ _ ' ] h e X + # + O O O + O W U.!...E.y   . . # ] W w + .               +       O O       ",
"  y @   8 4 F f.F.v.v.b.f.x   + u ^ _ ~ _ ^ w O   + # # + O X + O u E.{.{.}._       > 9.Q.W.{ @                           +     ",
"  Y.).;.3.M.:X:Xv.s.f.Y x .   f h ^ _ ~ ^ h 7 O   X # # # O X O X O u ~ _ 6./ O     , 6.(.`...E               #X*X*X3Xr.@X  j   ",
"  ` 4./ j M.rXb.a.f.>.2   # e h u ^ _ W h h @ O   X + # + O X X     O     # # +       p h W W y               3X4X+X=X2X*Xq.3X  ",
"  / %.A #.M.D.V.c.U 4   # y u u ~ _ _ u i e O   X X o o X   X X @ f j f 8 O @ @ 8 O       O   .               iXuX+X+X*Xq.*X2X  ",
"  2.^.;.t.-XC.B.:.4   O f h i u u ^ W w @ O     X X X X         _ 7.[ | | ] | 6. .{ ] r w X                   uX2Xj &.@X4X@Xo.j ",
"  O @ X 8 N F 5 #   X @ e u i u w u f @   O     X X X           } `.....!.Q.Q.Q.[.{.{.8.| u O .           +                   O ",
"X 7 w O 7 j 5 o     @ w i u i i 7 i f # O       X                ..X..} I.Q.W.W.].'.|.Q.W.{ 8 O             +                   "
};
