/* XPM */
static char *_ac33d64ed2340a9e6e542b7b8fff85asbNFZuANmQ30oskA[] = {
/* columns rows colors chars-per-pixel */
"64 64 229 2 ",
"   c #040303",
".  c #0C0504",
"X  c #060807",
"o  c #0C0A05",
"O  c #05040A",
"+  c #0B0609",
"@  c #060A09",
"#  c #0B0B0B",
"$  c #120403",
"%  c #1C0202",
"&  c #120A05",
"*  c #1A0D05",
"=  c #110609",
"-  c #1C010A",
";  c #130B0A",
":  c #190D0B",
">  c #0E110D",
",  c #151006",
"<  c #1A1107",
"1  c #13120D",
"2  c #1B140B",
"3  c #1D190E",
"4  c #0C0E10",
"5  c #0D0010",
"6  c #140C10",
"7  c #170514",
"8  c #0E1011",
"9  c #0E1B12",
"0  c #151512",
"q  c #191611",
"w  c #161A14",
"e  c #1C1A12",
"r  c #1D1C1A",
"t  c #171918",
"y  c #230102",
"u  c #2A0203",
"i  c #290B01",
"p  c #23020A",
"a  c #290408",
"s  c #2F0E09",
"d  c #340201",
"f  c #3A0202",
"g  c #3A0707",
"h  c #22170C",
"j  c #231A0D",
"k  c #2A1D0D",
"l  c #2C1308",
"z  c #321807",
"x  c #250C10",
"c  c #231710",
"v  c #2A1711",
"b  c #241D12",
"n  c #291E11",
"m  c #211F1B",
"M  c #2A1F19",
"N  c #1C2114",
"B  c #1F201A",
"V  c #2D210F",
"C  c #34230E",
"Z  c #38230E",
"A  c #242113",
"S  c #2C2314",
"D  c #23221B",
"F  c #2C251A",
"G  c #252B1C",
"H  c #2D2D1C",
"J  c #2F2A17",
"K  c #332514",
"L  c #392413",
"P  c #342A16",
"I  c #3B2B15",
"U  c #332618",
"Y  c #342C1A",
"T  c #3B2D1C",
"R  c #3A2718",
"E  c #2B321D",
"W  c #34341D",
"Q  c #3C311E",
"!  c #38351B",
"~  c #211F20",
"^  c #252422",
"/  c #292522",
"(  c #2B2A23",
")  c #2D2D2A",
"_  c #322C21",
"`  c #3B2E23",
"'  c #322F2C",
"]  c #2C3421",
"[  c #2D362A",
"{  c #343423",
"}  c #3D3221",
"|  c #323D26",
" . c #3C3C25",
".. c #36342C",
"X. c #363533",
"o. c #393732",
"O. c #3C3A35",
"+. c #3B3B3A",
"@. c #430403",
"#. c #4A0301",
"$. c #4F000C",
"%. c #410800",
"&. c #530401",
"*. c #5A0801",
"=. c #53000A",
"-. c #580003",
";. c #481105",
":. c #541903",
">. c #430A10",
",. c #441110",
"<. c #581D19",
"1. c #620000",
"2. c #690401",
"3. c #740200",
"4. c #7A0303",
"5. c #7E0708",
"6. c #5C220A",
"7. c #422D1C",
"8. c #4C2C1A",
"9. c #472819",
"0. c #42331D",
"q. c #4A341C",
"w. c #49391E",
"e. c #443317",
"r. c #54311E",
"t. c #6A2A14",
"y. c #7A3718",
"u. c #712D13",
"i. c #412F21",
"p. c #423421",
"a. c #4A3524",
"s. c #453A23",
"d. c #4A3C23",
"f. c #413C29",
"g. c #48362A",
"h. c #523424",
"j. c #553729",
"k. c #503E2B",
"l. c #5B3C2D",
"z. c #563826",
"x. c #4D3F31",
"c. c #403F3D",
"v. c #633629",
"b. c #633831",
"n. c #294225",
"m. c #3A4729",
"M. c #464025",
"N. c #4A4125",
"B. c #4B432A",
"V. c #464B2B",
"C. c #524224",
"Z. c #594624",
"A. c #53452B",
"S. c #59462B",
"D. c #5F5228",
"F. c #41403E",
"G. c #5E4A31",
"H. c #564836",
"J. c #624E2D",
"K. c #685436",
"L. c #70592F",
"P. c #7A6633",
"I. c #413F42",
"U. c #4D4944",
"Y. c #4E4D4B",
"T. c #464442",
"R. c #514C49",
"E. c #54514B",
"W. c #4E4E50",
"Q. c #585756",
"!. c #656463",
"~. c #6C6B69",
"^. c #71706E",
"/. c #7A7977",
"(. c #746C6A",
"). c #810300",
"_. c #880400",
"`. c #980000",
"'. c #A50000",
"]. c #9D3711",
"[. c #883B11",
"{. c #8D4016",
"}. c #9E521E",
"|. c #9B4B1A",
" X c #A94E1E",
".X c #914C22",
"XX c #9F5B2A",
"oX c #9E5B30",
"OX c #8A4C23",
"+X c #BB5B28",
"@X c #956131",
"#X c #AF6C2F",
"$X c #CC6E31",
"%X c #D57C38",
"&X c #C47032",
"*X c #8F7E52",
"=X c #D38836",
"-X c #D28F3D",
";X c #E6B13D",
":X c #918462",
">X c #D59345",
",X c #C59B4F",
"<X c #E28F41",
"1X c #E49145",
"2X c #CAA04C",
"3X c #E7AA46",
"4X c #F5AA4C",
"5X c #F9BD4B",
"6X c #F9B855",
"7X c #F4A852",
"8X c #F4CB4F",
"9X c #FFC653",
"0X c #FFC25E",
"qX c #FFCE58",
"wX c #FDD255",
"eX c #FFD15F",
"rX c #FBDB5D",
"tX c #FFD855",
"yX c #ECC64B",
"uX c #FEE25C",
"iX c #F6E45D",
"pX c #FED265",
"aX c #FFDC63",
"sX c #FFDB71",
"dX c #FDE364",
"fX c #F9E869",
"gX c #918D8C",
"hX c #9D9C9A",
"jX c #AAA5A2",
/* pixels */
"@ @ @ @ @ @ X X @ @ @ X X X + + X X X X X + + . . + + + + @ @ @ # # > 0 0 4 4 4 # # # # + + # + + * @   . O @.'.,.yX7Xs q x a $ ",
"@ @ @ @ @ @ @ X @ @ X X X X X X X X X X X + + . . + + + + X @ @ @ # # > 4 4 4 4 # # @ # + # # + + : @   . O #.`.<.8X7Xu : p u % ",
"@ @ @ # # # @ @ @ @ @ @ X X X X X X X X X + + . . + + . + + X X @ @ # # # # # # @ @ @ # # # + + . ; @     O #.).t.wX1Xy - y u y ",
"@ @ @ # # # # @ @ @ @ @ @ X X X X X X X X + + . . . . . +   X X + X @ # # # # @ @ @ @ @ # # + + . ; @       *.1.y.tX%X% % a u y ",
"@ @ @ # # # # # @ @ @ @ @ @ @ @ X X X X X + + . . . . + + + + + X X X + # @ @ # @ @ @ + + + + + + ; @       2.#.{.uX$X$ % a u % ",
"# # # # # # # # # # # @ @ @ @ @ @ @ X X X + + . . . . . + . + + + . o + @ # + @ @ @ @ + + ; + + o ; o   O   3.d }.uX+X. % a u % ",
"# # # @ # # 4 4 # # # @ @ @ @ @ @ @ @ X X + . . . . . . . . . . o o + + + + + + + + @ + + ; + + ; + .   O   ).u #XiX X. y a u % ",
"# # # # # # 4 4 # # # @ @ @ @ @ @ @ @ X X + . . . . . . . . . . + + + + + + + + + + @ + + + + ; + X .   O   _.p &XiX].  y u u % ",
"3 1 @ @ 4 @ @ # # # # # @ @ @ @ @ @ @ @ @ + + + $ $ . . . . $ $ o o o o + + + + . o + + + + = . ; #       - 4.d =XwXy.$ y u - y ",
"F e # # 4 # # # 4 # # # @ @ @ @ @ @ @ @ @ + + + $ $ . . . . $ $ $ o o o + + o o . . + + + ; = = ; #       - 3.d -XqXt.$ u u - % ",
" .F 1 # # # @ # 8 4 # # @ @ @ @ @ @ @ @ @ + + + $ $ $ . $ $ $ $ $ $ & & + + o o . . + + + ; = = = ;       a 3.f 3X9X:.$ u u - y ",
"B.Q b 1 # # @ @ 8 4 4 # @ @ @ @ @ @ @ @ @ X + + $ $ . . $ $ $ $ $ $ & & + + o . . . + + ; ; = = : :       d 2.%.5X6X@.$ u u - y ",
"A.p.S e 1 # # # 4 4 4 4 # # @ @ @ @ @ @ @ @ + + . $ . . . $ $ $ $ $ & & = . . . o o o ; = ; = = : :       @.1.;.qX4Xd % u u % y ",
"A.d.T S e 1 # # # 4 4 8 4 # @ @ @ @ @ @ @ @ + + . . . . $ $ $ $ $ $ $ & = . . . o $ + = = ; = = : &       #.-.6.rX<Xy - u u % u ",
"A.N.0.Y S e 1 # # 4 4 4 4 # @ @ X X @ @ @ @ + + . . . . $ $ $ $ $ $ $ $ = $ . . + + + + = ; ; ; 7 &   O   &.=.t.dX%X% - a u $ u ",
"C.N.p.T F m q 1 # 4 # # 4 # # @ X X @ @ @ @ + + $ . . . $ $ $ $ . $ $ $ = = . . . + + + = ; ; ; 6 &   O   *.=.y.dX&X$ - y u $ y ",
"N.d.s.Q Y A 3 1 # X @ @ # 4 @ @ X   X X   X X X X X   . . . . . . . . & $   X X . . . . ; = = = ; X     O 3.f .XfX X- % u p % % ",
"d.d.s.Q Y F b 2 1 # @ @ # 8 # @ X   + +     X X X     . . . . . . . . . . ; ;   + + . . = = ; ; ; X       3.f XXfX|.$ - u p y y ",
"s.s.s.p.T Y S e q 1 # @ # # # @ X X + +     X X X     . . . . . . . . $ $ .   . . + o ; = = + ; : +       4.f #XdX[.. & % $ $ $ ",
"p.p.p.p.Q Y F b b e 1 # # # @ @ @ @ ; ; +   X X X X   . . . . . . . . = = . o   . o ; ; & $ $ & ;       . 5.d -XaXu.. p u f @.$.",
"p.p.p.p.Q Y F S F b 2 1 # # # # @ # 0 ; +   X X + +   . . . . .   & . + . S H.$ . . o ; & . & & ;       $ 5.d >XpX:.. p u f @.$.",
"} } p.Q Q T J F S n 3 1 > # # # @ @ # # X X + X + + + . . . . . = . $ 7 . S.:Xk . . o & & & & & ;       y 5.d 3X0X;.. * . $ $ $ ",
"T } } Q Q Q Y S S n e 1 1 > # # # @ @ @ X + + X + X + . . . . . = . . = $ D.*X7.o o o & & & & & + o     d 4.g 5X6Xd $ p - y y a ",
"T T Q Q Q Q Y Y F S b e q 1 > # > # @ @ + + +   X X   . . . . . . & & . h D.P.S.; ; ; & & & & . X o     d 3.>.9X4Xu $ y - y $ % ",
"Y Y Q Q Q T Y P S S F 2 e 1 ; ; # # # @ X X @ X X   X X . . . . . . . $ k K.P.Z.n * & : : ; & & ; +   O f -.;.9X3Xd 7 $ * y y % ",
"Y Y Q Q Q Q T Y U S F n m q 1 1 # # # @ @ X X @     X + + . . . . . . & P G.K.Z.S 2 * : ; ; & . o     @ d #.d 6X6Xg 5 = - p s $ ",
"U Y Y Y T Q Q T Y n F F A q q 1 ; # # # # @ @ @ X X X + . . .   $ . . h 0.S.J.Z.Y j < : ; & & & o       y f y ,XuX#X:.y * . $ - ",
"S U Y Y T Q Q T } S Y S n 3 e q 1 # # # # # @ @   X X + 1 0 : ; $ . ; b p.S.Z.C.T V 2 * & = ; ; ;       % d $ L.fXpX0X7X=XXXOX6.",
"S S Y Y Q } Q T s.Y } K S n m 1 1 1 # # # # @ @ X X X X ; ; o + . . & j 7.z.C.d.Q V j < & & ; ; =       $ p . i 2XsXaXrXdXrXwX5X",
"S S Y Y Q } p.Q s.0.s.Q P S A 2 q 1 ; # # # # @ @ @     +     + & & * j I d.C.d.0.C j 2 & . & & .       . % - $ s @X>X6XwXwXeXeX",
"S S S Y T p.p.0.s.s.d.0.0.P S n b q 1 1 ; # # # @ X   X @ + 0 ) q : 2 k I w.d.s.0.Z k 2 & . & $ .       . % * p .   . i t.oX>X;X",
"S S S S Y Q p.0.d.0.d.w.d.I K Y m b q 1 1 ; ; # @ @ X X X   0 +.M : 2 S I e.w.0.I K k 2 * & & & .       . % $ p = $ ;   . . - i ",
"j S S S S Y } p.f.j.! s.w.q.8.Q L K S e q q 1 1 1 X X X X @ w X.D e n S I 0.0.0.I K k 2 * ; & .           . $ % % % % % % $ $ $ ",
"A F F S K T } } } 7.Y d.G.A.a.H ` Y F m e e q > 1 @ @ X X @ t X.D m n S R 0.7.0.I K k 2 * * & .             . $ % % y y % $ . . ",
"n n S S U T Q T p.T P q.k. .f.| { H D D m r w > 1 # # X X # r ' ^ m S S P I I I P K k h 2 : & . .                 . $ % % % % % ",
"j n n S U T Q I U J W h.k.W { ] ] E G D D B w 9 1 1 ; + + 0 D ) / D F S P I I I K S k h 2 : & . X                     . $ $ % % ",
"n n S S Y Q Q Q F A P z.S. .a.Y | ] G G D B w 9 q 1 ; @ 6 r ^ ) / D F S U I P P K S k j 2 * & & +                               ",
"n S S Y Y Y T Q _ A S z.A.B.l.s.| ] ] G D r w w q 1 1 + q D ^ ) / D F S K P K P S S k j 2 * & & o +                             ",
"j n S F F F U Y D b P l.V.N.v.s. .{ G G G D e e e q 0 # q r D ( / F F S S K K K S k j j 2 * ; & o o o +                         ",
"j j j b n n n n D b K l.V.B.v.M.f.{ G G ( G D e e q q 1 q t r ( / F F S S K S K V k k j 2 * ; ; . & : ; o .                     ",
"3 3 j b n n n n A j S v.M.m.b.n.s. .E G G D N N 1 w 0 0 0 r m / D F H S S K k k k k j 2 * * & & o o ; ; o . . .                 ",
"3 3 j b b n n n A j A h.M.m.k.[  .{ E G G D B e w w 0 0 0 r D ' F F F S n S S S k k j 2 & & & & o o o & & 2 2 * X               ",
"3 3 3 b b b n n n N 3 7.s.m.m.] { { ] G G D D e e w q q 0 r m ' _ A F n n n S n k j h * & & & & . & & $ : M F b # +             ",
"3 3 3 e b b b b c N e Y a.! n.p.{ ] G G F F b b b e q q w m D O.o.D F n S j S j j j < & & & & & o & & . & 2 2 $ o o X X X X     ",
"3 3 3 3 e b b b v N b Y j.p.n.j.} Q Y H F S n b b 2 1 1 q D ^ Y.O.D F b S b S j j j < * & & & & o o o o & ; & . o o X X X @ X   ",
"3 3 3 3 3 e b b v 3 3 J l.h. .h.7.T Q Y U S j j 2 1 q q w r m E...m D b A n b j j 2 < * & & & & + . o ; ; 1 2 2 & & o X X @ @ X ",
"e e e e e e e e h 3 3 S a.r.d.8.9.T Y U S n b 1 q 1 q w t t t E.^ r m e b b j b j 2 , * & . . & . . o & & * : & : & o X X @ @ @ ",
"e e 3 3 e e e e j A A j 7.8.h.7.9.R K n b b e q w 0 q 0 0 r ^ !.e e m e e 3 2 j 3 2 * * & . . . . . & & * < 2 & & & ; # @ @ + X ",
"b e 2 e e c j S F A j k S U i.K K S n n m e 1 q 1 # 0 1 0 q D Y.q w w e q 2 2 2 2 2 * & & o o o . & & * < 2 2 2 & & & o o @ @ @ ",
"e 3 3 3 b b S S b A j j k K T K F F A b e 1 # ; q 1 1 # > 0 D o.q q q q 2 2 2 2 2 < * & & o o . . $ & & * < * * : & & o X @ @ X ",
"e 3 3 3 b F F S , b j j k S U S m e 2 , , 2 2 e b , o 1 0 q t m 1 1 q q 2 2 2 * , , * & o o . . . $ $ * * < < * : & ; o o X @ X ",
"3 3 3 3 b b n 3 , 2 2 h n j j b e 1 , 2 j S S A n S 1 1 # # ^ ~ # 1 1 1 1 1 , & * & & & o o . . $ $ $ * * < < * : & ; o X X @ X ",
"e 2 3 n b b 3 3 j h 2 j b 3 , 2 2 2 n K K P K k U _ , o / W.!.I.# > 1 1 1 1 1 & & o o o o o o . . . $ & * * * * : * ; o o X @ + ",
"e 2 j S S j 3 j n h j n n j , 2 1 2 S I L Z L K p.T , q +.Q.Y.t # # # 1 1 1 1 # o o o o o o o . . o $ & & & * * : * & o o + @ + ",
"2 3 j S n h 3 A j j S j 2 3 2 e 1 & j I L L I Y k S m ) X.) r ; # # # # 1 1 1 # X X o . . o . o o o & & & & ; : * * & o o + @ @ ",
"2 j k k h 2 j b k k Y n & 2 1 1 0 o j 0.0.I P S k n 2 w t @ X ; # # # # # 1 1 # X X X . . . o o o o o . . . . ; & & & o o + @ @ ",
", 2 n n h h j j C Y 2 & k T 2 ; # & j K Z z K Y S e ; @ @ # # @ # # @ # ; 1 1 # # @ X X . . . . o   & . $ & . : # #   # @ @ + X ",
"1 , & & & < j n I S < k } } 2 > 1 o < k I I P j , & X @ @ # # # # # # # ; 0 1 # # @ X X + . . . o . . * . . ; .     +     #   # ",
"q O.T.X.O.U.x.Y l k K K k 2 o 1 # o 2 Y T n < & o o X # @ @ @ @ # @ @ @ ; 0 ; @ # @ X X + . . .   . . $ . :   R.Q.Y.^.T.Q.  m   ",
"o ( ' ^ / ..p.0.C C K j * & o > > X , b 2 o o 1 o # # @ @ @ @ @ @ @ X # ; 0 # X @ @ @ X + + + . . o . * . $ . (.^.U.!.!.Y.X./.  ",
"2 ( ) ^ ( { p.a.a.K k h , # # 1 X # 1 o o 1 1 # X X X X X @ @ @ @ @ @ @ # 0 # @ @ @ @ @ X X + + o . . : . . o jXhXc.F.E.+.Q.!.  ",
", ( o.O.T.E.H.x.F n S 2 o X # 1 o , 1 2 q w 1 X X X X X @ @ @ X X @ @ @ # # # @ @ @ @ @ @ X X       .   + ;   gX~.r ' Q./.T.^ / ",
"1 o . ; , & & 2 2 2 j o # > 1 & 3 2 2 e 1 # ; 1 @ @ @ @ @ @ X X X @ @ @ @ @ @ @ @ @ @ @ @ X       @       X       + @   + X 1 X ",
"# X # o o # # @ X   & . # @ o 2 3 2 2 2 1 1 ; o X @ X X     X @ X @ @ @ @ @ @ @ @ @ @ @ @ @                           # +   + @ "
};
