/* XPM */
static char *_107b955397c42929b1c9a25799f74ddLah7Si0KlexoGeyY[] = {
/* columns rows colors chars-per-pixel */
"64 64 256 2 ",
"   c #0C0401",
".  c #0E0A05",
"X  c #0E0C0A",
"o  c #040000",
"O  c #140B05",
"+  c #1B0D05",
"@  c #140D0A",
"#  c #1A0E0B",
"$  c #150603",
"%  c #15110B",
"&  c #1C120C",
"*  c #1B1406",
"=  c #141313",
"-  c #1C1413",
";  c #1D1915",
":  c #19191A",
">  c #120F11",
",  c #210E05",
"<  c #220E0B",
"1  c #270A07",
"2  c #241205",
"3  c #23130D",
"4  c #2B150C",
"5  c #2D1A0D",
"6  c #291607",
"7  c #32160B",
"8  c #331A0D",
"9  c #3B1D0C",
"0  c #371805",
"q  c #231513",
"w  c #2A1612",
"e  c #241A14",
"r  c #2C1B14",
"t  c #241C1A",
"y  c #2B1D1B",
"u  c #25151B",
"i  c #311612",
"p  c #331C13",
"a  c #3B1D12",
"s  c #321E1A",
"d  c #3A1C17",
"f  c #250E11",
"g  c #3D220E",
"h  c #37210A",
"j  c #2B2115",
"k  c #25211B",
"l  c #2C221B",
"z  c #252616",
"x  c #342115",
"c  c #3C2214",
"v  c #34231C",
"b  c #3B241B",
"n  c #3C2A1B",
"m  c #382918",
"M  c #1D1C22",
"N  c #281D23",
"B  c #311E20",
"V  c #2C2423",
"C  c #292727",
"Z  c #342423",
"A  c #3A2624",
"S  c #342A23",
"D  c #3C2A24",
"F  c #33262B",
"G  c #342B2B",
"H  c #3C2B2B",
"J  c #3A2629",
"K  c #3C322C",
"L  c #36342A",
"P  c #342C32",
"I  c #3A2E33",
"U  c #2A323C",
"Y  c #3A3337",
"T  c #2A2F2E",
"R  c #15201A",
"E  c #431E0B",
"W  c #451B06",
"Q  c #421E14",
"!  c #43220D",
"~  c #4A240D",
"^  c #4D2A0E",
"/  c #462808",
"(  c #522B0C",
")  c #56290B",
"_  c #59320E",
"`  c #432414",
"'  c #4B2512",
"]  c #452A14",
"[  c #4C2B14",
"{  c #43251B",
"}  c #442B1B",
"|  c #4B2C1A",
" . c #4E261B",
".. c #532C14",
"X. c #532D1C",
"o. c #592D16",
"O. c #4B3319",
"+. c #543213",
"@. c #5B3214",
"#. c #54321B",
"$. c #5B351B",
"%. c #5C3A1B",
"&. c #573A15",
"*. c #68380D",
"=. c #623513",
"-. c #643B1B",
";. c #6A3B1B",
":. c #663816",
">. c #733D14",
",. c #7A3F17",
"<. c #702E0E",
"1. c #432C24",
"2. c #432D2C",
"3. c #492D26",
"4. c #4B3224",
"5. c #45322C",
"6. c #4C332D",
"7. c #483728",
"8. c #533A24",
"9. c #533C2A",
"0. c #583827",
"q. c #443332",
"w. c #4A3632",
"e. c #4C3B35",
"r. c #453B3C",
"t. c #4C3C3C",
"y. c #443837",
"u. c #533B36",
"i. c #4D2D2C",
"p. c #633D23",
"a. c #673D27",
"s. c #743F20",
"d. c #6A431B",
"f. c #74431B",
"g. c #7A471B",
"h. c #784B0A",
"j. c #5C4329",
"k. c #49433C",
"l. c #58453A",
"z. c #644224",
"x. c #694629",
"c. c #724A2B",
"v. c #7B4C2B",
"b. c #774824",
"n. c #78532A",
"m. c #664836",
"M. c #7C5334",
"N. c #785538",
"B. c #715139",
"V. c #756339",
"C. c #2B3545",
"Z. c #2C394A",
"A. c #283546",
"S. c #383B49",
"D. c #353D51",
"F. c #202F42",
"G. c #1F3044",
"H. c #473D42",
"J. c #533A48",
"K. c #394659",
"L. c #3C4449",
"P. c #3C4D63",
"I. c #3F4F69",
"U. c #3E526A",
"Y. c #494549",
"T. c #5C4B44",
"R. c #564646",
"E. c #5C544B",
"W. c #464958",
"Q. c #535356",
"!. c #624C47",
"~. c #68554A",
"^. c #755946",
"/. c #685855",
"(. c #735B56",
"). c #794949",
"_. c #536255",
"`. c #76645A",
"'. c #706755",
"]. c #43546C",
"[. c #435369",
"{. c #575766",
"}. c #46536B",
"|. c #6A5E6C",
" X c #5B636D",
".X c #67646A",
"XX c #796866",
"oX c #7C7267",
"OX c #686A78",
"+X c #756C73",
"@X c #787478",
"#X c #6C747D",
"$X c #8A5116",
"%X c #875529",
"&X c #855A37",
"*X c #935C35",
"=X c #895026",
"-X c #8F6235",
";X c #865F43",
":X c #896546",
">X c #966947",
",X c #876A55",
"<X c #9B7757",
"1X c #907252",
"2X c #A37A5A",
"3X c #A37349",
"4X c #886E67",
"5X c #86746B",
"6X c #867977",
"7X c #927B74",
"8X c #967B63",
"9X c #A47D66",
"0X c #802218",
"qX c #678671",
"wX c #B0835D",
"eX c #958279",
"rX c #8F8374",
"tX c #A88767",
"yX c #B7977A",
"uX c #AC8E72",
"iX c #CBA568",
"pX c #767A88",
"aX c #6C7283",
"sX c #7C8392",
"dX c #7E808D",
"fX c #71A491",
"gX c #8A8587",
"hX c #988B89",
"jX c #888B97",
"kX c #8D919C",
"lX c #96959A",
"zX c #97918F",
"xX c #B79C81",
"cX c #A79790",
"vX c #ABA299",
"bX c #B7A48F",
"nX c #999AA4",
"mX c #8A99AE",
"MX c #A19FA5",
"NX c #8CADAA",
"BX c #ADACA6",
"VX c #84A59C",
"CX c #C3A687",
"ZX c #C9B498",
"AX c #CAB191",
"SX c #CDBCAB",
"DX c #D7C5B3",
"FX c #EDD2AE",
"GX c #8FBDD2",
"HX c #99CCE3",
"JX c #ABC5D3",
"KX c #E3D8C7",
"LX c #EFE8D4",
"PX c #FBFDF5",
"IX c #F9F4E9",
"UX c #CFD4DA",
/* pixels */
"v 4 s b 3 | :.' x O.^ p.;Xx.9 g O.} c c g ,Xl.p x q c X.n w } 8 E 4.r v 9.q.t.5.F H t.H.P G Y.P.P.P.K.K.K.: 6 3 3 & @ @ @ @ @ @ ",
"v 8 s p w 6 s.} 4 ` $.+.%.m.c d 1X^.c b x bX8X9.n # b ' p w x c Q v y 4 2.H y.5.I G H I I Z S.].P.P.K.K.K.N 2 e 3 & @ @ @ @ @ % ",
"c 8 x 5 v 2 x.v 0.| ! %.[ ` c b 1XuX^.i s l.uXyXm.+ c ' d w 2 1.b 3 t 3 v V H q.Z q.H F Y Z S.U.P.P.K.P.P.C 2 q & & @ @ # # @ @ ",
"p 8 v 5 s c x.r p.c.%.' { { 8 ` | 8XB.c r w 7.tX^.3 c [ b w + Z 1.# q 5 b Z F H q.q.Z P H.F S.].K.I.P.I.U.C + - & @ @ @ # # @ @ ",
"5 x v p 8 [ a.s &X&X&XB.] 0 ] [ b } | c 4 s x c 4.3 a ..{ y w & n e v } c l Z 1.r.2.Z P y.V S.U.P.].[.I.U.T + - & @ X @ # # @ @ ",
"5 p y x c #.;.4 c.<X>X&X&XO.` ` { ` 9 h } 9.} a 8 # 9 @.` w r 3 , r A | 9 s A 6.Z H H Y I V S.P.I.].P.K.P.T + - % @ X X @ # @ @ ",
"8 8 s c ` x.=.+ 9 %.<XwX:X#.[ m.^.| { 8 B.^.] #.c # c -.` 4 4 r 3 w i ` ` D A 2.F H H H.y.V U ].I.].[.K.P.P + # # @ X @ @ # @ @ ",
"! 9 D 9 0 N.@.q [ ..@.;XtXx.0 ,XAX^.1.7 B.:X&.c.n + { @.! p 6 r y q b ` { v V w.G H Z P G Z U [.[.].[.P.I.Y , + # @ X X @ # @ @ ",
"g A ] ^ ~ :X| 4 ` %.;._ x.$.~ ;XbXAXO.h 7 { x.%X| y ..@.c r e 6 5 r D 9 | b w.2.H G 2.H I G P ].].].I.I.I.W.= O @ X . @ @ % % @ ",
"h b ] [ ..<X` p [ ~ ;.x.( ^ #...:XyX| ` 8 d ] n.j.Y.^ =.` p j 4 4 # y p c 1.5.6.2.F A Z F Z F ].].].].}.].W.: O @ @ . . @ @ & & ",
"p b c { x.2X0 ` X.%.@.@...#.0...~ o.X.` c } g O.l.R.( :.` p D w p e q v p 5.2.2.H G A Z I G F ].].P.K.K.Z.Z.: O @ @ @ @ @ @ # # ",
"v m n c N.tX0 #.@.b.c.a...#.%...$.' ' ` 8.z.#.' l v =.*.a c !.A , q - v v 2.q.3.D G D Z I G V K.K.Z.A.A.G.A.M @ @ @ @ @ @ @ @ # ",
"b c } c <X<X0 x.b.v.%Xc.-.x.-.@.[ [ | 9 tX:Xc.c.r i ,.f.` c '.R.p & - 3 s A q.6.5.q.2.B F A y Z.Z.F.A.Z.A.C.C @ # @ @ @ @ @ # & ",
"c ! | ` yX,X( %X*X>X>Xv.b.v.b.:Xp.~ X.E j.tXuX1Xb 0.=Xf.8 { '.E.5.# t + b w.1.{ 6.q.2.Z F H Z Z.D.C.A.F.F.U M @ & # @ . X # - q ",
"` ] | O.AXN.*.>X2X2X2X>X%X&XM.<X:Xx.[ 9 6 O.tXFX9.X.$Xb.{ 8 4./.e.# # $ c 6.5.6.1.A H Z F D v U Z.C.A.A.A.C.C @ & # @ X X @ & & ",
"[ [ | %.ZXm.d.3XtXyXyX2X>X:X:XxXtXc.~ ` a c ! 9X8.~ $X*.p 9 0 6.D @ & 9.j.1.b 6.5.Z D J F A v U D.Z.A.F.Z.C.C # # # @ X X @ @ O ",
"+.-.:.N.AXd.&X2XyXCXCXuX<X>X&X:XyXB.[ 8 p ' ..[ 2 ..>.*.' 8 5 B d O O.m.| 4.b 4.6.Z 2.J Z I F T D.D.Z.C.Z.Z.C + # # @ @ @ @ @ @ ",
"^ _ -.tXAXd.<XyXAXSXSXxXuX2X&Xx.x.&.#.c c E ~ #.* X.>.=.' ` 0 i 4 % m 9.6.n 2.6.i.S 2.Z Z R.F P K.D.Z.C.Z.Z.C O # & & @ % @ @ # ",
"#.+.( tXuX&XyXbXKXLXLXZXyX2X:XM.%.@...9 | $.( ~ % a =.) Q  .g 8 w > l E.e.n 2.3.3.e.2.A G I N T S.K.D.S.D.D.U & # & & @ % @ @ & ",
"a.N.c.AXuXwXFXLXPXPXPXLXDXyX<X&XM.c.-.! 8.x.$...- 7 ) @.7 { [ a s X l .Xr.1.5.w.2.5.H 2.Y.H J V Y S.K.S.D.K.S.= # & & # # # # & ",
"#.x.N.DX<X3XCXLXPXPXPXLXSXxX9X:Xx.;.-.g { #.$.$.& 9 ) p.i 7 9 c 4 # V Y.k.} 2.i.i.v D 2.r.G Z C y.Y.W.K.W.W.W.V # & & # & & & 3 ",
"[ ^ c.AXn.*XtXZXLXIXPXLXbXtX:Xc.-._ ^ 0 8 ~ [ ] & 9 ) ..i 4 2 s 6 # k _.k.` 2.{ 6.A A 2.Z Z A V r.Y.W.W.W.W.Q.P # 3 & & & 3 & 3 ",
"..+.&XCX-.*XtXCXDXKXKXSXyXtX>Xv.p.$...8 p g ! ` % 7 @.$.7 c 6 i 8 + k #XR. .6.3.1.H v q.H H 2.t q.Y.W.W.Q.W.Q.T + & & & 3 3 3 3 ",
"#.d.>XyX_ *X2XyXZXDXZXxXuX2X>Xv.0.$.[ 4 v ` 9 c X 4 M.B.8 1.9 i 5 $ C _.k.Q v D 3.S A Z Z Z A Z G W.{.{.{.{.{.C O & & & 3 3 3 & ",
"X.&.>X>X[ =X3XuXCXAXxXuXuX2X>Xv.;.#.] 8 g 9 a c M 7 M.p.5 p 8 a 7 @ k j.w.b D b D Z v H Z Z H Z P H.{. X{.{.{.W.# + 3 3 & & O . ",
"../ >XM.[ g.-XtXyXyXyXtXtX<X&Xb.;.@.` 8 c c c b P 6 ..! 6 b c { w @ k 0.e.1.r v H v H G Z q.G y V Y. X{. X{..X{.e & e q @     % ",
";.-.3X0.[ b.&X<XtXtXtX9XtX1XN.x.=.#.c 4 a c c s : 7 ..| 4 5 b 6.< @ k 0.e.4.w Z H A s J Z Z G Z F W.OX XOX X.X{.e - @ o   - Y Q.",
") d.3XQ / =.c.1X2X<X1X2X2X&Xc.%.@.#.c 4 p a 8 2 X 8 ~ { < 3 p { # @ l p.7.} 4 s R.e.s G J F H Z V S.OXOXOXOX#X{.- .   - y.E.Y.P ",
"-.b.n.7 / _ a.;X,X:X:X>X>X&Xd.@.( [ p 4 p a 8 4 = 8 W Q 3 3 4 6 r @ j p.9.} b d Z A H A Z H H H Z H.OX#XOXOXOX{.& q y.T.k.v k S ",
"! g.d.` @.@.-.c.m.x.x.M.M.c.-.@.[ } 4 8 8 8 p r C p ' 3.r # 3 4 w O l z.9.| 4.1.y D e.q.A Z H H y r.OX#X#XOXOXaXK H r.l e v L l ",
"` $X..^ f.%X%X&Xz.z.%.z.%.$.#.[ | } 5 c g 8 8 w Y.p ~ ` 3 # 3 w 3 @ l z.6.c x D r v D 2.2.Z t.H Z Y.OXaXaX#X#XsXY.; k l l l V S ",
"{ $XW ) >.=X*X>X:X&Xc.z.O.] ` a 8 p 6 } O.] c v {.p ~ 9 3 & 3 q 3 X k 0.e.1.w D s D l.7.A H R.H.H H.OXpXaXaXaXsX.X- ; k V V V G ",
"o.g.8 ( >.g.%X>X&X>X>X>XM.#.h 6 6 - n 0., c z.p + 4 ..9 2 3 - 2 & O e x.8.4.y u.5.s v 5.q.H t.q.~.XX/.gXsXaXpXpXpXP # - Z S S P ",
"=.>.7 ( >.g.%X%X%X*X*X*X%Xv.z.[ 0 , 8.m.2 x 0 3 O r ! c 3 q = 4 & O t 0.9.} r H H D `.w.e.(.XXE.(.XXXXjXkXsXpXpXjXH.q t S D S P ",
";.:.a _ >.g.=X%X%X*X%X%X=Xf.;.=.@.` [ O., p h e # - 0 c # w ; 2 & O t 8.9.} e v Z D D 1.t.t.t.!.(.4X6XzXnXjXsXjXpXH.3 - Z K K L ",
"*.~ a _ *.f.=Xg.b.%X%X%Xb.=._ _ ( X.! / { c O.< . @ 8 d + 2 - 3 3 # e 0.8.4.r 1.y r D 5.t.!./.oX5XcXhXgXgXpXOX.XOXr.w t y v D G ",
"*.0 9 ( *.,.v.f.g.%X=Xb.f.=._ ( ^ ~ ~ 0 { ` g 9 + - i w n O.& 3 4 & & j.8.#.x 4.u q T.w.t.!./.`.cXBXhXgXgXpXdXkXjXQ.w = t Z 5.Z ",
">.a 9 ~ / @.a.-.f.g.g.g.f.*._ ) ] ! ! g E ' 0 E 6 & 4 w n j.3 3 5 3 q 0.9.] p | N y s D t.!.XX5XDXPXDXBXnXnXnXjXjXR.Z t - r e.q.",
"*.c 0 a 0 W +.| ( _ :.g.f._ ) ..` [ 9 9 0 ! g ! 3 O 8 s , p 3 3 4 & ; 9.9.} s | C t l w.u.XX5XoXDXLXSXzXlXkXkXkXOXF y V y v l.5.",
"*.c h 1.m ' [ c x } [ ^ ~ ~ ' a 0 E ! c ' g c E q @ h 5 q f - 6 2 & : 9.e.9.D 6.Y V y 5.u.2.l.`.zXSXBXzXnXjXjXnXOXC Z F V D ~.R.",
") / Q 9 ( +.0.]  .^ / ] x./ 7 9 a 7 i p 8 9 ! Q * @ p w q 4 3 8 i > e | ! n Z 0.Y P N H t.2.R.`.eXvXvXhXMXkXjXnX|.C u V k S a.).",
"^ ` d 8 &.( ..+.[ ] ' b.AX-X@.| 6 2 3 3 * 2 4 p & O 8 w n c & 3 ' b m ~ W ` 4 ` V k y D w.2.T.(.5XvXcXgXlXnXkXnX+XL N N # R.MXJX",
"! c s r O.h c ] [ ( ` O.x.a $.n.m 5 + O O O O q # # 8 2 1.} # w 2 3 r p 9 ] d v k y D 1.l.2.R./.5XhXcX6XnXlXjXnX@XL t N y /.GXHX",
"_ ! 7 2 + @ = . u ^ 8 V.n.f 4 g p 4 3 w l r < 3 # # 4 2 l.m.x ` m f q q 4 g n r ; e v 9.!.1.5./.`.7XeX6XlXlXjXkXOXI l N V R.mXUX",
"$Xb.v.x.c e e O , h 1 <XV.s 8.r 4 3 3 < 4 5 4 8 % # 4 < 9.0.! z.j.1 i d ] @.! 8 N y w.u.(.u.T.R.`.eX5X6XgXnXkXpX{.y.l N K w.mXUX",
"$X=X%X=X) 0 ` #.[ &.p m.x.0.c.^ 2 5 r e 5 x 6 2 O @ 4 q d E [ >X1X+ n a 0 ] s s y q l.`.`.l.`.T./.`.5XoX6XlXpX.X/.R.S : l 4 jXHX",
"$X=X$X$Xv.0.8.m./.j.8.1.f.>.%._ h 8 5 2 * 3 e * % = 3 w 4 6 5 #.B.O 7.4.c w N u { 3.^.DXhXl.5.u./.(.eX5XhXMX+X+XE.R.P e Z & 6XGX",
"-X*X*X%Xc.D K k.J L S R.z.h.>.X.#.| 3.b 3 3 & # . > 2 3 3 8 y w 0 q m #.B.5 q 8 a.0.j.cX7X!.u.6.T.4X5X5X6XnX@X@X XJ.q.p J = ,XJX",
"3X2X2X>X0.H e.2 3 5 n k.9.n.>.d.%.O.O.g 8 5 x 5 4 O % 3 r & & w e + 5 [ ,Xc ~ r X.a.p.4XXXm.0.H.u.~.XX(.XXgX@X+X.Xy.2.R.Z - 1.^.",
"x.B.n.&X3.r.l j l m v k.l.c.b.x.%.[ ] ` c 5 8 8 3 O & r w - - < & q & ` O.| -.h b e.l.4X`.m.#.(./.e.(.(.XX@X@X@X.Xr.w.t.I q r 4.",
"! d 4 0 x l & F t j & G 7.j.^.,Xm.j.4.c 8 4 7 7 e   O Z e e q < @ - = 8 c g ;...s - H m.(.l.} ~.7XT.~.~.`.@X@X+X+XR.H t.Z q r 1.",
"/ | } ! b k k V @ & % - e 2 4 k n 1.b x r x p s e   + Z y 3 3 3 w @ - r r 8 W | 9.& A 0.l.1.v l.rXoXE.!.(.@X+X+X+XE.Z k.G # q.1.",
"-X@.[ ! A e ; & C t % > - # @ >   O O # O + O e & O 3 l v w 3 e p 2 - s e 3 ! v 8.- Z 0.0.4.d 5.`.oXl.!.XXXXXX+XXXXXzX/.t.S A A ",
"iXg.p.' { e ; & V l % = - + 3 O e - & # @ O @ & O q r e D A v l 7 5 q r Z e | v x : y 4.m.a...9.`.'.l.T.5X6X6X@XgXcXvX/.T.w.v D ",
"-XM.M.z.i t % * S S e - w ! ..` w 3 3 & & q q O . q r e v A b v r 3 e 8 p | / ] w : t r { ( o.6.^.^.l.l.7XhXoXXX+XQ.F I /.!.3 y ",
"/ 9 ! / 8 O - - L l e & 5 ;.f.>.4.8 4 2 w w w + % w 3 q e i p l l # q c [ / =X=.x q 3 l w $...N m.l.l.!.4X7XE.XX@X@XH.r.R.t.r l ",
"d + B.M.0 ; % X C t @ @ O r r x y % X - & & ; 3 3 w t t k k & & & 3 y b a 9 v.f.[ w : y 3 } X.e 1.6.u.J.XX@XzXzX@X5XL y.k.w.N z ",
"9 5 1X:X0X3 = % t k o   e O O   O O @ O O w r @ 3 & & & & ; - q * 6 x ~ ~ c ` r ! 1.e 4 i 7  .r } 5.l.l.oXXX7XeX+X/.Y.T E.t.y v ",
"6 5 ^.&.<.3 : O o O S L e % ; % X @ @ @ & i w @ & t t y e t K G = q 3 0 0.[ ! p 7 6.} X.{ {  .b q.q.k V R.`.4X9X+X/.Y.L.E.y.A l.",
"5 h ] O.c j t Y w.oXvXl.O t - % % # @ % & w 3 @ 3 l v S Z K gXrX< p E.~.r j 2 D 1.b #.' p b c 4 C T T R C S K 5..X.XY.qX_.L n ~.",
"d } #.| L L 5.L.~.cXDXE.& t e & @ > X @ 3 e & # 2 s v Z y G lXrX* + .XrXG N H - @ O m.| s w x w 1.s v s A d s 2 k. XW.fXqXT S l.",
"a.n ! X.$.m l T u.bXDX5.+ t q - @ X . # w * O & p d s v l r.vXzX= @ Y..Xy I l & G G 8.| r r r q m j j l y Z k ; l pXaXNXVXC C K ",
"X.c O.| o.8.T.Q./.cXvXe.t q & O # & O # w & O - n b v l & l Y.k.= v t 3 v C k = e.y.b } 4 d 5 r s l S e w y l j O.kXjXBXNXP C S ",
"c / ^ 3.* O.9.H./.gXk   t - @ O 3 v r & w d w ; 6 5 e e   & # q e 5.k o v G i q u.V d c 3.0.4.v n ~.'.'.7.h 0 0.d././.'.qXw.T L "
};
