/* XPM */
static char *ea56be9005334df7edf9f75777ef7f6d9CcMsRs0lM7MpYy0[] = {
/* columns rows colors chars-per-pixel */
"64 64 238 2 ",
"   c #040404",
".  c #090503",
"X  c #050805",
"o  c #090905",
"O  c #050509",
"+  c #08070A",
"@  c #05090C",
"#  c #0B0A0A",
"$  c #110300",
"%  c #110E0D",
"&  c #140A02",
"*  c #12120C",
"=  c #16150A",
"-  c #050C13",
";  c #0A0D13",
":  c #060E19",
">  c #0B1116",
",  c #06121A",
"<  c #0A131C",
"1  c #071017",
"2  c #141413",
"3  c #1A1C14",
"4  c #1A1917",
"5  c #0F1008",
"6  c #27160A",
"7  c #2A1A0F",
"8  c #1D221E",
"9  c #25251A",
"0  c #362B18",
"q  c #0C1622",
"w  c #0D1A24",
"e  c #0D1C2A",
"r  c #0A1529",
"t  c #121B25",
"y  c #111D2A",
"u  c #0C222D",
"i  c #0C282C",
"p  c #12222D",
"a  c #1A2228",
"s  c #0D2531",
"d  c #132532",
"f  c #152A34",
"g  c #1B2C35",
"h  c #162D3B",
"j  c #1A2D3A",
"k  c #1A2730",
"l  c #1C323C",
"z  c #193439",
"x  c #2A2928",
"c  c #37382B",
"v  c #232E35",
"b  c #23333D",
"n  c #2B343B",
"m  c #363838",
"M  c #332C2A",
"N  c #4C3B2F",
"B  c #454639",
"V  c #57573C",
"C  c #4F4630",
"Z  c #73593E",
"A  c #1D3442",
"S  c #1E3844",
"D  c #223743",
"F  c #233A44",
"G  c #2B3B44",
"H  c #233C4B",
"J  c #2B3C48",
"K  c #353D43",
"L  c #253F50",
"P  c #26414C",
"I  c #2B434D",
"U  c #39454B",
"Y  c #2C4553",
"T  c #284351",
"R  c #334A54",
"E  c #3A4C53",
"W  c #354C59",
"Q  c #3B4D59",
"!  c #324553",
"~  c #3C525C",
"^  c #3D5257",
"/  c #3F5560",
"(  c #474848",
")  c #544C4A",
"_  c #4E5246",
"`  c #56574A",
"'  c #464D54",
"]  c #574F53",
"[  c #43535C",
"{  c #49565A",
"}  c #565757",
"|  c #655A58",
" . c #6E584A",
".. c #5B6359",
"X. c #65695B",
"o. c #67665A",
"O. c #726B5B",
"+. c #6B725E",
"@. c #76775C",
"#. c #73634C",
"$. c #435760",
"%. c #4C5C63",
"&. c #4A5860",
"*. c #535C63",
"=. c #5F5C62",
"-. c #645E62",
";. c #536265",
":. c #5A6165",
">. c #5D666A",
",. c #5A676A",
"<. c #5C716A",
"1. c #676968",
"2. c #7B6E6A",
"3. c #766A63",
"4. c #697168",
"5. c #767869",
"6. c #676E71",
"7. c #6E7273",
"8. c #697C79",
"9. c #7B7C74",
"0. c #757874",
"q. c #826959",
"w. c #83746B",
"e. c #887A6D",
"r. c #9B7E6C",
"t. c #8B7D72",
"y. c #867B75",
"u. c #927E73",
"i. c #7E816A",
"p. c #7E8173",
"a. c #7B857D",
"s. c #87876A",
"d. c #8B8D7C",
"f. c #878776",
"g. c #968879",
"h. c #8E9278",
"j. c #9A9B7C",
"k. c #94957A",
"l. c #A98B78",
"z. c #A6937E",
"x. c #B3957C",
"c. c #B99A7A",
"v. c #B28F7B",
"b. c #9FA27C",
"n. c #A7A77F",
"m. c #C7A277",
"M. c #D2A87E",
"N. c #8B8D83",
"B. c #8E9284",
"V. c #80948B",
"C. c #929583",
"Z. c #959985",
"A. c #9A9C86",
"S. c #9A9D8A",
"D. c #95978B",
"F. c #999E92",
"G. c #9C8E81",
"H. c #A79684",
"J. c #B89684",
"K. c #9EA18B",
"L. c #9DA085",
"P. c #9EA193",
"I. c #9CA79B",
"U. c #A3A485",
"Y. c #A2A48D",
"T. c #A7AA8C",
"R. c #A2A593",
"E. c #A6AA94",
"W. c #AAAD95",
"Q. c #ABAD9B",
"!. c #A5A99A",
"~. c #B9A992",
"^. c #ADB295",
"/. c #AEB39C",
"(. c #B2B395",
"). c #B3B59C",
"_. c #B5B99B",
"`. c #B7BA9B",
"'. c #ACB38A",
"]. c #9BAEA7",
"[. c #AAADA2",
"{. c #A4AEA5",
"}. c #B3B6A2",
"|. c #B6BAA3",
" X c #BABDA4",
".X c #BBBEAB",
"XX c #B4B7AA",
"oX c #B1B7A9",
"OX c #C19E85",
"+X c #C9A588",
"@X c #C0B39E",
"#X c #D3B18D",
"$X c #BDC19E",
"%X c #BDC1A4",
"&X c #BFC2AB",
"*X c #BAC4B5",
"=X c #C1C3A5",
"-X c #C2C4AC",
";X c #C5C9AC",
":X c #CACCAD",
">X c #C2C5B4",
",X c #C6CAB3",
"<X c #CACDB3",
"1X c #CACDBB",
"2X c #C6CABC",
"3X c #CDD2B4",
"4X c #CED3BB",
"5X c #C7D5B4",
"6X c #D2D4B5",
"7X c #D2D5BB",
"8X c #D5D9BC",
"9X c #DADDBE",
"0X c #D8DAB6",
"qX c #CED3AB",
"wX c #DCE0BF",
"eX c #BFCFC2",
"rX c #C8CBC0",
"tX c #C8D7C4",
"yX c #D3D5C4",
"uX c #D4DAC3",
"iX c #DBDDC2",
"pX c #D8DACA",
"aX c #DADCD0",
"sX c #E2DBC4",
"dX c #DCE1C3",
"fX c #DEE2CA",
"gX c #D7E3C9",
"hX c #DEE7D6",
"jX c #E1E4C5",
"kX c #E2E5CB",
"lX c #E5E9CC",
"zX c #E7E7C8",
"xX c #E2E4D2",
"cX c #EAEAD3",
"vX c #EAECDB",
"bX c #E4E8D5",
"nX c #EEF1DC",
"mX c #F2F6E3",
/* pixels */
"- - - - : 1 , , , , , < < q q w r r e e u u u u u u u s d d p i i i i i s s u e e e e e e w r r q , , , < , : : : : - @ @ ; # O ",
"- - - : 1 , < < < < q w w w e e e u u u d s f d d d d d f f f f f f s f d d d d d p p y y e e e q q < < < < < : : : ; - @ @ + O ",
": : , , < < < q q w w w e y p p p d d d d f h h h h h h A l l l h h h h h h h f f d d p p d y e e w q q q q < < : : 1 ; @ + O   ",
", , < < < q w w w w e y p p d p d f d f j z l l A A A A S D F A A A A A A A A j h j f d d d p p u e e w w w q < < < ; - +       ",
"< < < q q w t w y p p d d f g g j z j z z l S S D D H H L H H J J H D H H D S A A l z g g f d d d p u e e w w q t < ; @         ",
"q < q w t y y y p d d f j j j l z z z z b F F H P T Y Y Y Y T I I I P T T L H D F F A l z z f f f d d p p y t t t > @         . ",
"w w t y y p p d d d f j j l A A D S F F P P I Y Y Y Y Y R R R R ! ! Y Y Y Y Y P H H F D A l l l j h f d p p p t 1 @ O     . . . ",
"e e y y p d d d j j j l A D F F H P P I I Y R R W W W W Q ^ [ [ E E R W W W R Y Y I P J H F F A l z g d d p a a @ O         . . ",
"e e p p d g g j j l l D D G J I I I I ! R W ~ ~ ~ / Q ^ { 8.].].V.<.<.[ ^ W R W Y R Y I I J G H D l j g g g t - O   + #       . ",
"p p p k g g j l b b D G J I I I R R R Q ~ ~ $.$.$.[ &.[ 8.*XeXtXtX*X*X8.E [ $.~ ~ W ! ! R ! J J J D D b g t :   O       . # . . ",
"p p k g g l b b D D J I ! ! R E Q Q [ [ $.&.%.%.%.%.{ ;.F.tXtXtXuXgXhXI.{ ;.%.[ [ [ ~ ~ Q ! ! ! I G G g < O O @       .   . . . ",
"k g g v b n G G G K U U E E ' [ [ [ &.%.%.;.;.;.,.,.>.4.*XtXgXgXuXuXhXoX..;.%.;.%.%.&.[ [ [ Q E U v < - O O O     # . . .   . . ",
"v v n n G K K U U U U ' ' { { { *.*.*.:.>.>.>.>.>.:.1.4.*XgXdXdXkXfXbXXX..1.>.:.*.*.*.*.&.&.{ E v 1     O @ +     . .   .       ",
"v n n m K K U U ( ' ' ] { { *.*.:.:.1.1.6.6.6.6.7.7.0.I.1XfXiXdXiXiXxX1X0.4.6.>.6.>.:.:.{ ' n 4 O   O @       . .   .   . . .   ",
"n m K K U ( ( ' ] ] } } =.=.=.1.1.1.1.4.7.7.7.7.7.0.N.pXyXyX8XjXlXjXkXaXD.1.7.7.6.>.:.' a @     O         . .   .   2 o   .     ",
"m K ( ( ( ( ] ] } } =.-.1.1.1.1.3.3.5.0.9.9.9.9.9.9.oXpX2XpX4XfXkXkXxXvX[.0.9.7.7.m 2 @     X   # X o     . .   .   x 2       # ",
"B ( ( ( ) ] } | | | -.3.3.2.2.2.2.2.w.y.y.y.f.f.f.N.2XpXQ.C.a.{.>XyXvXfX.X9.9.9.M       #     . .   . . . .   # 2   x 4   o . . ",
"N ) ] ) | | | O.| 3.3.2.2.2.w.t.e.e.t.t.u.g.d.d.d.d.iXcXd.= 8 ( 9 A.xXxX}.B.p.9     #         .           o   . * .   o o     o ",
"] ) | | | 3.3.O.3.2.2.w.e.w.t.g.f.g.g.g.g.G.G.k.k.T.zXcX#.. = N o 0 2XvX>X9.3   X # +   #     # o     . . # .   .           o   ",
"x M ( M = N 3.w.w.w.e.e.g.g.g.g.g.g.g.z.z.z.H.H.z.@XsXsX` 6 7 3.0 c k.vX*X3 . #       + +   # m 4     # . . . .   # x 4       o ",
"    o . . . 7 3.g.u.g.r.r.l.l.l.l.l.l.x.x.x.x.J.z.~.zXcXY.C N 3.H.3.d.vXR.o o   + @ # +     X 2 2     #     . . . ` 7.x   #   o ",
"        . . . 6 O.q.r.J.l.v.l.x.x.x.x.c.c.c.OX+X~.@X7XkX-XN 0  .A._ f.mX5.  . # +   + +   # o       o .   .   .   * o . .   .   ",
"@   @ #     . $ . 6 N l.v.J.J.J.c.c.m.m.m.m.+X+X@Xw..XmXE.9 N d.o.B Q.nXX.o   # + O ; # O     o           +     .     #     %   ",
"          . . . $ $ . C N N  . .x.OXm.m.m.M.+XJ.t.O.&XhXyXB 3 3.c O.cXvXo.  # + @ O +   +     . o             +     +           ",
"    +     . . . . . . . . . . . 7 q.+X#X#X#Xr.7 & 9./.5XlXh.5 9 0 =XvX<XR.3     + ;   + +     . .                               ",
"                    . . . . o o . & Z m.#Xc.& . B p.T.^.3X6X_ 9 Y.cX,X}..XB   * @   + + +                                       ",
"            + +         + + @ @ # . $ 0 #.7 $ . o.X.T.'.qXzXiX,XcX`.(.<X}.C.o.5   + + # #                                       ",
"            O O O       O + + O O O & . $ &   o 1...j.b.n.0X9X7X7Xj.%X7XK. XR.`   2                                             ",
"X X X X         +   + + + + + + -   # .   . * % 9.` @.j.n.:X(.<X7X(.3X%XY.|.E.>X8 X #     + O                                   ",
"      X                   + + +   @   ; + # 4 % f.f.V k.(.=X;XzX=XU.=X(._. X|.nXX.  #   # + + O +                               ",
". . . .     . .             . . . o #   >   ( 9 `  XO.@.S.pXcXW.s.j.%XT.=X_.;XnXQ.5 .   # O O +                                 ",
". . . .         .               &   + O O   o._ c A.W.o.d.Z.Q.f.j.`.;Xb.:X_.7XkXxX_     ; + O # +                               ",
"                                    +       ` p.B +.S.XXZ.A.f.5.(.$XT.T.0X_.8XkXcX/.  o #   O   +       .   .   . . . .   . . . ",
"                                    +     x ` B._ 5.X.&X&X).h.i.=X(.j.$XwX(.iXlXbXyXB   . + O O       X X   . . . . . . . . . . ",
"                                +     X . 5.9.p.p.X.f.f.|.8X-X_.:X^.j.0X3X$XjXjXkXcXF.    + O O   . . .       o   . . # % % # # ",
"                                + +     9 [.f._ A.+.k.A.h. XW.<X`.U.T.zX%X:XjXdXkXkXyX3 X           .       . . . . . # % % % # ",
"                                  + #   X.*XC.5.f.E.f. XK.s.-X6XU.h.;XjX=X3X9XzXlXpXvX`             #   #   +           . . .   ",
"                                    . * P.}.K.<X5.A.|.%X XU.6X`.j.U.zX6X6X3XdXjXlXfXvXP.o .                 #             .     ",
"                                #     B [.f.W.lXT.s. X(.k.=Xs.U.j.:XzX:XwX6XjXdXlXkXxXyXc   o   #     #                   . . + ",
"                                  #   f.!.+.4XcXT.s.^.j.=X(.s.j.j.jX:X3XzX6X9XzXlXkXxXvXX.  # .     # x   #                     ",
"                  #         +       8 Q.p.5.lXfX%Xs.j.h.6X(.s.@.;XkX;XdX9X6XjXjXlXkXfXbXQ.*     @   # m   #   #                 ",
"                # 2 #               } [.5.h.fXdX3Xj.s.j.U.s.C k.jX<X8XjX8X8XdXiXlXpXfXxXxX(   .     2 # #   #                   ",
"                2 2 #             X F.!.5.h.fX3X8X_.h.(.s.V C =X9X XjX9X6X8X9X9XkXfXxXpXaXN.        #       #                   ",
"                # #               ` XX[.5.A.dX:X7X;XW.`.s.C j.6X).;XiX7X8X<X8X9XkXkXuXyXaX[.  #           #                     ",
"              # #                 0.rXP.+.W.7X,X7X3X;X Xk.V =X=XW.7X9X8X8X:X3X8XuXpXpXrXbXN.    +       #     +         + + + + ",
"              # #             #   x [.F.+.W.4X%X3X7X8X,XY.i.). X X3X8X9X6X3X<X7XuXfXuX2XD.o       + #   #   +     + + +     + + ",
"                #   #           @   _ B.+./.5X|.;X4X7X7X).Y.).&X X<X6X8X3X<X<X<X7XyX1X} o X   +   @ + +   + + +   +   +         ",
"                    #             @   ` p.!.,X/.,X4X<X7X<X,X7X X(.7X7X6X3X;X<X&X1XXXc   .               #           + +         ",
"                                  # .   1.rX2XQ..X4X1X1X4X3X<X(.|.<X7X<X<X,X-X>XXX(   X #   + #                                 ",
"                                    . o 4 o.` 1.*X2X>X7X<X4X;XL.-X3X-X3X1X|.}.X.3 # + # + + #                                   ",
"                                # #         o o P.rX>X,X&X,X%X^.%X^.4X-X X.X`     . + +   + #                                   ",
"                                    #   o   o   _ Q.>X1X1X>X X_.A./.-X-X.X1XB X * # # + +                                       ",
"                                # . o     #     = 4.S./..X X XY.A.-X X&X.X.Xc       + O + +                                     ",
"                                      .     o   = X.9.f.R.W.).Y.^./.,X|..X,XB   # #     + +                                     ",
"                                    x 4       o 3 9.f.d.R.W./.W.|.). XE.}.*X`   X     + +     #                                 ",
"                                    x 4   . #   = 4.f.S.S.R.).W.Q. X|.W.XX>X`   X     + +                                       ",
"                  #         #   . .             3 4.D.R.A.K.Q.E.Q.).}.W.Q..X`         + + +                                     ",
"                        #       . .         .   4 1.B.P.A.Y./.W.Q./.).Q.Q..X`       + +   +                                     ",
"                          x                     4 } p.D.Z.A.W.Y.W.Q.Q.W.!.XX(     + + +   +   .                                 ",
"                          x #   .               4 _ 9.C.C.Z.R.A.R.E.E.R.R.[.m       + +       .                                 ",
"                                . .             2 _ 9.N.C.S.E.A.Y.Y.Y.R.P.!.M       O O +     .                                 ",
"                                . .             * _ 9.f.B.S.R.Z.K.Y.K.K.S.F.9       O O O   . .                                 ",
"                  #       #       .       +     # ( 5.9.d.C.A.h.A.K.A.A.D.D.3       O O O     .                                 ",
"                                                2 ( 4.5.d.C.C.d.Z.Z.C.Z.C.B.=       O O O     .                                 "
};
