/* XPM */
static char *_3bad215c39442de9760fadd3c3c8017fqHFVOoHMQoD7bv4[] = {
/* columns rows colors chars-per-pixel */
"64 64 253 2 ",
"   c #000404",
".  c #010C0B",
"X  c #070A0A",
"o  c #081609",
"O  c #17180A",
"+  c #030E11",
"@  c #0A0E11",
"#  c #051313",
"$  c #0B1414",
"%  c #051C1B",
"&  c #0C1B1B",
"*  c #091718",
"=  c #121C1C",
"-  c #161816",
";  c #180F09",
":  c #271C0E",
">  c #371A0B",
",  c #261C16",
"<  c #301516",
"1  c #062503",
"2  c #172907",
"3  c #1B3802",
"4  c #0C211E",
"5  c #14221C",
"6  c #1B2417",
"7  c #1A3514",
"8  c #27230B",
"9  c #23251B",
"0  c #2B251B",
"q  c #282819",
"w  c #33251B",
"e  c #322B1B",
"r  c #392818",
"t  c #2D3413",
"y  c #0E1E22",
"u  c #2D1924",
"i  c #0E2423",
"p  c #0D2728",
"a  c #132423",
"s  c #192525",
"d  c #152925",
"f  c #1A2A25",
"g  c #152C2A",
"h  c #1B2C2A",
"j  c #162528",
"k  c #1D322D",
"l  c #1A3028",
"z  c #1E3332",
"x  c #1C2D32",
"c  c #242B23",
"v  c #222D2D",
"b  c #2A2925",
"n  c #362A25",
"m  c #22322E",
"M  c #2A3427",
"N  c #373529",
"B  c #242E31",
"V  c #243533",
"C  c #243936",
"Z  c #2A3A35",
"A  c #253C3A",
"S  c #2C3D3B",
"D  c #2A3537",
"F  c #333D3D",
"G  c #383B33",
"H  c #392F37",
"J  c #491907",
"K  c #482817",
"L  c #572C17",
"P  c #47341B",
"I  c #51270F",
"U  c #462E23",
"Y  c #463627",
"T  c #523D28",
"R  c #443B34",
"E  c #452937",
"W  c #274707",
"Q  c #2B4518",
"!  c #345113",
"~  c #37452A",
"^  c #2D413D",
"/  c #29403A",
"(  c #31423E",
")  c #394437",
"_  c #2B4224",
"`  c #3F6510",
"'  c #454917",
"]  c #454B0D",
"[  c #474539",
"{  c #554939",
"}  c #48583A",
"|  c #504F2C",
" . c #674C38",
".. c #655439",
"X. c #674E30",
"o. c #4F682D",
"O. c #646D39",
"+. c #47681C",
"@. c #323E41",
"#. c #4F3C47",
"$. c #2E4341",
"%. c #2D4843",
"&. c #344543",
"*. c #394544",
"=. c #354946",
"-. c #3A4A45",
";. c #354C4A",
":. c #3C4D4B",
">. c #37464A",
",. c #3B514D",
"<. c #38514A",
"1. c #3D5351",
"2. c #3F5854",
"3. c #3D4E51",
"4. c #444B48",
"5. c #43534C",
"6. c #49544A",
"7. c #575445",
"8. c #435453",
"9. c #445955",
"0. c #455B5A",
"q. c #4B5D5C",
"w. c #4B5854",
"e. c #555B58",
"r. c #534D49",
"t. c #665A49",
"y. c #6A5C50",
"u. c #4C615E",
"i. c #46615A",
"p. c #57645A",
"a. c #5D7345",
"s. c #68685B",
"d. c #786A59",
"f. c #6E7351",
"g. c #4C5F60",
"h. c #4C6462",
"j. c #4E6A65",
"k. c #526362",
"l. c #536966",
"z. c #556D69",
"x. c #5A6C6B",
"c. c #596865",
"v. c #5A726C",
"b. c #5D7471",
"n. c #5D7873",
"m. c #586E71",
"M. c #636C66",
"N. c #63726C",
"B. c #687567",
"V. c #77766A",
"C. c #637573",
"Z. c #637A75",
"A. c #6D7C73",
"S. c #6B7C7B",
"D. c #677877",
"F. c #737A77",
"G. c #706971",
"H. c #605E63",
"J. c #866F57",
"K. c #8D796A",
"L. c #778558",
"P. c #7A8869",
"I. c #6C827E",
"U. c #6B8176",
"Y. c #758373",
"T. c #74837A",
"R. c #7B8A7C",
"E. c #798678",
"W. c #878A79",
"Q. c #968878",
"!. c #87947D",
"~. c #97987A",
"^. c #8B8B6B",
"/. c #A38977",
"(. c #95A27D",
"). c #737E81",
"_. c #6D8482",
"`. c #6E8985",
"'. c #738583",
"]. c #748A86",
"[. c #7C8C84",
"{. c #758C89",
"}. c #7A8E8B",
"|. c #7B8585",
" X c #76918C",
".X c #7B918D",
"XX c #7F9086",
"oX c #7E9491",
"OX c #7E9B97",
"+X c #848C83",
"@X c #859283",
"#X c #83928B",
"$X c #8E9A8B",
"%X c #8A9788",
"&X c #929D8D",
"*X c #989987",
"=X c #839593",
"-X c #839A95",
";X c #8B9B94",
":X c #849B99",
">X c #8B9D9B",
",X c #8C9294",
"<X c #939D97",
"1X c #908D86",
"2X c #A69886",
"3X c #B0988B",
"4X c #96A28E",
"5X c #9AA688",
"6X c #8BA29C",
"7X c #95A393",
"8X c #9BA594",
"9X c #9DAA95",
"0X c #9DAB9C",
"qX c #95A49D",
"wX c #A7AA88",
"eX c #ACB18C",
"rX c #A2AB95",
"tX c #A2AD9B",
"yX c #A8A997",
"uX c #AAB295",
"iX c #A5B19C",
"pX c #AAB29C",
"aX c #A6B095",
"sX c #B3AD99",
"dX c #93A5A2",
"fX c #94ABA4",
"gX c #9BABA4",
"hX c #99ABA9",
"jX c #9BB2AB",
"kX c #92ABA6",
"lX c #A4ACA6",
"zX c #A6B2A3",
"xX c #ABB4A4",
"cX c #ABB5AB",
"vX c #AAB8AA",
"bX c #B3BCAC",
"nX c #B4BAA7",
"mX c #A7BAB4",
"MX c #B4BDB2",
"NX c #B4B9B5",
"BX c #B6C1AD",
"VX c #BBC4BB",
"CX c #B8C2B7",
"ZX c #ACC2BB",
"AX c #C2C7B9",
"SX c #B8C9C4",
"DX c #BCD2CD",
"FX c #C8D3CA",
"GX c #CCD7CF",
"HX c #DAEEE8",
"JX c #E9F3EB",
"KX c #D2E5DE",
"LX c #C4B29E",
/* pixels */
"3 3 ! 3 W W 3 2 ~ 6 O O e { 7.N c o O O 2 o o 2 3 W W W ! W 1 1 2 ] o.] o.O.| Q ! ! O.a.f.a.f.f.B.B.B.B.B.B.B.B.B.B.B.B.B.B.B.B.",
"Q Q Q 2 2 3 Q ~ q 6 9 O O e N 8 O o o 2 t 2 2 2 3 W W W ! W 1 3 W ' O.' O.L.L.! ! o.L.P.P.L.L.P.P.Y.P.P.Y.Y.Y.P.Y.Y.Y.Y.Y.Y.Y.Y.",
"_ 7 2 Q Q t t M O O 6 O : q r 8 o o 1 Q } Q o 2 3 W ` ` +.` 3 3 ] O.f.| a.^.^.f.o.a.^.!.^.^.^.^.!.!.!.!.!.!.!.!.!.!.!.!.!.!.!.!.",
"5 1 7 _ M 2 2 6 6 6 , : w r r t O 2 2 } _ 2 7 2 t o.O.o.+.! W ! ' ..f.O.f.~.(.(.P.P.(.(.(.~.~.~.*X$X$X$X&X&X&X$X$X$X$X$X$X$X$X$X",
"s c ) c 6 6 9 9 9 0 0 , w r r r O 6 } } 2 6 6 t t | | t 8 2 O q t ' f.O.V.~.*X5X5X!.5X5X5X(.~.5X5X4X4X4X5X4X4X4X4X4X4X4X4X4X4X4X",
"c 5 Z 6 c c - O - , b n N r r r [ [ q 9 M q , e O 8 8 8 t e Y { ......' f.pX*XrX5X%X5X9XwX5X(.wX9X9X8X8X9X9X9X8X9X8X8X8X8X8X8X8X",
"c 6 M 9 c 6 O O c 9 N R [ n e e 7.e ; q R G 0 ; n N U P P Y { y.y.K.~.~.f.rXyXyX8X4XrXaXuXwXwXwXrX9X9X9X9X9X9X9X9X9X9X9X9X9X9X8X",
"c M 9 9 9 O O O 9 9 N { [ 0 : w q w O w R n R w { { T U P T  .t.d.~.wXyX^.*XyXrXtX4XrXrXeXwXwXwXaXiXtXtXtXtXtX9XtXtX9X9XrXrXrX9X",
"q [ R q q e : : , w n U r > K > r P 8 r 7.{ N { y.7.{ n e U U { t.d.2XsX2XyXyXpXtX4XtXpXeXwXwXwXaXiXiXiXtXtX0X9XtXtX9XtXtX9X9X9X",
"[ 7.7.G e e w w r U K K L L L I P ' ' r 8 e [ y.[ N [ n O N d.R O : e 7.yXW.pXzXrX4XtXpXeXwXwXwXaXiXiXiXtXtXtXtX9X9XtXtX9X9X0XtX",
"M M ) G e q e : r K K I L L I I K r U w , , 0 [ [ b [ [ , Y t.V.0 0 N d.*X*XxXyXyX7XiXpXeXwXwXwXuXiXiXiXiXiXiXiXzXiXtXtXiXiX0X8X",
"G M M N q q e 8 Y U K I L I I L K r n n n , - G e.r.R b R N t.K.K.V.*XnX!.yXyXnXtX8XpXpXuXwXeXwXuXiXiXiXiXiXiXiX0XtXtXtX0X0XtXtX",
"M M M M N N n r r > J I I J J J > > r < , 0 : q b r.R H n n n t.V.W.*XW.W.yXpXpXiX8XpXpXuXwXeXeXuXiXpXpXiXiXiXtXzXiXtXtXtX0X0X0X",
"M G G N N n 0 w w > > K I J J > > w w w n , , [ N - u - #.4.r.Q.e.G s.G W.nXpXiXiX8XpXpXuXwXeXeXuXpXpXpXiXiXiXtXzXzXzXvXvXvXvXvX",
"~ ) ) ~ ) G G [ G n , : > r U Y r w , b b c 6.7XM = @ - b b R s.[ b 4.yX*XuXpXnXpX9XxXpXuXwXeXeXpXpXpXpXpXpXzXzXxXzX0X7X[.A.R.;X",
"} } } } ) ) N M G ) N 0 0 n R [ N n b b F N.NXGX4.. - @ @ - O q 6 c FXJXGXtX&X9XxXtXnXnXuXwXeXeXpXpXpXpXpXpXxXxX7XA.e.4.4.w.M.Y.",
"~ ~ N M M Z Z = $ - - - b - - - - $ * $ w.SXSXKXNXb   @ - - X o G 1XGXJXJXlXM G 4.s.8XAXuXuXnXuXxXiXxXtXBXnXpXrX*X2XyX<X*XV.6.s.",
"~ N M c 9 c c = = = c D c v = = s h a = h ].FX<X,X).r.- @ - 4.#XxX+XF.JXGXN.C s c Z G [ p.p.Y.iXvXvXtXnXW.t.{ d.Q.yXK.s.Q.sXy.N ",
"q q c c M M c 5 = # V m h 5 m h D h h a 4 -.6XC.D.,XlXF.M e.GXGXVX7XGXGX-XA g g q.:.m f Z u.( <.%XvXbX!.W.Q.Q./.K.2X3XK.2XsXK.: ",
"e q q 9 9 m f 5 & S *.9.S d d ,.q.D S V d 4 p.qXgX<XNXNXcXVXKXFXBXFXFX-X^ z z b._.A z A $.l.A ,.Z.B.B.V.Q.sXQ.2X3XK.J.Q.3XLX2XP ",
"M q q 9 c c s f *.C.k.,.S 4 A n.S.( S V m 5 V B.lXcXlXAXFXCXAXzXVXBX7X( k V n.dX0.g ;.$.;.1.;.h.#Xw.M.+X*X3XQ.K.K.K.K./././.J.T ",
"q 9 M M c f V 9.'.h.1.% % % I.{.1.-.-.d Z ( 5 M M.MXMXlXtX7XVXVXbX0X4.( Z v.6Xz.z 8.'.q.1.{._.A ,.A.8X%X+Xy.s.y.r r J.K.d.J.Q.T ",
"N b N c c S 8.S.b.V j % % 1.OXOX;.h S / m 9.c.5 6.R.MXcXcXMXCXMXB.-.5.S.5.dXZ.8.b.oXjX'.z.fXZ.# f c.qX#Xe.F.s.O ; O 7.2XQ.2XK...",
"b c M M 4.M.N.S.S y & 4 ;.b.`.kXh.x.8.'.Z.i.gX5.= w.|.VXFXVXVXM.8.& z.'.v.jXoXmXmXmXSXoX'.[.l o f f q.l.x.C.*.-.) 9 p.*X*X*XQ.J.",
"9 9 M M w.A.*.D.0.@.y * >.h.D.{.m.h.q.h u.h 5.A.h f :.lXSXFX|.s a >.0.x $.1.$.D.0.:X{.:XS.a . # # a =.q.$.k p x..XS 5 c [ [ R e ",
"N ) M - 5 N.( *.h #   + x q.g.x >.j *.S 4.6.M %XM.- $ D.cXNX4.s y >.&.D C.V k.S >.3.x l.C.q.  * . a 8.a & % 1.:X].S.x.&     X c ",
"#XM.f 5 5 V h # . + *   + B V >.*.4.b b e { R y.W.G 4.s.1XyXR X r.4.X N 9 9 ) 5 q.S x.k.k.V . . + # V # * & V 3.&.>.c.k.:.v :.8.",
"B.S Z 5 s # # . .   . .   s h B - , e 7.d.t. .d.Q.K.K.d.K.V.N R V.d.{ { q Y O n - = D @.8.  . . . * i . # D a + S D * j 8.g._.;.",
"m 5 h m m d h h & = * B v s s c N Y y.{  . .X.t.K.t.t.{ d.Y r U T ..d...J.J.{ [ N G 4.B j = f s d =.l.*.h v B h &.:.3.3.:.0.b.OX",
"F -.Z 9.u.&.9.;.D V >.5.q.C.c.N.s.t.t... . .X. . .{  .P { n n U P P X.....J.Q.Q.K.1XlX|.}.;XN.:.<.=.l.v.l.0.:.&.c.}.].dXoX'.0.A ",
"8.8.k.=.S g d i h 5.q.s :.x.S 5.B.4.{ {  . .U K U Y R [ : b [ r.P L L X.X.X...t.s.%XgXSXZXjXmXdXh.2.l.Z.D.].I.n.b.Z.v.,.0.C.:.9.",
"p.*.*.h d k ^ 8.9.8.S v -.D f h Z 6 9 9 e n R Y n R b ; e.F w.r.w P {  .....{ N e.lXmX].kX-XI.jXZXZ.z.v.Z.z.j.9.%./ =.=.^ h k.V ",
"CX#Xp.5.5.^ Z V h s a a h d V z a = = * @   @ @ $ @ X $ D.v . X ; ; 0 0 0 c - f p.N.C.x.u.q.2.8.k.x.l.x.l.l.l.9.8.:.F 5.x.C.j . ",
"bXVXVXzX;X[.A.c.6.) v v *.&.V V =   . # V h * * # * = = C.V * = - $ @ - .   = V ( d V V V ( C V v C C V A $.S S V e.N.8.|.*.  . ",
"bXbXCXMXVXSXSXCXcX0X<X<XcX>X8.:.*.# h h V D d * & = . . k.a   & = = h s & -.q.c.( s &.( #XDX#XZ Z j a % # * . . . = - D D *.# * ",
"bXxXbXMXCXcXcXNXVXMXVXCXSXcXk.k.c.h *.&.S =.5.*.h f 4.5.|.&.C d * # * & :.dXdX'.V w.c.5.qXVXqXZ D # . * # * * # # . @ . + a d h ",
"bXbXbXbXbXcXMXMXbXxXMXcXcXNXR.T.x.j d C &.S &.:.:.S q.}.|.|.D.-.% g 4 d z 0.'.-X=.#Xc.M.GXJX0X6 5 # . * * # * . . . $ $ . j ,.x.",
"nXnXnXnXMXbXbXxXbXxXbXnXbXVX;XN.A.V a S $.V S C C h # . x.D * * % i p p p 4 V 8.^ >XNXFXHXHXM.o 4.w.m # + . . . + #     # # i &.",
"nXnXBXbXbXnXbXBXbXnXnXbXbXVX0Xc.x.z a S V A &.C C a & s q.h * 4 % # p % g C C A C mXKXKXJX0X6 e.mXZXhX#XT.N.w.*.F Z *.5.*.&.:.*.",
"rXrXrX8X9X9XrX9XrXrXyX9XtXlX;Xw.C.$.a C A A V &.&.h + # a & & # p $.i.j.b.b.Z.;.V SXHXJXNX-.M.ZXZXhXmXNXmXNXmX>X>XdXlX;X-X].}.C.",
"aXrX9XiXiXiXiXiXpXrXtX9XtXzX$Xw.8.S # S S A ;.&.S &.*.*.V &.D =.9.h.<.<.,.,.0.$.%.-XDXDXl.8.mXSXqXmXmXfXmXdX>X#X;X=X>X}.].S.S.k.",
"nXbXBXBXBXBXBXbXbXxXnXnXBXbX0Xw.^ h % g ^ %.9.9.k.8.x.}.k.D.].C.l.u.,.g A =.%.g A ,.:XfX,.C.mXmX6XmXmXjXmX6X>X=X-X>XdX}.#X:.= &.",
"iXiXtX0X9X0X0X0XtXtXtX9X0X7X$X,.x.V d ;.;.l.C.S.:.d * * y d # k / 5.Z.v.2.2.n.;.,.<.n.Z.`.Z.>XkXfXmXmXvXfX=X6X=X-X-XhX>X=X@.  @ ",
"%X@XR.Y.Y.E.@X%X8X9X7X$X@XR.N.-.v.1.,.0.;.0.,.C & * a V j * d h 4 / 0.Z.I.Z.].l.n.kXmXkX_._.jX6XjXjXmXjX=X:XjX=X-X6XhXgX,Xb X X ",
"4X@XE.U.Y.@X7X7XzXxXiX8X$XXXw.,.l.k.0.;.l.%.V d a * & & S 9.h V 8.,.,.^ A / / ;.i.kXJXHX{.b.fXdXmXmXmX6X.XdXfX-X6XdXhXlX|.b u , ",
"@XR.U.U.R.%X7X0XzXtX8X$X#X[.-.*.8.8.=.1.z.g & d a a @.D S V q.x.6X:X>X:X{._.n.z.j.{.KXHXSX=.{.jXZXZXgX[.>XhX6X-X=X=XmXlXF.#.#.E ",
"[.T.T.XX;XqXgXvXbXzXlX<X;X#Xq.;.A ;.A ;.;.$.$.*.C.F 4.v h & D &.l.).m.h.j.;.%.%.<.Z.SXDX6X/ I.mXZXfX=X].qXqX>X=X=XdXlXlXG.u < u ",
"R.T.R.$X0XgXzXbXbXzXxX<X#X'.u.$.8.0.$.2.].I.q.:.q.:.h h D 8.*.;.:.@.;.A z p i p g ,.:XfXfXvX-XjXZX.XT..X6X:XdX.X=X6XgXlXG.r.G.#.",
"A.Y.E.@X$X8XlXzXzX$X<X#XT.A.C ^ &.&.^ ,.l.]._.q.C S Z C C d a & i i z =.g d g C ,.h.}.jXmXfX{.ZXdX{.I.:X6X6X-XoX-X>XhXhXF.e.H.e.",
"B.A.R.@X$X7X8X8X8X$X%X[.T.C.&.k.( *.Z k h ( &.d h $.8.:.:.D v S a g C =.&.h.x.k.x.u.{.z.h.Z.v.hX-XI.D.:X:X:XoXoX-X-XhXhX'.&.X   ",
"B.A.Y.E.!.$X&X&X+X+XR.A.F.w.V q.Z h h h k S =.m h ^ *.S h -.F C h k &.8.=.S z a i 4 C.u.m._.b.:X{.b.C.:XoXOX X X-X.XdXlX=X8.$ F ",
"B.A.R.!.%X&X$X@XR.R.T.B.D.-.h &.( m V S &.&.;.C C &.*.m h * * d S C 1.h.1.g i d i d h.:.h.2.9.I.'.x.Z.:XoXoX{. X=X.X>XhX>XF.4.|.",
"T.R.+X@X$X7X7X$X%X+XT.B.N.8.*.( m m S S S ^ ;.S k h &.D # # + a :.( ,.8.-.h d i % d 0.;.9.;.0.z._.x.D.>X XoX{. XoX-X>XdX<X).@.4.",
"A.T.@X7X0X0X7X@X@XE.A.M.c.q.8.S Z ( -.-.*.( =.^ h =.}.:.a . . @.*.^ =.=.$.h i % # & q.1.,.b.b.u.I.l.I.:X}. X}. X=X-X>XdX<XF.F 4.",
"Y.R.@X$X7X8X7X$XR.Y.A.c.p.q.:.m Z ( -.5.9.5.:.=.h V x.C.S * + F :.*.&.^ C a 4 i i d h.0.;._.b.9.D.h._.-X{.{.}.}.oX=X>XdXdXD.F c.",
"@X%X&X7X8X7X<X$X#X#XR.N.c.k.8.S ( 9.5.5.,.8.:.&.z A :.x.>.* y S &.*.$.A V h a * & V h.z.1.Z.h.h.Z.h.].oX{.].}.{.}.-X>X>XgXC.= s ",
"p.p.B.E.R.A.M.p.w.6.4.-.:.5.S *.( 5.5.5.5.:.=.^ C C -.x.:.* # S F *.S &.V d g d 4 ^ z.l.1.n.0.v.b.0. X.X X`. X'.}.-X=X>X6Xx.h k.",
"@X%X%X@X@X%X%X@X[.Y.c.5.5.5.*.-.( 5.5.5.9.5.*.k V S 9.D.:.# + B S &.*.S V d h d & :.q.q.9.z.u.m.m.0. X X X]. X_.}.oX-X>X:Xx.S k.",
"s.A.R.E.A.M.e.6.-.) *.Z S D S *.( 4.,.,.5.5.*.h h D 8.c.&.. + j C D -.D V f h f d ,.:.0.k.g.3.z.j.i. X X X{.{.I.{.}.:X:XoXx.1.q.",
"W.%X&X7X%XF.M.p.w.( S m S V ^ ;.&.-.-.-.*.-.&.h h C 8.:.S * + a h V :.Z V h k h V ;.&.:.0.0.@.0.h.h. X X X{.{._.`.{.-XoX Xx.0.2.",
"zXyXrXtXcXbXbXcX0X#XT.p.-.h C $.S S ( -.*.&.S m f C k.*.*.5 . & j h :.S Z V V k &.,.;.S ;.q.0.0.i.j. X X X]. X{.I.{.=X}.oXz.2.1.",
"AXAXAXnXzX0X<X#X[.|.|.x.8.z ^ &.Z V V S &.( S V a m q.:.&.=   & a a *.&.S Z C C 8.,.^ A $.8.D.m.h.z.{. X{.].}.}.I.].oX]..Xk.;.9.",
"bXCXMXtX&X@XE.B.M.p.u.u.8.C ^ $.Z S V S ( S S Z j d *.8.v # . = & * C *.S S S ^ 9.$.V V V A h.m.l.b.{.{.}.'.].}.I.I.}.].{.q.%.l.",
"AXCXCXAXFXFXVXMXNXgXgXdXD.C C =.V ) &.&.*.S Z Z V a V q.s . + & * + h *.S S ^ &.9.S &.V h z >.q.b.D.{. X}.'.'.]._.D.}.]._.9.$.v."
};
