/* XPM */
static char *_4f470aa253345b3f592a18803285191aSgEgEU2w0xkuqYg[] = {
/* columns rows colors chars-per-pixel */
"64 64 256 2 ",
"   c #020102",
".  c #0C0202",
"X  c #04030A",
"o  c #0B030B",
"O  c #0C0A0C",
"+  c #090A07",
"@  c #130402",
"#  c #150A03",
"$  c #1B0C02",
"%  c #14050B",
"&  c #150B0C",
"*  c #1B0C0C",
"=  c #1A0404",
"-  c #1C1204",
";  c #1D130B",
":  c #16130B",
">  c #030916",
",  c #0B0A15",
"<  c #030B1B",
"1  c #0C0D1A",
"2  c #050613",
"3  c #140C12",
"4  c #1B0D13",
"5  c #160B19",
"6  c #09121A",
"7  c #141314",
"8  c #1C1213",
"9  c #1C131A",
"0  c #181819",
"q  c #0E120B",
"w  c #220D02",
"e  c #220C0C",
"r  c #270706",
"t  c #241303",
"y  c #291302",
"u  c #23130C",
"i  c #29150C",
"p  c #231A0C",
"a  c #2C1A07",
"s  c #32190B",
"d  c #220C13",
"f  c #250A16",
"g  c #231314",
"h  c #2A1514",
"j  c #241A14",
"k  c #2B1B14",
"l  c #23151B",
"z  c #2B151B",
"x  c #241B1B",
"c  c #2B1B1C",
"v  c #321C1C",
"b  c #371A17",
"n  c #350216",
"m  c #1D200D",
"M  c #38260C",
"N  c #2C221C",
"B  c #272518",
"V  c #372619",
"C  c #383417",
"Z  c #2A270F",
"A  c #070D20",
"S  c #1A1624",
"D  c #160D24",
"F  c #241C23",
"G  c #2B1D22",
"H  c #271A28",
"J  c #321D23",
"K  c #391B26",
"L  c #261D33",
"P  c #340B2D",
"I  c #1C2523",
"U  c #1C302C",
"Y  c #2C2324",
"T  c #2C232B",
"R  c #272627",
"E  c #332424",
"W  c #3B2424",
"Q  c #352A24",
"!  c #3D2C24",
"~  c #33242B",
"^  c #352B2B",
"/  c #3B2C2B",
"(  c #3B242B",
")  c #3C332C",
"_  c #383527",
"`  c #2A2835",
"'  c #332A33",
"]  c #3B2C32",
"[  c #382837",
"{  c #3C3332",
"}  c #393738",
"|  c #2D3630",
" . c #491614",
".. c #46281A",
"X. c #48351B",
"o. c #56391B",
"O. c #4B2911",
"+. c #703219",
"@. c #461A26",
"#. c #4E0034",
"$. c #442B24",
"%. c #422D2C",
"&. c #482728",
"*. c #562829",
"=. c #463629",
"-. c #56392A",
";. c #452B35",
":. c #572B34",
">. c #433333",
",. c #4B3B3A",
"<. c #463838",
"1. c #563937",
"2. c #673836",
"3. c #6C2F34",
"4. c #740B19",
"5. c #384734",
"6. c #38663D",
"7. c #1C4529",
"8. c #4D4A19",
"9. c #62541C",
"0. c #48462A",
"q. c #584528",
"w. c #494538",
"e. c #53433C",
"r. c #594937",
"t. c #59563A",
"y. c #51572C",
"u. c #654B3A",
"i. c #6A5539",
"p. c #785636",
"a. c #704A2B",
"s. c #586431",
"d. c #676936",
"f. c #6C7131",
"g. c #72711F",
"h. c #372B44",
"j. c #3A3846",
"k. c #343755",
"l. c #2E3D68",
"z. c #232042",
"x. c #541247",
"c. c #473A45",
"v. c #573A46",
"b. c #4A3750",
"n. c #793C47",
"m. c #653D48",
"M. c #740A58",
"N. c #3A4B51",
"B. c #394A71",
"V. c #3A6A42",
"C. c #4A4546",
"Z. c #574748",
"A. c #5C5448",
"S. c #584856",
"D. c #595356",
"F. c #4A4F52",
"G. c #674748",
"H. c #764747",
"J. c #685648",
"K. c #765949",
"L. c #685757",
"P. c #795958",
"I. c #6C4955",
"U. c #556B4D",
"Y. c #796449",
"T. c #696658",
"R. c #776458",
"E. c #707152",
"W. c #55546C",
"Q. c #675963",
"!. c #72586A",
"~. c #6C6366",
"^. c #796868",
"/. c #75736E",
"(. c #547068",
"). c #8E2937",
"_. c #961D24",
"`. c #85583A",
"'. c #8B5630",
"]. c #8F6D3B",
"[. c #A86C3E",
"{. c #A2582B",
"}. c #8F384E",
"|. c #B33C4B",
" X c #8C056F",
".X c #9A1B7A",
"XX c #C3374B",
"oX c #8D5253",
"OX c #A34755",
"+X c #886A57",
"@X c #89745B",
"#X c #927151",
"$X c #AC724B",
"%X c #925A65",
"&X c #AF596D",
"*X c #846768",
"=X c #8A7A6A",
"-X c #937A6A",
";X c #877778",
":X c #977978",
">X c #8E686D",
",X c #B06F76",
"<X c #CA4858",
"1X c #D15970",
"2X c #E56064",
"3X c #6A8A6A",
"4X c #8F9230",
"5X c #A5A629",
"6X c #85891B",
"7X c #90894D",
"8X c #AB8D57",
"9X c #B5B74F",
"0X c #868366",
"qX c #988874",
"wX c #919074",
"eX c #AA8F72",
"rX c #B6AC69",
"tX c #9FA647",
"yX c #CB8B53",
"uX c #C8AD72",
"iX c #DB9C6B",
"pX c #CDD154",
"aX c #D0D075",
"sX c #BEC345",
"dX c #385A90",
"fX c #74778B",
"gX c #58658A",
"hX c #AB338C",
"jX c #A30F87",
"kX c #CF26B2",
"lX c #DE20B9",
"zX c #977B87",
"xX c #DE7293",
"cX c #6F8DBB",
"vX c #628FCC",
"bX c #948685",
"nX c #998F90",
"mX c #A8938C",
"MX c #B2A992",
"NX c #AF9CA4",
"BX c #B9A8AD",
"VX c #C6AD96",
"CX c #EE95AA",
"ZX c #C9B4B0",
"AX c #D4949E",
"SX c #F9D9AF",
"DX c #FFF2B7",
"FX c #E3D1A0",
"GX c #88A8D5",
"HX c #D1B8C7",
"JX c #A7CCF5",
"KX c #ECD5D1",
"LX c #FDF2D4",
"PX c #FEF2F9",
"IX c #DCD7DF",
"UX c #B3CAAE",
/* pixels */
"c.F & Y ^ x G c G 4 9 5 2 < < < < < < < < A A < < < > < > > > , Y l ~ % k h 4 9 V k F 3 % * 3 8 * g =.k u # * g * & h - @ # @ $ ",
"Q.F 8 } c.l c C.E 4 9 , 1 < < < < < < < < A A A < < < < > > > 1 <.E ^ * h u & ^ Q h 8 3 & * 4 l 8 k ; u u ; u c @ u u p t @ - =.",
"/.F 4 Y ] Y l ( c G % 9 , 2 < > < < < < < < A A < < < < > > < 1 4 * ^ & p c 8 9 >.c l 3 8 & 3 9 g u j % u $ ! $ = u $ k p @ C @X",
"C.9 3 x Y Y c J c c G 3 O 1 2 6 > < < < < < < < < < < < > > < 1 8 E ^ @ k ! 3 l E z x & 8 * 9 9 * l % 4 u $ r.t w i t t w p r.qX",
"l 3 & Y x c v c g J c 4 3 , , X 2 > > 2 > < 1 < < < < < > > > , & l E Q k %.9 9 l z x & * & 8 4 & 8 G * c u V a t M y = V r.u.Y.",
"% 3 & <.c c E v h l c c 3 ' X   X X X X 2 > 1 1 , < < < < < , 1 l @ / e.V u 9 9 G E c g @ . % % % ] L.% u V $.$ y y $ M R.=X-.C ",
"& % 8 Q./ l E Z.v c v E ~ T 0           X > 1 1 1 1 > , , , , , & Y >.u i g ] H G G j N $ . . 9 3 S.<.u u R.Y.w y w M K.qXK.M y ",
"% & & S.G c z E c c h / c Y 7             , 1 1 1 1 , , , , , , <.c ,.^.=.c ;.~ G l 8 Q ; .   9 9 G u $ u.mXr.$ w s J.eXY.s w w ",
"l % ~ / c E v c v h v g g E Y &             X , 3 1 5 , , 5 , 5 ~ x e.k h ,.( J 4 z l <.N   . 4 9 * * $.qXJ.a y y u.eX@XM y y = ",
"l % ~ ] l c E h g c E h E 8 ; x               O 7 o X o 5 H 5 o ^ N ; Q N k W Z.z / / k 8   8 4 4 g @ r.R.a a w -.-XY.V a a w u ",
"g g g g c c g c g E z d ^ ^ 8                 X 7 o   7 T T F o ^ ) $ E / E k e / / ! h x . * * g u * V V t t i.i.+XV y i = k t ",
"g 4 l g l l & g z E G E @ 8 9 O               X X     9 ' 3 F . x * * g & / $.V p k u * 4 8 & # j Q * p u i r.qXi.M a i w k N - ",
"g . @ * ] <.* * 4 g G { 4 9 9                     +   G T l Y & / { % l T Z.V V V ! k g 4 F @ @ w.<.* # i e.qX@XM y s $ v e.V - ",
"g % . @ Z.D.x c g 4 c 4 4 3 F O                       8 8 / x & & 8 4 4 9 / J.X.M V h d 9 9 & ; ) j # # <.-XqXy @ s t k Z.e.V # ",
"* & @ % 8 x l 8 x 4 G 4 F 3 9 O                       x 8 / c & * c l <.o C.r.X.Z =.! d 5 F 8 # & 4 # . R.=Xi @ = $ V =.r.V # - ",
"8 ^ 8 % l l x l 8 G <.4 3 7 9                         Y Y 8 c @ ; * ] ^ F bXY.q.M ! k g 9 9 & * 8 g + T.=Xu $ @ @ k w.=.p # - - ",
"O & 4 % z l & 9 8 G <.x 8 & l             X       o X S 9 T ;.= ( / N Y } wXf.9.C B j g 3 9 Y k h . 5.UX_ @ $ @ . N ) - # ; - - ",
"& + . * d J 3 o x x E * 4 4 9     X o o X X       X X S S ' Z.= f ( V T.' B 7XrXC V N N 8 & E E u B 3X6.  # # ; + & : # j p y M ",
"; # 7 0 >.x x c l l v g d * 4 o X X X X X X         S S S } T g J v ! =.Y B ].8Xq.=.,.j 8 x E / $ 0.3XV.B # 7 + + & ; - h i O.p.",
"h j : 7 ;X<.z z h z v v z f d 4 o O o X o o o     o T S 6 6 S Y z Z.i ! c N ].uXq.=.V k k & E ! # 5.6.6.5.O + O o . ; ; p s q.+X",
"&.v 0 B / E &.b @.W J J z z 9 4 4 5 O O o   X X o X 9 9 7 R } 9 <.h Z A.x =.#X8Xq.$.1.i h N k v - C 7.U./.  . . & # ; - @ w i.eX",
"1.E 7 I Y ~ ( K K K K K K K G l l 9 O 7 O   X X o 7 T 3 9 0 C.S } ^ p B N C ].rXq...$.V k e h V j _ U.3X5.  # $ $ p p $ # t M M ",
"L.^ U 7.` R F l ;.@.@.@.@.@.&.J 9 9 4 c x + X X , 9 } D.F D.5 H F ^ p =.Q C 9.uXi.X.-.V k %.W ,./ N U.wX5.@ w = s r.=.# # p p $ ",
"G R N.(./.~.S.S.*Xm.:.@.@.@.K l 9 l c >.{ 0 , o F 8 D./.x G H ~.F # B e.B Z 8.rXY.$.$.$.W %.W ;.K v E.E.t.Z w O.K.qXJ.$ - ; - t ",
"x I (.| v.>Xv.L.P.>X*XP.P.G.e./ Y c %.1.<.,.F 3 ~ 8 F.| R ;Xc.[ f J h k B ; 8.MXE.=.$...%.%.&.:.&.&.J.0XwXY.X.+XeX-Xq.t p ; $ w ",
"x 0 (.T OX}.@. .3.oX3.3.oXoXoX+X*XP.Z.<.E x 3 o l x /.5.0 D.NXzXZ.g e >.^ : Z y.t.=.1.*.*.1.:.:.3.*.G.q.qXMX+XqX@XX.y y w @ w y ",
". B | W 1X1X4.).1XxX)._.<X|.4.).OXoX%.8 7 o , , F 0 5.5.R C.NXHXbX% z ,.Y B C 0.) %.G.*.*.}.}.}.}.&X>Xs bXmX@Xu.M a y y t w ..u.",
"u ; B b }.).4.3.1XxX<X<X2X2X_.XX1XOX1.0 0 2 2 2 , } U F.3X{ BXnX;X* g / 9 ^ _ p N 1.%XoXOX&X,XAXCXAXAX .-XZX-.M M t t t # @ b -.",
"h ; R Y I.*.b *.OX1X|.<X2X2X_.XX<X}.,.6 6 6 6 6 } I U 5.^ C.ZXnX~.B . C.} x V u W &.%XAXCXCXCXCXxX&XoXO.r.wXM M a t a M p . @ = ",
"%.j | T./.^.A.1.}.OX).).<X|._._.|.3.v.0 1 A < 6 S 7 I 0 Y ~.IXNXD.^ & ] Y ; V k J &.,XCXCXxX&XOXoX3.-.K.wXMXo.M M u.Y.q.# @ i s ",
".   7 R C.F.C.Z.*XoX*XP.%XoXH.H.G.Z.c.S D A < 1 T c.j.6 T J mXIXnXj d ( E g h W ~ K 2.%XoXn.n.:.:.@.-.eXMXFXp.q.#X#XeXY.- @ k u ",
"% % 3 7 | | R Y c ( ^ ^ / ,./ <.,.C.' D S D A 5 ' c.D.6 b.Q.nXZXHXg * ;.( * E ;.;.v.:.2.2.:.:.&.v.W ..o.q.#X#X8XeXeX+X-.k c u u ",
"x.#.5 0 } _ R R T Q.>.;.%.K K f e 4 D j.W.5 5 3 ^ ^ j.U j.L bXKXHXY 4 ~ G * h W *.*.*.*.:.:.*.@.K &. .+.{.$X$XrX7Xa.O.y u e g k ",
"kXhXP 9 ) T.w.0 ^ c.K v.v.J ;.K v.v.[ j.j.T 5 5 x Y R S ` bXBXKXZXN & Y F * h v s r  . .@.&.:.&.( &. ._.$XSXSX].o.O.M t u e * & ",
"kX.XP G ^.KXT.8 Q / %.%.;.[ H c.S.c.L S F T D D F R 0 R R ' ;XHXBX^ 9 T R 8 l h v &.&.:.H.:.&.J G h  .+.[.SXSX`.X.C Z - $ @ & & ",
"lXjX#.f :XPXD.; V V / J [ [ b.[ b.~ H 9 T H L S T F ~.R } Q.Z.R.^.c 4 x F 8 x E b 2.3.n.n.H.:.z G W ..O.a.].#Xp.X.M p - - @ # q ",
"lXjXn z ^.nX{ 0 V Q ~ 9 S.[ j.T [ ~ H [ ' L z.h.` } { } nX<.w._ >.Y l l x & * K  .3.}.OX}.n.v.<.;.,.Q 0.=X@Xi.-.V u - $ - # q q ",
"lX.Xn k { Y R x N E G F c.` 7 ' T ' ' ~ F H h.W.L R Q >._ r.0.Z B N g u k * u W *.3.).}.}.3.:.Z.$.%.Q w.wXwXJ.$.V v k - - # : q ",
"lX Xr B ^ R I 7 N k F c.R R { { ~ ' c.F F H k.W.` H ^ _ =.E.E.0.0._ - ; k u u k s b *. .*.*.&.e b ! ) { J.R.G.1.b v k - - - ; $ ",
"kX Xr m B 0 7 0 Q k ] T } ^ ) C.x F c.F [ h.b.W.h.F Y w.0XE.E.t.T.w.p N =.=.-.-.1.V y r s b $.1.-...=.A.bXBX:XG.&.b ; # - $ u h ",
"lX Xr m B q : j $.! J ] } { / E { E F 0 [ j.b.fXL ~ G Z.wXwX0X0X/.w.u h *.*.*.1.1.b b G.u.b V *Xu.K.J.R.ZXPXZXZ.;.v k u $ u p i ",
"kXM.= Z B B B B 0.V L.c.} <.Q >.A.,.F F T H h.S.S.c.] <.0.0.y.0.w._ p i &.*.&.&.&.h e &.h b $.P.Y.KX:XR.KXPXPX!.%.b k u ; * $ = ",
"kXM.r Z C Z C _ X.=.<.w.{ _ w.) Q Q Y T R H h.b.S.Z.c.E C C t.w.^ Y j ; 8 # * z d e g @ c b &.$.J.LX:XP.ZXKXHXL.%.N j : 8 ; s ..",
"kX#.r C t.d.t.d.t.J.t.E.A.t.t.t.w.{ { l F ' L [ ~ G G Q C 0._ C.<.T l 9 x 8 4 c 4 4 * * c h =.-.q.qXP.H.I.*XzXS.Q j ; . 7 $ =.@X",
"hX#.r 8.f.f.f.f.f.f.d.d.y.y.f.d.w.C.D.Q E ^ ~ c.c.J ;.E ^.T.} ` ` H F d z z g l 9 3 8 l g Q R.,.-.-X>XG.;.v.S.>.c u ; # u - q.eX",
"hX#.r 8.rX6X9X4XtXtX4X4X7Xf.aX7X_ } ) N / Q G T G ~ ;.=.VXMXF.W.j.T H d f d 4 9 7 7 9 * E ) R.V &.*X^.v.!.Z.,.;.k * * $ i y -.-X",
"hX#.y 9.FX5XpX5XpXsXpX9XaX9XaX7X} j.) N N >.] ' ' ~ &.G.VXmXfXIXF.H 9 % z g 7 7 0 B 4 J v b =.1.2.:.K v.v.;.1.$.h * # $ i s O.i.",
".Xn y 9.aX5XpX9X5X4X6X6X4Xg.g.s.5.} ) N k L.} H F ~ 1.:X-X;XF.W.j.` ] g d * 8 8 x Y / W $.$.-.-.2.n.:X;.v.>XP.G.v h h i V O.O.-.",
"M.n y 8.f.s.f.f.s.d.s.s.y.s.s.t.| } { c x S.h.h.b.;.:.:X-XbX' ` ` ' ~ % g u Q Q W / <.Z.e.=.K.2.+.oXAX:.I.G.1.=.$.W k V X.X.o.a.",
"x.f y 8.y.y.s.U.y.y.0.E.U.5.5.| } D.Z.c.} C.b.b.h.c.1.H.J.e.E ' c.R 9 @ * u W ! W %.Z.^.L.r.K.a.oX,XH.2.$.R.K.V =.$.V V X.q.i.+X",
";.= y X.C C C C =.=.q.Y.A.<.) ) { w.Z.C.] c.c.S.S.;.I.:XR.J.{ C.} T ' ^ ; $ e k v v Z.<.J.u.2.a.+.a.o.K.J.R.J.t.r... .O.a.`.#XeX",
"f % i M a Z V =.>.! X.q.J.L.Z.A.C.L.Z.L.D.S.S.S.b.c.m.zXP.J.C.S.Q.c.^ E j N h k h >XbXr.MXVXa.`.'.a.p.X.q.0.A.^.MX+Xa.'.[.$XVXSX",
". . j Z a p { D.,.<.J.R.^.c.C.c.Z.~.;.c.c.Q.S.S.S.Q.!.>X;X~.S.D.D.} Y E E ) / ,.Z.:XR.=XKXLX#X$XiXyX$Xa.o.i.=XmXFXeX].[.yXiXSXLX",
"    : ) Z.w.j.j.[ <.J.mXZ.Z.C.~.Q.^.v.;.( Q.!.nXQ.Q.G.mXNXJ.D.c.D.<.^ / { Q / Z.I.*XJ.J.-XeX`.$XiX$X$X`.p.@XmXZXKXZXiXiXiXFXDXLX",
"    7 D./.W.B.k.k.` T./.T.A.A.~.^.^.m.P.G.*XBXKX*XG.K.MXmXJ.r.r.<.>.%.Q E k L.;XI.v.L.R.R.+X`.$X,XoXoXa.p.@X:XmXMXVX8XyXyXiXDXLX",
"7 0 } fXgXB.B.B.B.N.} e.Z.,.J.MXZX>XP.G.*.G.>XmXP.2.u.J.K.u.r.$.%.v v v ) { ~.L.<.Z.Z.L.R.K.-.oX%X3.a.p.O.K.;XbXmXmX$X$XyXiXFXDX",
"C.} F.fXdXdXcXGXcXgXZ.Y.-XqXVXLXLXZXeX#XK.K.+X+XP.u.G.G.Z.;.J v h r e v / ,.Z.] l ] c.Y L.^...K.>X..-.r.$ Q Z.D.L.J.p.'.[.$XuXFX",
"8 B D.fXdXvXJXPXJXfXC.u.+XY.@XSXSXeXY.i.u.u.u.u.1.v %.L.S.[ [ ( J %.V h E <.<.9 % ~ ~.F /.;X1...G.-.s $ k / T S.Z.A.u.-.a.`.rXuX",
"V j C.fXdXvXJXJXGXdXH $.-.-.K.-XqXR.e.Q $.W W ! <.] c./.D.c.F.G J 1.1.%.) { F 9 9 5 S S c.^ W &...b b s W Z.c.9 ' C.e.e.r.i.8X8X",
"X.u.^.fXl.B.dXW.l.l.b.Z.=.1.J.R.L.e.x E <.>.<.<.Z.Z.` ` h.j.F.' e ;.Z./ Y } 9 9 H c.c.S 5 T ~ d b *.*...@.d 4 % F C.C.Z.A.J.0X#X",
"o.K.e.<.D z.k.k.W.gXQ.;.G.:X!.ZXL.e./ <.Z.L.L.,.>.~ ` ` R ' C.E d ( ,.{ 7 0 q F [ b.b.R 1 S F d r ..H.H.*.e 4 3 9 C.C.w.e.J.@X`.",
"p.Y.k T c.[ j.S.Q.b.c.c.I.:X!.^.*XR.L.Z.L.*XL.e.%.J ' ` S H >.E g E ^ Z.R 0 R } [ L H ` ` 0 F * r *.p.2.&.z l o * <.w.w.e.t.Y.p.",
"0._ F./.Q.>.[ S.I.I.%.>.e.e.Z.L.L.e./ >.L.^.;XL.v.H L ` ` j.c.c 4 F F <.| F.F.Q.Q.H j.` C.} ' l u ..2.2.@.e 3 7 8 ) _ 0.0.y.i.Y.",
"m B N.W.Z.J ] Q.m.:.Z.^.R.e.,./ %.W / ~ ( !.KX^.;.[ S ` h.[ ~ G H 9 F R 0 C.F.nX/.' S j.` j.~ 4 e b *.*.b g 7 O 8 =.=.0.0.y.q.i."
};
