/* XPM */
static char *_c3eda2e753e45c1acee23bc1d9c49ad7fVKWZ79Hk9Zq9yB[] = {
/* columns rows colors chars-per-pixel */
"64 64 244 2 ",
"   c #1A0C06",
".  c #160E15",
"X  c #18151A",
"o  c #120702",
"O  c #24130D",
"+  c #2D190D",
"@  c #321B0C",
"#  c #37180B",
"$  c #241516",
"%  c #2A1B1C",
"&  c #271A17",
"*  c #341C13",
"=  c #3A1D14",
"-  c #351C19",
";  c #36220F",
":  c #2D201B",
">  c #3A2314",
",  c #3C241B",
"<  c #3E2A1B",
"1  c #34221B",
"2  c #1E1A20",
"3  c #2A1E23",
"4  c #2D2223",
"5  c #2C252A",
"6  c #262328",
"7  c #332524",
"8  c #3A2624",
"9  c #3C2A25",
"0  c #342C2B",
"q  c #3C2B2B",
"w  c #372727",
"e  c #3C302B",
"r  c #2C2A31",
"t  c #3C2E32",
"y  c #332E35",
"u  c #3C3234",
"i  c #3C3539",
"p  c #3A3639",
"a  c #471D10",
"s  c #432B1E",
"d  c #442718",
"f  c #50321B",
"g  c #432C23",
"h  c #4B2D23",
"j  c #432D2B",
"k  c #482829",
"l  c #512F28",
"z  c #44322C",
"x  c #4B332B",
"c  c #4B392D",
"v  c #483426",
"b  c #52352B",
"n  c #533A2D",
"m  c #5A3B2C",
"M  c #563825",
"N  c #422E33",
"B  c #452A34",
"V  c #532C35",
"C  c #443434",
"Z  c #4A3634",
"A  c #4D3A34",
"S  c #44363A",
"D  c #4B363A",
"F  c #443A3C",
"G  c #4C3B3B",
"H  c #453A33",
"J  c #533632",
"K  c #533B33",
"L  c #5C3C33",
"P  c #533D3C",
"I  c #5C3C3A",
"U  c #583538",
"Y  c #623D36",
"T  c #5B422C",
"R  c #4C4338",
"E  c #554235",
"W  c #5B4235",
"Q  c #54423D",
"!  c #5B433C",
"~  c #5C4B3D",
"^  c #544A37",
"/  c #514A34",
"(  c #614334",
")  c #63443B",
"_  c #644B3C",
"`  c #684A38",
"'  c #68543B",
"]  c #725439",
"[  c #64472B",
"{  c #3E3B42",
"}  c #453C42",
"|  c #4C3D43",
" . c #4D3D49",
".. c #533D42",
"X. c #563A42",
"o. c #683D53",
"O. c #733E68",
"+. c #4C4244",
"@. c #4D434A",
"#. c #484449",
"$. c #544343",
"%. c #5A4544",
"&. c #554946",
"*. c #5D4944",
"=. c #54454B",
"-. c #5B464A",
";. c #554A4C",
":. c #5C4B4B",
">. c #5D514C",
",. c #5B5546",
"<. c #4D4753",
"1. c #534652",
"2. c #554B54",
"3. c #5B4D53",
"4. c #544C5B",
"5. c #5A4D5A",
"6. c #584752",
"7. c #555155",
"8. c #5D5255",
"9. c #5C535B",
"0. c #58565B",
"q. c #634542",
"w. c #634A44",
"e. c #6A4C43",
"r. c #624D4C",
"t. c #6A4D4B",
"y. c #61474B",
"u. c #645244",
"i. c #64524C",
"p. c #6A534C",
"a. c #695849",
"s. c #745948",
"d. c #634E52",
"f. c #694A57",
"g. c #645354",
"h. c #6A5554",
"j. c #645953",
"k. c #6B5A55",
"l. c #64555B",
"z. c #6A555A",
"x. c #655A5B",
"c. c #6C5B5B",
"v. c #715A55",
"b. c #715D5C",
"n. c #755856",
"m. c #734E4B",
"M. c #67624C",
"N. c #78614C",
"B. c #6D625C",
"V. c #6C6354",
"C. c #74635D",
"Z. c #7B635B",
"A. c #786759",
"S. c #534D65",
"D. c #584E67",
"F. c #555264",
"G. c #5C5464",
"H. c #54526C",
"J. c #5B556C",
"K. c #5D596B",
"L. c #5D5C62",
"P. c #5C5771",
"I. c #764769",
"U. c #625564",
"Y. c #645A63",
"T. c #6C5C62",
"R. c #635C6B",
"E. c #6A5E69",
"W. c #64556B",
"Q. c #745E63",
"!. c #645D72",
"~. c #685A72",
"^. c #7D4B71",
"/. c #6D6264",
"(. c #6B636A",
"). c #676467",
"_. c #736463",
"`. c #7A6563",
"'. c #766964",
"]. c #7B6C64",
"[. c #73656B",
"{. c #756B6B",
"}. c #7B6C6A",
"|. c #7B6769",
" X c #7D716B",
".X c #7C7466",
"XX c #6E6473",
"oX c #756B72",
"OX c #7C6F76",
"+X c #7A7578",
"@X c #84674B",
"#X c #8C735C",
"$X c #865478",
"%X c #826E6A",
"&X c #836D64",
"*X c #83736C",
"=X c #86766A",
"-X c #92796A",
";X c #827472",
":X c #8A7673",
">X c #857973",
",X c #8A7B74",
"<X c #8B7B7B",
"1X c #84787B",
"2X c #917E79",
"3X c #937E77",
"4X c #936D6C",
"5X c #80584E",
"6X c #8D8179",
"7X c #94847C",
"8X c #97867B",
"9X c #A68D77",
"0X c #7E7B84",
"qX c #8D7E85",
"wX c #8C8386",
"eX c #9A8B84",
"rX c #978886",
"tX c #9B918B",
"yX c #9C8D94",
"uX c #968F96",
"iX c #A48E8B",
"pX c #A08D86",
"aX c #A4938C",
"sX c #A7938A",
"dX c #AC9B94",
"fX c #A79795",
"gX c #B19C97",
"hX c #B0988A",
"jX c #B6A39B",
"kX c #B3A395",
"lX c #A499A1",
"zX c #B09EAA",
"xX c #B9A8A5",
"cX c #B3ADB0",
"vX c #C2ADA7",
"bX c #C2B3AC",
"nX c #C8B5A9",
"mX c #C6BAB7",
"MX c #D5C3B9",
"NX c #CCC1BD",
"BX c #D5CAC6",
"VX c #E4D7D0",
"CX c #F8EFE9",
"ZX c #EDE2DC",
/* pixels */
"x q.v.! j P ..3.E.Y.!.R.K.J.!.4.| g.*.P r.r.P r.%...U.U.S.H.H.F.7.;.g.:.=.| 2.}  .| 1.Y.0.#.4 7 8 O $ $ 6 r L.0Xy y u u C G A :.",
"g x ! *.! Q G 3.E.G.R.K.K.J.!.5. .g.h.Q w.d...z.-.$.Y.U.S.H.H.F.).g.g.c.l.| +.2.6.=.| 8.0.p 5 & % O $ 0 y } +XL.X #.F u $.S G ;.",
"x g J ! w.Q | U.E.Y.R.F.S.F.U.9.=.l.P P w.X.y.-.%.:.[.XXJ.H.H.F.Y.c.r.r.=.+.=.Y.=.=.S ;.0.5 u % O % $ F y 9.+X6 6 i ;.u +.u C $.",
"x x n x K G $.l.R.R.R.4.<.<.2.3.| $.:.*.t.r.P ..z.:.2.4.D.P.H.F.2.c.h.-...+.@.} | =.+.@.#.& 0 % & w 0 i } +X<.X #.0 +.0 u 0 u +.",
"n W ! x P &.9.Y.R.K.K.4. .@.=.6.3.G r.i.p.h.P %.-.&.3.G.J.H.H.F.c.h.d.-.| | ;.+. .=.3.} 0 4 & & & 4 } 0 Y.+XX y i t F 4 S u 3.3.",
"n K K x A ;.Y.Y.K.J.G.4.1.5.=.:.g.$.r.p.w.%...-.g.-.=.4.K.P.J.J.d.r.h.h.-.@.1.F =.=.8.S : u $ $ $ u i i +X{ X i S % C F 8.Y.(.x.",
"n K J A D 3.E.R.K.J.G.4.1.l.:.g.-.G ].Z.r.r.P :.....=.G.K.D.S.G.z.v.p.r.G | +.F 2.;.3.F 4 C &   & #.p ).(.X i i | 4 :.x._.OX9.@.",
"d v K P C 3.E.G.J.K.J.<. .3.:.b.g.P ! i.p.b.z...-.$.| 4.W.P.J.J.f.v.y.d...| S +.F  .+.S w z 1 $ & y } XXp 2 @.@.u 3.[._.[.Y.i 5 ",
"g g x Z S Y.E.F.J.H.K.<.1...P %.$.;.Q P Z.p.r.%.....=.5.K.P.P.G.f.t.r.g.G G =.=.F F 8.+.$ q 1 $ 3 y 0.0.X #.2.+.0 x._.3.G t 2.@.",
"s g j C | U.R.!.J.J.F.4.1.-.%.%.:.%.P *.w.b.z.P %.$.=.G.D.D.D.XXQ.w.b.g.G ..:.| F F $.C . 8 w $ i { #.r 6 ).@.;.0 Q G S =.l.(.3.",
"J g x Z | 2.G.J.S.P.K.<. .| %.....Z Q ! *.%.h.:.$.P =.5.J.!.J.U.h.t.h.h.......} +.i F C $ $ 8 7 i 0.{ . <.).@.2.0 w C c._._._.=.",
"K K Z j :.2.1.R.!.F.K.4.3.| $.$.%.%.A *.p.%.P :.P g.;XE.D.D.S.U.f.t.:._.-...d.D  .i S F 3   7 0 i ).3 r oX7.2.2.G G w &.c.l.g.c.",
"K J Q P $.=.2.G.K.F.E.9.3.g.;.%.P i.%.! v.*.P :.%.$.T.5.W.W.J.G.f.h.;.;.[.G -.=.} #.F u 3 & 0 0 0.2.. 0.(.7.9.2.8.&.7 D r.k.b.%.",
"g K P Z &.$. .G.E.R.R.(.8.[.r.$.g.c.`.i.C.P $.-.g.h.[.U.W.J.J.G.z.w.l.>.:.D =.3.@.} F t 3 w 0 i (.2 y (.0.7.R.7.8.:.% w r.i.i.w.",
"g < j A Q ;.3.U.G.R.XXwXl.G &.C.%.g.*.*.*.*.%.-.P :.l.U.J.J.J.U.g.k.c.c.....X.T.2.} } t 3 q 0 7.+.. 4.).<.<.L.0.F 7 1 q A ! w.w.",
"_ n g Z &.g.=.9.9.G.9.(.x.+.g.D c.<X].! ! %.$.P $...} U.W.P.H.W.g.r.j.c.P ..f.6.2.@.3.t $ u 0 ).& y #.G.#.4.0.9.+.4 8 - j ! ! n ",
"].u.x z &.;.8.1.2.Y.9. .| $.c.c.r.h.z.Q P P P D $...=.5.J.J.P.!.c.v.h.h.c.$.-.$.| ;.;.i 4 5 9.i 4 [.#.7.<.4.9.2.;.q A + n ) ) b ",
"A.i.Z G ;.+.3.=.Y.E.3.| l.=.:.;.$.:.Z Q P ! P N G ..=.2.4.S.H.R.g.p.r.r.g.%.$.d.| =.l.| u F ;.X /.j.F 9.<.0.9.2.$.j.*., _ W b b ",
"A Z z %.:.+.9.3.9.E.5.=.3.l.g.$.%.*.P P %.%.%.Z D G  . .4.4.G.9.g.r.h.r...P G g.3.:.3.} t ;.0 $ :.e S ;.@.G.Y.l.3.Z g g ) W W n ",
", 9 Z %.&.| 3.2.5.Y.E.1X=.G =.r.r.A P P Q :X$.%.D =.l.1.2.1.G.Y.h.r.z.k.P %.d.z.c.:.$.C t +.$ G z c G &.9.(.9.2.S j K s n W m b ",
"z 9 G D G =.2.2.(.l.1.(.| | ..G r.r.G :.g.:.r.j G -.c.=.=.=.3.3.g.g.:.r.P P $.G $.D $.C C & 4 Q ~ s.E :.c.3.=.=.:.G K * s n L m ",
"Z 8 G C G l.3.1.U.Y.=.} =.&.-.P $.$.A h...G P $.....:...:.3.-...D *.Q *.r.%.-.g.P $.$.;.C $ :.*.s.s.v Q :.=.Y.9.3.C * , K L ( d ",
"A 9 P D | 3.3.@.(.Y.=.=.|.3.&.P c.$.G $...C G D G P d.:.r.r.%.r.P G P -.:.G P :.D :.Z -.q C h.! ] ] f v l.T.oX5.@.3.- - g K h d ",
"z 9 G G G =.l.9.Y.l.1.=.l.:.g.r.g.G G Z C $.G D P P r.w.*.w.! t.b.j G r.:.$.$.G G g.%.$.%.b.i.! f [ T K |.T.U.5.2.} C %., J h h ",
"1 Q Q D $.$.=.8.Y.3.=.g.$.:.r.;.$.C C C ..%.G Z %.X.*.! q.e.) I j g.Z :.r.$.Z $...$.g.P $.*.r.J M @X( W i./.Y.9.2.@.N $.q P q.k ",
"- h.G C $.=.=.l.8.l.3.l.:.g.c.$.G C S D G G Z G %.%.q.! ) ) ) e.r.C Z $.d.$.$.$.G P $.c.%.r.$.~ ` @XT ! j.3.9.G.1.@.t =.$.%.Z Z ",
"j C.Q G &.;.=.3.l.c.:.l.l.c._.%.S S G D Z Z D P w.t.p.e.) ) ( ) w.$.Z :.d.G %.g.%.$.r.:.:.*.:.! [ ] M W h.=.3.U.9.1.S 3.d.P 8 Z ",
"9 G Z G &.=.d.3.T.c.c.;X<X X'.%.+.+.| C C P P ! t.t.m.e.) ) ( ! g %.G r.r.-.-.%.P $...G $.h.b.q.M M m K h.g.1.Y.2.6. .=...G G G ",
"z z Z G :.l.c.l._.c._.;X;X}.c.>.8.;.| C C P ! q.t.e.e.) _ e.e.q.h.Z D -.g.r...$.-.....$.%.:.l.*.T ] ' E r.T.1.5.5.3.| d.:.q G G ",
"j A C G %.b.:.c._._.<X<X7X,X'.c.8.+.S C C Z P e.t.e._ ) e.s.e.! h.%.D r.g.r...:.-.$.$.-.:.-.c.p.[ @X` n :.c.l.6.l.5.| g.b.8 N C ",
"j A A *.r.c.l.}.}.}.<XeXfXeX*XC.;.} u t Z P I q.) ) ) Y ) e.) ! 8 :...d.d.c.:.$.l.T.:.g.| :.g.r.T s.T v r.h.T.d.| d...-.-.P %.C ",
"C z $.c.g.;.c._.}.}.rXbXBXjX,Xj.;.+.S t X.f.q.K x b b h b ! q.w.`.j G d.h.:.-.:.d.d.d.-.d.%.c.w.T [ T g p.c.z.l.-.=...h.Z P r.$.",
"z G &.| 3.g.l.[.;X,XdXVXCXMXeX'.8.+.G B f.$Xw.K J x n b x z Z %.v.h.P h.j.c.;.:.h.:.%.d.d.P l.*.T f ' W *.c.c.z.T.D -...d.-.:.%.",
"C Z ;.=.:.8.T./.B. X6XbXVXaX*Xk.;.R Q X.O.$XI K J P ! W A P P P 8 w.7Xk.c._.8.g.Q.h.%X-.b.h.}.i.` N.N.v Q k.z.Q.z.d.P D b.P Z C ",
"z C =.=.=.8.T./.}.aX7XdXxXeX;XB.x.;.;.X.I.$XK ! w.w._ _ K I K *.p.p.vX`.$.;.g.c.i.h.h.|.b.c.C.k.T s.N.g *.b.h.c.|.Q.P j %.z P :.",
"w G =.$.l.x.x./.[.tXtXfXkXaX,Xk.x.&.G B I.$XV E q.q.! e.K ! P q.v.k.xX].>.fXfXx.c.:.c.}.iXC.;Xi._ ( u.c Q i.C.b.:.:.C.b.b.g.*.%.",
"w G :.3._./.c.c.c.C.7X8XfX7X*Xk.&.D C q ^.$XU J J ! _ _ J ) K J z c.xX X XCXmX_.'.C.}.*X2X<X}.j.E v u.~ E A *.:.k.k.%X`.b.b.g.:.",
"q D &.:.g.x._.x.k.C.6XtX8XtX].k.$.G D B ^.$XX.P k J L ) L ) ) w.z >.bX;X>XCXmXwX*X'.:XaXxX<X'.i.a.~ ~ Q Q %.k.].%X%X:X:Xh.r.c.%.",
"C D G D D $.c.g.&.].7XfX7XaXC.i.:.$.C B I.I.X.P %.X.) ) b b b W i.C.bX}.;XZXNXtXrX}.:XmXZXaX*Xi.u.~ Q *.:.j.C.*X&X%X:X7Xb.:.g.:.",
"C -.G q C C +.$.$.B.,X,X7X*X'.Z.i.%.C B I.o.X.P J I q.U l b n n Z B.tXj.*XBXVXVXrX].,XaXbX7X'.b.k.i.i.c.>.j.C.=X2X7X:X%X|.r.N :.",
"t G G C % q C C Q aX,X].6X*X].*X'.%.$.X.$XI.D j x d q.t.h m ( ! Q C :.:.k.7XkXbX,X.X=X8XjX8X*XC.g.h.;.g.>.g.Z.,XpXaX%X`.b.:.-.3.",
"t $.$.q 7 q z 9 %.7X;X,X>X,X>XkXrXc.;...I.o.j z k k q.Y L n.m ! Q c.r.c.i.].7XdX,XC. X8XsX=XC.i.g.c.G l.x.>.*X7XMXnX3X:X|.c.-...",
"F $.;.Q &.G A A :.'.'.*X X>X7XBXeXc.G D I.o.8 z x l I V n.4Xn W A _.C.Q i.C.2XdX,Xk.].7X8X=X=XZ.r.g.:.g.g.j.C.,XxXjXeXiX|.-.$.3.",
"G g.T.g.'.,X*Xi.*.B.>X]. X*X,XaX>X&.C N f.f.C A J l V U 4Xt.b J Z q $.h.h.%XeXpX6XC.].>X=X&XV.p.g.g.c.c.c.c.b.,XsXdXiXxX:X:.3.l.",
"=.=.g.'.,XdXaX].c.C.;X*X,X X=X7X].G e q V X.Z A x k k U m.d x A Z g.g.c.b.k.3X6X].V.j.A.=X&Xv.i.r.l.g.|.'._.%X,XeXsXdXjX2X:.:.$.",
"| =.8.c.}.xXkXZ.c.k.j.B._.k.].8XZ.H q w k V z z v h k V k k x x C ;X:XA r.i.*X=X>X.X,.M.A.A.u.*.i.C.*X*X%XrX7X%X8XiXgXvXpX:.g.g.",
"3.2.g._.,XdXaX].i.].}.k.C.'.]..XB.C q q V X.A c n b V V k I J Z D G g.*.Z ]..XA.6X.X^ a.M.a.~ ~ *.b.aX2X%XfX2XC.3X8X3XgX8Xi.c._.",
"3.l.c.C.,XaXeXZ.i.c.}.x. XB.B. Xi.z w 8 k I c E L L I o.I U J %.&.8.:.&.G k.Z.A..XB.R M.M.,.^ E w.Z.aXdX,XeXeX:X].2X}.:X[.c.<XwX",
"-.c.<XdX7X8X=Xk.i.&.8.;.:.x.c.}.l.Q P J ! ) _ _ m M L L Y L ) K {.cXuX@.D k.C.A.B.>.^ / ~ ' ' E e.Z.aXxX*XrXwX+Xx.{.(.Y.Y.XXW.XX",
"g.`.gXnX8X8X=X].}.x.8.$.g.c._._.c.D A ! L n M M m m ) Y Y L ) J 1XBXoXE.:.x.C.j.C.'.^ / ~ M./ ~ v.v.aXdX_.>XtX+X0.L.).0XXX<.W.~.",
"w.A.nXMX8X6X'._.[.[.T.| %.i.V.i.Q D C z x v h m ` ( e.m.m.I q.*.B.1X} oX_.%X*X*.<XmXR R / c ~ R k.k.rXtXB.'.>X/.;.8.x. X8.7 l.;X",
"v.&XMXMX8X,X'.c.g.| +.x.'.u.u.a.$.D C Z c g x e.e.n.) e.Z.t.w.Z.+.;.9.9.g.h.k.j.[.fX,.H R R R Q i.g.}.6XB.B.B.j.&.B.B.'.i.w h.fX",
"A.-XvXxX*X%X|.g.T.l.:.c.k.u.u.k.A D :.Q A i.&Xe.&XZ.w.h.! k.Z.i.B.+.(.@.S :.k.i.c.g.B.,.i.,.Q }.g.$.c.;X8.j.B.R H Q C.>Xc.P %.rX",
"V.=XsXaX].'.|.l._.3.$.j.Q E u.6X'.;.c.c.i.c a.u.J w.A %.%.i.b.c.>X1X+XoX[.}.k.Q g.:.8.B.A.,.>XtX/.>._.}. Xj.j.H w : j.*Xl.d.%.c.",
"k.*X7X7X*X'._.c.x.g.g.:.%.i.*.k.:.C ;.j.C.A A.8XQ *.*.k.:.j.<X6XmXcX(.8.yXeX>.g.g.g.g.k.k.*.c.'. X{.+X+XrX/.8.S w % =._.d.g.z.6.",
"c.}.;X;X}._.l.c.x.l._.c.g.g.:.C.[.D >.b.`.z C.,XQ Q r.g.%._.mXNXtX).).Y.yXrXi.;.&.d.%.h.k.a.w.C.{././.+X1X/.8.t % $ N l.l.S =.| ",
"l.T.x.<X<X[.:.l.T.c.Q.c.g.g.l.g.$.P :.i.*.Q P A Q *.$.;.:.c.<X6X+X7.wXwXT.6X:.$.D d.r.! e.e.w.c.c.[.oXY.T.3.l.:.w 7 =.g.g.7 w G ",
"3.8.{.qXOX1XE.[.oX_._._.c.l.l.r.i.%.%.%.P A J K Q A z Q %.G &.$.+XwXuX+Xx.8.;.>.P :.! q.s.s.! *.c.{.cX/.t S $.yXl.G eXl.C % 7 0 ",
"0 j.wXcXlXwXqXyXrX<X<X<X*X*X*XZ.v.i.*.! Q J c A g j j $.P 9 z H {.rXcXlXrX+XC.k.g.r.I _ N.s.e.e.C.&XC.x z z i.C.9 w k.k.G e C e ",
"& 1 0 8.xXzXyXfXyXrXrX<X&X=X=XV.w.q.! ! ! K J J P P P %.Q Z Z 9 C x.lXzXcXgX8X].h.t.I ) s.s.s.Z.s.=XN._ a.~ ~ z * - O Q Z 9 j w ",
"  o o o wXmXgXxXxXgXdXsX8X8X-X&XZ.V.p._ ! W K K c K P P Q Q *.Q A c.}.;X>XA.V.a.*.q.L b m M n ) #X#X@XT W ' u.a.u.E *.q.! j A g ",
"  o O   ;XxXxXjXvXjXkXhX9X-XZ.s.! W K c v n n K g x A P z z c K g 8 8 8 & : @ * * , = = d d s v ` ] [ f d ; s v x v e.I t.J J I ",
"    O g k.A.9XsXhXkXhX-Xs.W h s s , < < > < s , g , 9 z z z g s n = g , + < ; @ * - * # @ @ + @ # # # # d h > , s b b L s.) Y 5X",
"1 + + 9 g s T s.#X9X9X` d # = = , * > > ; > s > , , z z g g g s s b = * < @ ; ; + * * * > @ + * = = # = = * = , , = h l f a a d "
};
