/* XPM */
static char *_bd7dc82c5e347c5b8a03fb2dd05d6cb7H7ySHSsl1Liye6p[] = {
/* columns rows colors chars-per-pixel */
"64 64 256 2 ",
"   c #050200",
".  c #0C0301",
"X  c #0B0C01",
"o  c #060707",
"O  c #140401",
"+  c #1B0401",
"@  c #140A02",
"#  c #1C0B03",
"$  c #1B0C0A",
"%  c #160A0A",
"&  c #1C120B",
"*  c #1A1407",
"=  c #160D17",
"-  c #1B1516",
";  c #0C110E",
":  c #230401",
">  c #2B0401",
",  c #230B03",
"<  c #2B0C02",
"1  c #230D0A",
"2  c #2B0D0A",
"3  c #22060D",
"4  c #340401",
"5  c #3D0601",
"6  c #330D03",
"7  c #3B0B03",
"8  c #340E0A",
"9  c #390B09",
"0  c #251204",
"q  c #2C1205",
"w  c #24120C",
"e  c #2C140B",
"r  c #2B1A0A",
"t  c #331305",
"y  c #3C1504",
"u  c #351904",
"i  c #3C1A05",
"p  c #33150B",
"a  c #3B150B",
"s  c #34190C",
"d  c #3C1B0C",
"f  c #290E13",
"g  c #241412",
"h  c #2C1413",
"j  c #2D1A13",
"k  c #241B1B",
"l  c #2C1C1B",
"z  c #27161A",
"x  c #321413",
"c  c #331B14",
"v  c #3C1B13",
"b  c #331C1A",
"n  c #3A1D1B",
"m  c #371415",
"M  c #192C13",
"N  c #3A240A",
"B  c #29221C",
"V  c #3C2314",
"C  c #3C231C",
"Z  c #36261A",
"A  c #323313",
"S  c #150C24",
"D  c #1C142A",
"F  c #0E0B23",
"G  c #2D1C24",
"H  c #261B26",
"J  c #351E27",
"K  c #331F34",
"L  c #2B2326",
"P  c #332424",
"I  c #3C2423",
"U  c #3B2A24",
"Y  c #37282B",
"T  c #383529",
"R  c #2E2733",
"E  c #342433",
"W  c #3B2834",
"Q  c #373536",
"!  c #1D2025",
"~  c #430B02",
"^  c #4C0D04",
"/  c #470806",
"(  c #560A05",
")  c #421403",
"_  c #43130B",
"`  c #421B0B",
"'  c #4A1D0C",
"]  c #4B1408",
"[  c #53140B",
"{  c #5B140B",
"}  c #561707",
"|  c #431D12",
" . c #431D1A",
".. c #4B1812",
"X. c #591A15",
"o. c #510D13",
"O. c #670B09",
"+. c #63190B",
"@. c #6A170A",
"#. c #751909",
"$. c #661714",
"%. c #6E100F",
"&. c #4A210D",
"*. c #43240B",
"=. c #58240B",
"-. c #442214",
";. c #4C2415",
":. c #44231B",
">. c #4C251B",
",. c #4D2A1C",
"<. c #472B18",
"1. c #532B1C",
"2. c #572718",
"3. c #4A3319",
"4. c #58371A",
"5. c #4F330C",
"6. c #69240B",
"7. c #77240A",
"8. c #672617",
"9. c #762918",
"0. c #67351B",
"q. c #7B361B",
"w. c #4C1D26",
"e. c #432523",
"r. c #452A23",
"t. c #4C2B2A",
"y. c #492826",
"u. c #532C23",
"i. c #562B28",
"p. c #493429",
"a. c #553225",
"s. c #5C3324",
"d. c #55332B",
"f. c #59372A",
"g. c #472B34",
"h. c #473738",
"j. c #563937",
"k. c #5A2C37",
"l. c #642A27",
"z. c #752D27",
"x. c #643323",
"c. c #663829",
"v. c #773728",
"b. c #683935",
"n. c #793D36",
"m. c #702939",
"M. c #671F20",
"N. c #314234",
"B. c #594916",
"V. c #525119",
"C. c #674E15",
"Z. c #70641A",
"A. c #4A433A",
"S. c #594338",
"D. c #564E29",
"F. c #68452B",
"G. c #6A4537",
"H. c #734433",
"J. c #76483A",
"K. c #775638",
"L. c #744E2E",
"P. c #70762F",
"I. c #343943",
"U. c #4A3C45",
"Y. c #563B45",
"T. c #5A3850",
"R. c #653947",
"E. c #773D42",
"W. c #733961",
"Q. c #3A474E",
"!. c #474447",
"~. c #584847",
"^. c #554E55",
"/. c #694646",
"(. c #774845",
"). c #785448",
"_. c #684A56",
"`. c #675757",
"'. c #775958",
"]. c #6F4F4E",
"[. c #716357",
"{. c #5B5564",
"}. c #715C68",
"|. c #676568",
" X c #76696A",
".X c #696B73",
"XX c #7A7677",
"oX c #6B7173",
"OX c #892B12",
"+X c #883013",
"@X c #8A342D",
"#X c #AC2C38",
"$X c #811406",
"%X c #87453B",
"&X c #8C4E2C",
"*X c #886A38",
"=X c #996123",
"-X c #88344B",
";X c #9F3761",
":X c #D63352",
">X c #884847",
",X c #875644",
"<X c #895656",
"1X c #915353",
"2X c #AB484F",
"3X c #967558",
"4X c #906B56",
"5X c #8F536A",
"6X c #AE5470",
"7X c #876669",
"8X c #90726F",
"9X c #AB6E73",
"0X c #AA7152",
"qX c #F54D54",
"wX c #D8546A",
"eX c #778D71",
"rX c #6E8A4D",
"tX c #938E29",
"yX c #A4923B",
"uX c #B0AE3C",
"iX c #B7AD4C",
"pX c #AF886C",
"aX c #989E67",
"sX c #C69577",
"dX c #CCBF63",
"fX c #D8D26A",
"gX c #757B84",
"hX c #907B85",
"jX c #A85195",
"kX c #CA718B",
"lX c #E574A1",
"zX c #C85CAC",
"xX c #878589",
"cX c #99959A",
"vX c #8D8F92",
"bX c #AD9292",
"nX c #989AA2",
"mX c #9BA3AC",
"MX c #B1B2B4",
"NX c #B0A5A3",
"BX c #CC8E91",
"VX c #D094B1",
"CX c #CCAFB5",
"ZX c #F1ADB4",
"AX c #EAA19B",
"SX c #E8D2A8",
"DX c #B5B7C1",
"FX c #CFB3CC",
"GX c #E1ACD4",
"HX c #BDD4D2",
"JX c #CDD1D4",
"KX c #F4C8CD",
"LX c #FAF2CD",
"PX c #F6FBFC",
"IX c #E7EAEE",
"UX c #E9D7E6",
/* pixels */
"v q , t p < .   . .     . # + O O v ,Xt 0 @ P g.x w 0 j H D F F F F = z G Z r , w w # + @ @ X   : p # . % # O 0 * 0 < 6 : c @   ",
"v < , t a < .   . .     . $ # + + a K.*.0 @ P W b j c B H S S D D D S - G U Z e , , + + + $ @   + w # O w w + < @ 0 e c U +   . ",
"a < , t a < O   . . .   O $ $ + + < c.0.< # B P l b Z Z k S S D K K G z G Y P g w 1 , , 1 e , O # w # O # , + , , U &   B   % % ",
"a < , p a 2 O   . . . . @ $ 1 , + : =.H.< w g z h j Z j - S D H J W W G J Y L $ w w 1 2 x c 2 + , 1 + O + 1 < q h P - Q Q.; z $ ",
"v q , p a 2 O   . . . . @ $ 1 , $ + ) J.y w g & h h r j z H H H G J J z l P z $ , , < < 8 x 1 + # # # , , e c j h @ !.JXvX= % + ",
"v q , p a 8 + . . . . . O $ 1 , $ : ~ H.;.c l g z j r j G E E G G z z f z l l g , 1 2 2 e e 1 + , , e p , w h $ & % .XIX.Xo @ O ",
"v q , t _ 8 1 % . . . . . # 1 , $ > 5 v.s.n P g z b c b P W E G G H H P U b x x 1 e e 2 2 w w @ q < d s , w L H - L oXxXH o k O ",
"v 0 , t _ a 2 & . . . . . @ # , + < 5 8.c.n P g z b Z Z P W E G R L W Y.Y.e.x 2 : 2 2 < # # @ X q < y d 1 P ^.^.M k |.{.W = g . ",
"p , , q t 6 4 7 e , O . @ # , : 3 + 7 O.M.b B < k & $ - G W E K L P J J e.e.v , : t q * X X $ # + r.p.& - H FX!.F {.JXvXH l @ # ",
"p < , q p 6 4 7 8 < + O @ # , : 3 O 4 ( o.# B p j g g g H G K E E H b y.y.n 2 q , t q # X X $ 1 ,.Z w ^.- - |.k ^.nXPXcXL W l w ",
"s < , t a 6 7 ~ 9 2 : + # # # # f O ) ( o.+ B n j b b l z H H R R W I 2 8 :.C < < q 2 # X X $ 1 , c `.CXL = !.h.gXMXPXvXH L $ O ",
"s < < t a 7 7 ~ 7 7 > , # # # # h + ;.( X.$ k m c n I J G G R R R h.t.a _ 1.<.1 q e < # . X $ g b O `. X= L oX!.gXMXPXnXQ l # w ",
"d q < p d 7 5 ~ ~ 7 4 2 1 , # # 2 O 4./ ..@ - h c c c l J L R E E l :.H.H.;.p c q 6 6 , @ X $ g U g 8X!.o Q xXQ .XDXIXcXQ L g g ",
"d < < t a 7 5 / ~ 5 7 6 2 < , # p 0 F./ _ @ B m c h e l P Y E E E b -.0.0.&.d C t 6 7 6 , # w h g ^.JXxX= Q XXh.oXHXIXXXL G g O ",
"a < < t a 7 5 / 5 5 7 9 8 < < , 2 N 4X^ _ * L n r e h l P Y W W E g.1.=.=.2.,.n y ) _ ` p 0 w x Y  XJXXX; Q xX!.oXmXmX{.L P z # ",
"a < < t a 7 5 / 7 5 7 9 8 > : : : N pX=.' * L v j j b P I g.g.g.E e.c.&X&X0.-.c y ) [ ..v e q m - oXIX|.! Q xXL I.I.I.R L k $ l ",
"0 0 , < d _ 5 / ~ 5 5 5 7 6 : + < 0 pX&X] A T 2 w Z U j c g.h.W g.g.r.C.*X*.r.Z ] X.X._ t 0 r g B XXJXoX- = L g g l P U I C v x ",
"q q : < a _ 5 / ~ ~ ~ 5 7 4 > : > , J.q.2.0 T 2 g w e c b b P W Y Y.a.C.Z.3.p.r } { X.[ y u t 2 B ~.xX!.- & & O g l I U I C v c ",
"d p < 6 | _ ~ / ~ ~ ~ ~ 7 7 > : 2 : 7 8.v.@ T h j w e b b b P W h.Y.G.yXiXB.r.N } } [ [ } &.` 8 c I h.z l l j j j Z C C C v v d ",
"a p < 6 ` _ ~ / ~ ~ ~ ~ ~ 7 4 > 2 , > %.v.+ B m j Z C c c I W J j.h.L.iXdXC.<.3.6.} ^ ^ { 8.X._ < v  .p b e 0 Z c c c c c s p p ",
"t 6 : < a _ 5 _ ~ ~ ~ ~ 7 7 4 > 2 < ~ O.9.< * x w c c x c I Y J g.h.D.tXyXB.3.N 6.} ~ ~ { +.[ 7 4 s.u.,.:.p # 0 e e e e e q q 0 ",
"p t < < d ` a _ y y 7 7 7 9 4 > : < X.O.O.d @ h j , 1 n e.I Y h.h.h.D.tXuXB.3.3.9.=.7 4 ( { ~ : a 1.i d < < w w , , , , , 0 , # ",
"d s < q v d a ` i y y ) a 9 6 < : < { O.O.;.w x b 1 2 e.t.e.g.U.U.h.D.iXdXC.p.f.9.X.t 6 ( { _ # , t , d : + 1 $ # O + # # # @ O ",
"p q , , p t 6 t i i i _ a a 8 2 < < / $X#.2.Z c b b n n e.g.g.W h.U.D.tXuXC.d.<.6.' e 6 [ $.| & # <.f.3Xf.s h $ + O O @ $ @ @ O ",
"y p h e a t ,   3 % @ + : 2 $ % & > ^ { 8.G.p.g b Z n n t.t.t.j.p.].4.P.tXV.r.1.7.8.: a ] [ 5 > c i pXSXL.: j & @ $ + # g 1 @ & ",
"y < + : t d 0 . . .   . + + .     : [ / ^ G.j.1 j h h :.d.i.d./.~._.K.dXfXV.V c.+X0.> a ^ } 7 2 v i *XsXL.i e . . O O O 1 + . @ ",
"` q + , d -.e . % X   . O # % o O 8 X.( ^ c.p.w l w 1 v u.>.i.).j.].K.tXiXV.f.b.OXv.7 y ~ [ y < :.*.K.0X4.< < + O O O + 1 # O # ",
"*.t , 2 ` &.< . . .   O + , @   # : ^ ( ~ ` p e B j e  .f.b.,X9X7X'.K.=XuXV.a.s.OX@X~ _ ~ } y , q 4.AXLX3X*.d , $ # + , e 1 # & ",
"i q , < y ` t + : , e c v 8 + . # : [ [ ~ ` c C & b n u.(.3XpXBX8Xb.K.iXfXB.u F.OX@X^ [ { { ) , u 4.SXLX*X: *.*.# # + , e , O # ",
"i t , : 7 ' >.I t.y.C -.| a > + # 6 2.[ 5 -.V c O j C y.G.<X4X4X).7X9XyXiXD.p.F.+X@X^ X.$.$.) 0 q 4.SXLX3X&.<.6 # , + , e 1 + # ",
"N u 0 < y &.,.e.e.c 0 , > > : # O > X./ > 6 , : w j n e.j./././.7XVXbXC.B.D.S.4.&Xq.5 X.9.@.~ t p <.K.*X5.i &.t , 0 , 1 p 1 # 0 ",
"i u 0 < ) ] t < + # * r d s , X 0 : [ X._ 6 < v j j x t.'.7X7XhX<X<X(.F.D.U s K.&X9.4 { #.@.~ t , <.*.u N ,.' y # 0 , , e 1 + , ",
") d , < i ' | + e < < p v p # O : x v 6 t > 2...l.v T U 7X9X(.'.R.b.G.(.n.T M c.&X@.( , $  .o.4 q V d <.-.u d q 0 , , 2 c w O $ ",
"y d , < i ' | + q , < p v e , # + < 8 7 ] 4 ' i c  .b.k.`.8X8X9X1X#X@Xz.z.Z A %X&X#.( , O m / 4 < p t i y < t , O # + 1 c w # & ",
"y d , < i ' -.+ e 0 q p x e q 0 w < ~ ( $.^ 2.` U t.k.w.U.XXKXUXZXqXqX@XJ.d N 9.&X#.O.2 . > 5 6 q p < 6 6 : 0 + @ $ # w c e # 0 ",
"y d , < i &.-.+ j 0 0 e s p < < r < ^ +.9.{ c.,.i.j.U.~.R._.FXJXAXqXqX9.(.e.p.@X&X#.%.p O > 7 t v | 6 y u < q + @ * # 0 s r 0 r ",
"y d , < i &.-.+ r , , q v d t 6 e > ~ O.%.{ H.s.k.J J Y.R.<XUXIXAXqX:Xi.~.Y p.G.v.O.$.m O > 7 t ` | y ` d q e + . @ + + q p s V ",
"y d , < i &.-.: w , , e v | _ ~ q > ^ ( ( { (.d.j.i.-X9X5XT.hX7X<X@X>XA.}.^.~.).0.( { t O > 9 < 7 ` y ` ` q e # # 0 , : , < , 0 ",
"y d , , i &.-., 2 2 p v | ` ^ ^ a 4 _ [ [ X.>XX.j.l.-X6X5Xk.'.E.].b.A.A.(.R.Z 6.a./ / q O 6 9 < y ] ) ' ` 2 h 1 p -.v 6 6 < , , ",
"y d , , i &.-., e c C :.| ~ ~ ( _ 4 _ _ _ l.>Xo.>X1X9XkX6X-X5X~.>XS.N.T m.n.4.&XS.~ / , @ 8 9 < ' 2.' ;.` < h w y ;.>.| :. .c c ",
"u u < : v | ;.: r.:.` ^ ^ ^ ^ / / C @ 4 O.z.(. .4X6XjXzX5X9X'.K ^.K.*XV.N.T.k.B.v...1 z 2 v < < &.2.2.2.] ' >.t 2.>.' -.1.;.' 2.",
"u u q : v d 1.7 ,.;.' [ { { [ ..( 0 . / %.[ u.w.9XzXVXVX6XpX].Y.^.(.,XD.T j.f.G.,X>.O . + | p e + >.c._ c.>.a d 2.>.` ` 1.1.2.x.",
"u d t : p a s.;.` ] [ { +.X.X.[ ^ # . ..+.5 v y.5X5XjXjXbXKX8X].~.).].h.A 3.1.b.H.d.1 $ O p p x h r.8X/.f.;.u.>.>.;.` ' 1.4.2.c.",
"u d s : p i x.=.^ ^ { +.+.{ [ ] ~ 0 # / ( ' r.t.-X5X5XW.7XbX[.`.aXCXcX`.V.Z.4.y.;.r.$ + + p v n Q U.bX'.x C a.u.>.>.;.2.x.x.2.2.",
"y d p : s ` 8.} { +.@.@.@.+.[ ..` r , / [ 1.p.k.1XBX5XR.U.!.^._.dXLXDXeXP.yXP.>.3X'.$ O : | v f R xXcXh.j '.d.f.a.f.s.1.x.x.2.2.",
"a d q + d ) 8.^ @.@.#.#.@.{ [ ..4.0 : ( $.,.U R.8XbXE.k.^.^.{.^.aXHXvXoXrXaXP.2.pX8Xb 2 t y p 1 I.DXMXQ g bX'.p f.G.G.x.c.x.0.x.",
"a d q + s ) 8.( @.#.#.#.@.X.2.1.F., > $.8.<.Z R. XhX<X]._.U.^.!.NXHXgXgXaXaXD.+.2.G.< v ' 7 p b !.DXMXN.% 7X'.O p.G.J.H.n.v.x.c.",
"6 a q + t y 8.{ #.#.#.7.6.8.x.c.c., 9 $.8.p.U W.|.}.7X<X X`.h.T CXmXQ.hXcXeXp.@Xv.,X9 u.x.' t w W JXMXQ Y h.p.r.u f.J.>X>Xn.x.x.",
"d y a : s ` 8.@.@.7.@.7.+.v.4.K.F.~ / %.p.M z.E.E.'.4X4X).G.p.T |.oX`.h.!.T u.%X@Xv.8.) F.F.< -.I 8XNXQ R 8X~.z H cXMX~.).n.&Xq.",
"d y a : s ` 8.#.#.7.7.6.z.X.H.F.K.) o.$.4.1.2X5X6X2X#X#X#X@Xw.L ! Q Y Y A.p.,.%Xz.z.} =.F.K.< p b ~.`.Y - XX^.`.W xXPX[.p H.1XH.",
"i y d : s ` 8.#.#.7.7.9.l.9 J.4.3XN ( ..>.#XlXCXAXAXwX:XqX2Xw.H T h.j.~.~.d.1.%X$.$.4 ) ` K.N V :.r.j P k hX^.8XcXxXMXXXy...>.(.",
"i y d : s ` 8.#.#.OX6.v.7 m b.4.pXN O.v >.:XZXIXKXKXVXkXAX6Xw.b j Z r.p.f.u.l.%X@Xv.} =.y f.V e >.a.c Z l xX{..XMXIXXXh.j.i.n S.",
"i y v : s ) 8.#.$X7.0.s.+ x s.L.0XN $.Z p.:XZXHXFXUXFXVXZX9Xi.p  .e.y.a.c.b.J.1Xz.z.8.8.=.;.V # y ;.:.1 g |.{.oXmXPXxXZ t.j.p.aX",
"i y v , s ) 8.#.OX#.H.t + 2 F.*X1Xi o.c r.2XZXJXFXFXVXlXlXwXl.V y.e.C >.c.>X1X7X%Xv.8.X.[ y C 0 d &.u.< 1 l ~.xXJXIXcX`.f.n c MX",
"u y v , s ` 8.#.OX9.1.+ $ e &X=Xv.6 1 9 ,.%XlXCXVXBXkXwXwX2XE./.R.j.p.d.1XBXZXZXZXsXz.8.[ _ d e <.<.d.| n g Q |.JXIXcX/.a.>.Z  X",
"u y v , s ` 8.#.#.@X> $ . v &X=X` : & o.l.x.:X6X2X2X>X(.b.k./.7X5X/.p. .E.BXKXKXZXBX+.9.{ 2.p e -.<.a.a.j.p.U T DXPXxXd.G.>.<.U ",
"-.t s , d } 9.#.%X4 < e q : 3X&X$ O ;.' 2.` '.~.S.~.p.j.y.t.R.y./.j.e.i.J.n.1X9X%Xi.b x 0.} ` k [.3.G.i.1Xb.u.3.|.JXvXh.f.u.j. X",
"` t d , t ] 9.7.c.< : , q u 3X0.O c s.] 2.| `.~.j.~.t.y.e.e.t.> e.t. .f.b.c.b.(.n. .l , =.6.t B 3XpXc.H.4Xs.J.c.h.XX^.p.f.d j.xX",
"a t V , < ) v.z.v : , + e -.,X) O ,.x.7 >.p h.h.t.j.t.e.y.t.t.+ 8 u.>.f.f.u.t.t.s.c k O 6 0.< Z &XsXF.F.).,.G.b.j.~.e.t.f.a h.xX",
"i a V , q ` c.x.# + w w c :.b.4 > s.;.> u.h z P  .u.j.u.t.t.d.< a u.>.u.a.r.e.n <.Z & O : u.t s q.pXsXK.S.G.s.(.).].i.>.1.1.S..X",
"` d -., p d s.;.O + g h n | c.2.0.x.6 2 S.j + l v >.G.u.u.:.u.p | u.-.>.a.r.C h Z A.* @ O c V u +X0XLX4X3.S.s.b.,X(.b.;.) ;.~.gX",
"' d -.> t d ,.6 O # w e v ;.c.,X,Xx.: c h.w # C | a G.u.f.>.d.>. .u.| 1.f.u.C x b S.0 * @ + <.u 6.0XLX3XV V b.s.%XH.G.s.y < h.nX",
"` d | > 6 | 1.7 # 1 e t | 2.1.H.1X2.+ Z B O V G.a.t b.1.G.c.b.l.y.u.| a.c.,.>.:.x d.N O o o Z *.=.4XSX3Xd.-.a.G.L.F.).G.1.6 l gX",
"i d -.> 8 ..s._ , x p t >.1.7 ) %X` , Y % . S.3X).d s.>.(.c.l.X.y.y.a 1.s.;.,.s.x -.<.. o o Z 5.&.G.BX4Xf.,.: G.4.c.K.J.H.;.$ U."
};
